; Generated with Anisoprint Aura v2.4.8 on 07/10/2023 at 11:00 
; LAYER_COUNT:53 
M530 L53

M104 S250 T1
M140 S60 
G21 
G90 
M82 
G28
M530 S1
G1 Z10 F900
; Start change extruder 
M400
M104 S180 T0
M109 S250 T1
T1 R ; switch extruder 
; End change extruder 
G92 E0 ; reset extrusion
G92 V0 ; reset extrusion
G92 U0 ; reset extrusion
M190 S60 
;MACROLAYER:1
;LAYER:1
M532 L1
M400
M106 P1 S127
G0 X154.500 Y0 F7200
G0 Z0.675 F1500
M1001 L150
G1 F600 U47
G0 X155 Z0.175 F7200
G1 F1200 V14
G4 P0
G1 X155.800 V14.04368 U47.80000 F480
G1 X160.800 V14.31668 U52.80000 F480
G1 X161.100 V14.33306 F600
G1 X260.300 V19.74938 U152 F600
G1 X260.600 V19.76576 U152.60000 F600
M400
M280 P0 S30
G4 P200
M280 P0 S90
M400
G1 X264.600 V19.94048 F120
G1 X305.800 V21.74010 F480
G1 F1800 V12.74010
G0 X315 F240
M1002 
; Start change extruder 
M400
G1 F1800 V9.74010
M104 S235 T0
G0 Z5.175 F1500
M1013 
M104 S180 T1
M400
M106 P1 S0
M109 S265 T0
T0 ; switch extruder 
M1013 R 
; End change extruder 
G0 X190.049 Y140.781 F7200
G0 Z0.250 F1500
G1 X190.859 Y139.699 E0.07355 F1200
G1 X191.773 Y138.697 E0.14738 F1200
G1 X192.784 Y137.788 E0.22136 F1200
G1 X193.876 Y136.986 E0.29508 F1200
G1 X195.039 Y136.295 E0.36869 F1200
G1 X196.264 Y135.721 E0.44229 F1200
G1 X197.539 Y135.270 E0.51590 F1200
G1 X198.740 Y134.970 E0.58324 F1200
G1 X199.141 Y134.898 E0.60540 F1200
G1 X200.310 Y134.743 E0.66959 F1200
G1 X201.190 Y134.698 E0.71755 F1200
G1 X258.811 E3.85460 F1200
G1 X259.912 Y134.763 E3.91459 F1200
G1 X261.249 Y134.967 E3.98820 F1200
G1 X262.554 Y135.299 E4.06148 F1200
G1 X263.720 Y135.715 E4.12882 F1200
G1 X264.092 Y135.878 E4.15093 F1200
G1 X265.057 Y136.347 E4.20929 F1200
G1 X266.219 Y137.049 E4.28317 F1200
G1 X267.301 Y137.859 E4.35672 F1200
G1 X268.303 Y138.773 E4.43055 F1200
G1 X269.212 Y139.784 E4.50453 F1200
G1 X270.014 Y140.876 E4.57825 F1200
G1 X270.705 Y142.039 E4.65186 F1200
G1 X271.279 Y143.264 E4.72546 F1200
G1 X271.730 Y144.539 E4.79907 F1200
G1 X272.030 Y145.740 E4.86641 F1200
G1 X272.102 Y146.141 E4.88857 F1200
G1 X272.257 Y147.314 E4.95298 F1200
G1 X272.309 Y148.553 E5.02049 F1200
G1 X272.237 Y149.911 E5.09447 F1200
G1 X272.033 Y151.250 E5.16819 F1200
G1 X271.702 Y152.553 E5.24136 F1200
G1 X271.285 Y153.721 E5.30887 F1200
G1 X271.120 Y154.097 E5.33119 F1200
G1 X270.651 Y155.061 E5.38955 F1200
G1 X269.951 Y156.219 E5.46321 F1200
G1 X269.141 Y157.301 E5.53677 F1200
G1 X268.227 Y158.303 E5.61059 F1200
G1 X267.216 Y159.212 E5.68458 F1200
G1 X266.124 Y160.014 E5.75829 F1200
G1 X264.961 Y160.705 E5.83190 F1200
G1 X263.731 Y161.280 E5.90578 F1200
G1 X262.458 Y161.730 E5.97928 F1200
G1 X261.135 Y162.055 E6.05343 F1200
G1 X259.797 Y162.248 E6.12698 F1200
G1 X258.500 Y162.310 E6.19765 F1200
G1 X201.159 Y162.301 E9.31944 F1200
G1 X200.089 Y162.237 E9.37775 F1200
G1 X198.750 Y162.033 E9.45147 F1200
G1 X197.447 Y161.702 E9.52464 F1200
G1 X196.279 Y161.285 E9.59215 F1200
G1 X195.903 Y161.120 E9.61447 F1200
G1 X194.939 Y160.651 E9.67283 F1200
G1 X193.781 Y159.951 E9.74649 F1200
G1 X192.699 Y159.141 E9.82004 F1200
G1 X191.697 Y158.227 E9.89387 F1200
G1 X190.788 Y157.216 E9.96786 F1200
G1 X189.986 Y156.124 E10.04157 F1200
G1 X189.295 Y154.961 E10.11518 F1200
G1 X188.721 Y153.736 E10.18878 F1200
G1 X188.270 Y152.461 E10.26239 F1200
G1 X187.970 Y151.260 E10.32974 F1200
G1 X187.898 Y150.859 E10.35190 F1200
G1 X187.743 Y149.686 E10.41630 F1200
G1 X187.691 Y148.447 E10.48381 F1200
G1 X187.763 Y147.089 E10.55780 F1200
G1 X187.967 Y145.750 E10.63151 F1200
G1 X188.298 Y144.447 E10.70468 F1200
G1 X188.715 Y143.279 E10.77219 F1200
G1 X188.880 Y142.903 E10.79451 F1200
G1 X189.349 Y141.939 E10.85288 F1200
G1 X190.049 Y140.781 E10.92654 F1200
G0 X190.482 Y141.104 F7200
G1 X191.258 Y140.062 E10.99726 F1200
G1 X192.135 Y139.098 E11.06820 F1200
G1 X193.105 Y138.223 E11.13930 F1200
G1 X194.153 Y137.450 E11.21018 F1200
G1 X195.269 Y136.784 E11.28091 F1200
G1 X196.445 Y136.230 E11.35163 F1200
G1 X197.671 Y135.794 E11.42246 F1200
G1 X198.836 Y135.501 E11.48784 F1200
G1 X199.213 Y135.433 E11.50869 F1200
G1 X200.338 Y135.282 E11.57049 F1200
G1 X201.190 Y135.238 E11.61693 F1200
G1 X258.811 E14.75397 F1200
G1 X259.831 Y135.297 E14.80955 F1200
G1 X261.117 Y135.491 E14.88033 F1200
G1 X262.373 Y135.808 E14.95083 F1200
G1 X263.504 Y136.210 E15.01616 F1200
G1 X263.857 Y136.364 E15.03712 F1200
G1 X264.779 Y136.810 E15.09287 F1200
G1 X265.896 Y137.482 E15.16381 F1200
G1 X266.938 Y138.258 E15.23453 F1200
G1 X267.902 Y139.135 E15.30547 F1200
G1 X268.777 Y140.105 E15.37657 F1200
G1 X269.550 Y141.153 E15.44746 F1200
G1 X270.216 Y142.269 E15.51818 F1200
G1 X270.770 Y143.445 E15.58890 F1200
G1 X271.206 Y144.671 E15.65973 F1200
G1 X271.499 Y145.836 E15.72512 F1200
G1 X271.567 Y146.213 E15.74597 F1200
G1 X271.718 Y147.338 E15.80776 F1200
G1 X271.770 Y148.525 E15.87244 F1200
G1 X271.703 Y149.831 E15.94359 F1200
G1 X271.509 Y151.118 E16.01442 F1200
G1 X271.193 Y152.372 E16.08482 F1200
G1 X270.790 Y153.505 E16.15026 F1200
G1 X270.634 Y153.862 E16.17144 F1200
G1 X270.188 Y154.783 E16.22713 F1200
G1 X269.518 Y155.896 E16.29785 F1200
G1 X268.742 Y156.938 E16.36857 F1200
G1 X267.865 Y157.902 E16.43951 F1200
G1 X266.895 Y158.777 E16.51061 F1200
G1 X265.847 Y159.550 E16.58150 F1200
G1 X264.731 Y160.216 E16.65222 F1200
G1 X263.550 Y160.771 E16.72321 F1200
G1 X262.328 Y161.206 E16.79383 F1200
G1 X261.057 Y161.521 E16.86509 F1200
G1 X259.771 Y161.709 E16.93581 F1200
G1 X258.500 Y161.770 E17.00506 F1200
G1 X201.190 Y161.762 E20.12517 F1200
G1 X200.169 Y161.703 E20.18081 F1200
G1 X198.882 Y161.509 E20.25164 F1200
G1 X197.628 Y161.193 E20.32204 F1200
G1 X196.495 Y160.790 E20.38748 F1200
G1 X196.138 Y160.634 E20.40866 F1200
G1 X195.217 Y160.188 E20.46435 F1200
G1 X194.104 Y159.518 E20.53507 F1200
G1 X193.062 Y158.742 E20.60579 F1200
G1 X192.098 Y157.865 E20.67673 F1200
G1 X191.223 Y156.895 E20.74783 F1200
G1 X190.450 Y155.847 E20.81872 F1200
G1 X189.784 Y154.731 E20.88944 F1200
G1 X189.230 Y153.555 E20.96016 F1200
G1 X188.794 Y152.329 E21.03099 F1200
G1 X188.501 Y151.164 E21.09638 F1200
G1 X188.433 Y150.787 E21.11723 F1200
G1 X188.282 Y149.662 E21.17902 F1200
G1 X188.230 Y148.475 E21.24370 F1200
G1 X188.297 Y147.169 E21.31486 F1200
G1 X188.491 Y145.882 E21.38568 F1200
G1 X188.807 Y144.628 E21.45608 F1200
G1 X189.210 Y143.495 E21.52152 F1200
G1 X189.366 Y143.138 E21.54270 F1200
G1 X189.812 Y142.217 E21.59839 F1200
G1 X190.224 Y141.533 E21.64189 F1200
G1 X190.482 Y141.104 E21.64189 F1200
; Inset XP 
G1 F1800 E12.64189
G0 Z0.750 F1500
G0 X264.496 Y148.500 F7200
G0 Z0.250 F1500
G1 F1200 E21.64189
G1 X264.466 Y149.096 E21.66593 F1200
G1 X264.380 Y149.686 E21.68996 F1200
G1 X264.242 Y150.245 E21.71315 F1200
G1 X264.056 Y150.764 E21.73537 F1200
G1 X263.784 Y151.335 E21.76086 F1200
G1 X263.485 Y151.836 E21.78437 F1200
G1 X263.121 Y152.329 E21.80905 F1200
G1 X262.745 Y152.745 E21.83164 F1200
G1 X262.329 Y153.121 E21.85422 F1200
G1 X261.845 Y153.479 E21.87850 F1200
G1 X261.306 Y153.801 E21.90378 F1200
G1 X260.796 Y154.041 E21.92649 F1200
G1 X260.236 Y154.244 E21.95048 F1200
G1 X259.686 Y154.380 E21.97331 F1200
G1 X259.095 Y154.466 E21.99738 F1200
G1 X258.450 Y154.500 E22.02339 F1200
G1 X201.550 E24.31805 F1200
G1 X200.904 Y154.466 E24.34410 F1200
G1 X200.314 Y154.380 E24.36814 F1200
G1 X199.759 Y154.243 E24.39117 F1200
G1 X199.229 Y154.053 E24.41387 F1200
G1 X198.665 Y153.784 E24.43904 F1200
G1 X198.164 Y153.485 E24.46255 F1200
G1 X197.671 Y153.121 E24.48723 F1200
G1 X197.255 Y152.745 E24.50981 F1200
G1 X196.879 Y152.329 E24.53240 F1200
G1 X196.515 Y151.836 E24.55708 F1200
G1 X196.216 Y151.335 E24.58059 F1200
G1 X195.944 Y150.764 E24.60607 F1200
G1 X195.758 Y150.245 E24.62830 F1200
G1 X195.620 Y149.686 E24.65148 F1200
G1 X195.534 Y149.096 E24.67552 F1200
G1 X195.504 Y148.500 E24.69955 F1200
G1 X195.534 Y147.904 E24.72359 F1200
G1 X195.620 Y147.314 E24.74763 F1200
G1 X195.758 Y146.755 E24.77081 F1200
G1 X195.944 Y146.236 E24.79303 F1200
G1 X196.216 Y145.665 E24.81852 F1200
G1 X196.515 Y145.164 E24.84203 F1200
G1 X196.879 Y144.671 E24.86671 F1200
G1 X197.255 Y144.255 E24.88930 F1200
G1 X197.671 Y143.879 E24.91188 F1200
G1 X198.166 Y143.513 E24.93668 F1200
G1 X198.665 Y143.216 E24.96007 F1200
G1 X199.229 Y142.947 E24.98524 F1200
G1 X199.759 Y142.757 E25.00794 F1200
G1 X200.314 Y142.620 E25.03097 F1200
G1 X200.904 Y142.534 E25.05500 F1200
G1 X201.550 Y142.500 E25.08106 F1200
G1 X258.450 E27.37572 F1200
G1 X259.095 Y142.534 E27.40173 F1200
G1 X259.686 Y142.620 E27.42580 F1200
G1 X260.236 Y142.756 E27.44863 F1200
G1 X260.793 Y142.958 E27.47250 F1200
G1 X261.305 Y143.199 E27.49529 F1200
G1 X261.844 Y143.521 E27.52057 F1200
G1 X262.329 Y143.879 E27.54485 F1200
G1 X262.745 Y144.255 E27.56743 F1200
G1 X263.121 Y144.671 E27.59002 F1200
G1 X263.485 Y145.164 E27.61470 F1200
G1 X263.784 Y145.665 E27.63821 F1200
G1 X264.056 Y146.236 E27.66370 F1200
G1 X264.242 Y146.755 E27.68592 F1200
G1 X264.380 Y147.314 E27.70911 F1200
G1 X264.466 Y147.904 E27.73314 F1200
G1 X264.496 Y148.500 E27.75718 F1200
; Solid infill 
G0 X264.347 Y148.382 F7200
G1 X258.615 Y142.649 E28.08407 F1200
G0 X258.039 Y142.639 F7200
G1 X264.332 Y148.932 E28.44295 F1200
G0 X264.272 Y149.438 F7200
G1 X257.473 Y142.639 E28.83071 F1200
G0 X256.908 F7200
G1 X264.178 Y149.910 E29.24536 F1200
G0 X264.054 Y150.351 F7200
G1 X256.342 Y142.639 E29.68517 F1200
G0 X255.776 F7200
G1 X263.900 Y150.762 E30.14846 F1200
G0 X263.717 Y151.146 F7200
G1 X255.211 Y142.639 E30.63361 F1200
G0 X254.645 F7200
G1 X263.515 Y151.509 E31.13948 F1200
G0 X263.295 Y151.855 F7200
G1 X254.079 Y142.639 E31.66507 F1200
G0 X253.514 F7200
G1 X263.055 Y152.180 E32.20922 F1200
G0 X262.791 Y152.483 F7200
G1 X252.948 Y142.639 E32.77058 F1200
G0 X252.382 F7200
G1 X262.510 Y152.767 E33.34820 F1200
G0 X262.211 Y153.034 F7200
G1 X251.816 Y142.639 E33.94102 F1200
G0 X251.251 F7200
G1 X261.885 Y153.273 E34.54747 F1200
G0 X261.541 Y153.495 F7200
G1 X250.685 Y142.639 E35.16658 F1200
G0 X250.119 F7200
G1 X261.183 Y153.703 E35.79755 F1200
G0 X260.798 Y153.884 F7200
G1 X249.554 Y142.639 E36.43885 F1200
G0 X248.988 F7200
G1 X260.387 Y154.038 E37.08894 F1200
G0 X259.952 Y154.169 F7200
G1 X248.422 Y142.639 E37.74648 F1200
G0 X247.857 F7200
G1 X259.484 Y154.266 E38.40959 F1200
G0 X258.982 Y154.331 F7200
G1 X247.291 Y142.639 E39.07638 F1200
G0 X246.725 F7200
G1 X258.445 Y154.359 E39.74477 F1200
G0 X257.880 F7200
G1 X246.160 Y142.639 E40.41316 F1200
G0 X245.594 F7200
G1 X257.314 Y154.359 E41.08156 F1200
G0 X256.749 F7200
G1 X245.028 Y142.639 E41.74999 F1200
G0 X244.463 F7200
G1 X256.183 Y154.359 E42.41839 F1200
G0 X255.617 F7200
G1 X243.897 Y142.639 E43.08678 F1200
G0 X243.331 F7200
G1 X255.052 Y154.359 E43.75522 F1200
G0 X254.486 F7200
G1 X242.766 Y142.639 E44.42361 F1200
G0 X242.200 F7200
G1 X253.920 Y154.359 E45.09201 F1200
G0 X253.354 F7200
G1 X241.634 Y142.639 E45.76040 F1200
G0 X241.068 F7200
G1 X252.789 Y154.359 E46.42884 F1200
G0 X252.223 F7200
G1 X240.503 Y142.639 E47.09723 F1200
G0 X239.937 F7200
G1 X251.657 Y154.359 E47.76563 F1200
G0 X251.092 F7200
G1 X239.371 Y142.639 E48.43406 F1200
G0 X238.806 F7200
G1 X250.526 Y154.359 E49.10246 F1200
G0 X249.960 F7200
G1 X238.240 Y142.639 E49.77085 F1200
G0 X237.674 F7200
G1 X249.395 Y154.359 E50.43929 F1200
G0 X248.829 F7200
G1 X237.109 Y142.639 E51.10768 F1200
G0 X236.543 F7200
G1 X248.263 Y154.359 E51.77608 F1200
G0 X247.698 F7200
G1 X235.977 Y142.639 E52.44451 F1200
G0 X235.412 F7200
G1 X247.132 Y154.359 E53.11291 F1200
G0 X246.566 F7200
G1 X234.846 Y142.639 E53.78130 F1200
G0 X234.280 F7200
G1 X246.001 Y154.359 E54.44974 F1200
G0 X245.435 F7200
G1 X233.715 Y142.639 E55.11813 F1200
G0 X233.149 F7200
G1 X244.869 Y154.359 E55.78653 F1200
G0 X244.303 F7200
G1 X232.583 Y142.639 E56.45492 F1200
G0 X232.017 F7200
G1 X243.738 Y154.359 E57.12336 F1200
G0 X243.172 F7200
G1 X231.452 Y142.639 E57.79175 F1200
G0 X230.886 F7200
G1 X242.606 Y154.359 E58.46015 F1200
G0 X242.041 F7200
G1 X230.320 Y142.639 E59.12858 F1200
G0 X229.755 Y142.640 F7200
G1 X241.475 Y154.359 E59.79694 F1200
G0 X240.909 F7200
G1 X229.190 Y142.640 E60.46529 F1200
G0 X228.624 F7200
G1 X240.344 Y154.359 E61.13365 F1200
G0 X239.778 F7200
G1 X228.058 Y142.640 E61.80200 F1200
G0 X227.493 F7200
G1 X239.212 Y154.359 E62.47036 F1200
G0 X238.647 F7200
G1 X226.927 Y142.640 E63.13871 F1200
G0 X226.361 F7200
G1 X238.081 Y154.359 E63.80707 F1200
G0 X237.515 F7200
G1 X225.796 Y142.640 E64.47542 F1200
G0 X225.230 F7200
G1 X236.950 Y154.359 E65.14377 F1200
G0 X236.384 F7200
G1 X224.664 Y142.640 E65.81213 F1200
G0 X224.099 F7200
G1 X235.818 Y154.359 E66.48048 F1200
G0 X235.253 F7200
G1 X223.533 Y142.640 E67.14884 F1200
G0 X222.967 F7200
G1 X234.687 Y154.359 E67.81719 F1200
G0 X234.121 F7200
G1 X222.402 Y142.640 E68.48555 F1200
G0 X221.836 F7200
G1 X233.555 Y154.359 E69.15390 F1200
G0 X232.990 F7200
G1 X221.270 Y142.640 E69.82226 F1200
G0 X220.704 F7200
G1 X232.424 Y154.359 E70.49061 F1200
G0 X231.858 F7200
G1 X220.139 Y142.640 E71.15896 F1200
G0 X219.573 F7200
G1 X231.293 Y154.359 E71.82732 F1200
G0 X230.727 F7200
G1 X219.007 Y142.640 E72.49567 F1200
G0 X218.442 F7200
G1 X230.161 Y154.359 E73.16403 F1200
G0 X229.596 F7200
G1 X217.876 Y142.640 E73.83238 F1200
G0 X217.310 F7200
G1 X229.030 Y154.359 E74.50074 F1200
G0 X228.464 F7200
G1 X216.745 Y142.640 E75.16909 F1200
G0 X216.179 F7200
G1 X227.899 Y154.359 E75.83745 F1200
G0 X227.333 F7200
G1 X215.613 Y142.640 E76.50580 F1200
G0 X215.048 F7200
G1 X226.767 Y154.359 E77.17416 F1200
G0 X226.202 F7200
G1 X214.482 Y142.640 E77.84251 F1200
G0 X213.916 F7200
G1 X225.636 Y154.359 E78.51086 F1200
G0 X225.070 F7200
G1 X213.351 Y142.640 E79.17922 F1200
G0 X212.785 F7200
G1 X224.504 Y154.359 E79.84757 F1200
G0 X223.939 F7200
G1 X212.219 Y142.640 E80.51593 F1200
G0 X211.654 F7200
G1 X223.373 Y154.359 E81.18428 F1200
G0 X222.807 F7200
G1 X211.088 Y142.640 E81.85264 F1200
G0 X210.522 F7200
G1 X222.242 Y154.359 E82.52099 F1200
G0 X221.676 F7200
G1 X209.956 Y142.640 E83.18935 F1200
G0 X209.391 F7200
G1 X221.110 Y154.359 E83.85770 F1200
G0 X220.545 F7200
G1 X208.825 Y142.640 E84.52606 F1200
G0 X208.259 F7200
G1 X219.979 Y154.359 E85.19441 F1200
G0 X219.413 F7200
G1 X207.694 Y142.640 E85.86276 F1200
G0 X207.128 F7200
G1 X218.848 Y154.359 E86.53112 F1200
G0 X218.282 F7200
G1 X206.562 Y142.640 E87.19947 F1200
G0 X205.997 F7200
G1 X217.716 Y154.359 E87.86783 F1200
G0 X217.151 F7200
G1 X205.431 Y142.640 E88.53618 F1200
G0 X204.865 F7200
G1 X216.585 Y154.359 E89.20454 F1200
G0 X216.019 F7200
G1 X204.300 Y142.640 E89.87289 F1200
G0 X203.734 F7200
G1 X215.454 Y154.359 E90.54125 F1200
G0 X214.888 F7200
G1 X203.168 Y142.640 E91.20960 F1200
G0 X202.603 F7200
G1 X214.322 Y154.359 E91.87795 F1200
G0 X213.756 F7200
G1 X202.037 Y142.640 E92.54631 F1200
G0 X201.476 Y142.645 F7200
G1 X213.191 Y154.359 E93.21438 F1200
G0 X212.625 F7200
G1 X200.937 Y142.672 E93.88092 F1200
G0 X200.443 Y142.743 F7200
G1 X212.059 Y154.359 E94.54339 F1200
G0 X211.494 F7200
G1 X199.981 Y142.846 E95.19997 F1200
G0 X199.549 Y142.980 F7200
G1 X210.928 Y154.359 E95.84892 F1200
G0 X210.362 F7200
G1 X199.146 Y143.143 E96.48856 F1200
G0 X198.762 Y143.325 F7200
G1 X209.797 Y154.359 E97.11788 F1200
G0 X209.231 F7200
G1 X198.404 Y143.533 E97.73530 F1200
G0 X198.066 Y143.760 F7200
G1 X208.665 Y154.359 E98.33978 F1200
G0 X208.100 F7200
G1 X197.741 Y144.001 E98.93054 F1200
G0 X197.444 Y144.269 F7200
G1 X207.534 Y154.359 E99.50598 F1200
G0 X206.968 F7200
G1 X197.166 Y144.558 E100.06496 F1200
G0 X196.908 Y144.865 F7200
G1 X206.403 Y154.359 E100.60645 F1200
G0 X205.837 F7200
G1 X196.668 Y145.190 E101.12934 F1200
G0 X196.452 Y145.540 F7200
G1 X205.271 Y154.359 E101.63227 F1200
G0 X204.705 F7200
G1 X196.255 Y145.909 E102.11419 F1200
G0 X196.072 Y146.292 F7200
G1 X204.140 Y154.359 E102.57429 F1200
G0 X203.574 F7200
G1 X195.923 Y146.708 E103.01064 F1200
G0 X195.804 Y147.155 F7200
G1 X203.008 Y154.359 E103.42146 F1200
G0 X202.443 F7200
G1 X195.715 Y147.631 E103.80514 F1200
G0 X195.662 Y148.145 F7200
G1 X201.877 Y154.359 E104.15954 F1200
G0 X201.297 Y154.345 F7200
G1 X195.655 Y148.703 E104.48127 F1200
G0 X195.708 Y149.322 F7200
G1 X200.676 Y154.290 E104.76458 F1200
G0 X199.971 Y154.150 F7200
G1 X195.848 Y150.028 E104.99969 F1200
G0 X196.174 Y150.919 F7200
G1 X198.728 Y153.473 E105.14535 F1200
G1 X199.082 Y153.827 E105.14535 F1200
G1 F1800 E96.14535
G0 Z0.750 F1500
G0 X259.226 Y142.695 F7200
G0 Z0.250 F1500
G1 F1200 E105.14535
G1 X264.303 Y147.772 E105.43487 F1200
G0 X264.176 Y147.079 F7200
G1 X259.920 Y142.823 E105.67756 F1200
G0 X260.761 Y143.099 F7200
G1 X263.899 Y146.236 E105.85650 F1200
G0 X263.080 Y144.852 F7200
G1 X262.506 Y144.277 E105.88928 F1200
G1 X262.152 Y143.923 E105.88928 F1200
; Inset 0 
G1 F1800 E96.88928
G0 Z0.750 F1500
G0 X264.098 Y148.500 F7200
G0 Z0.250 F1500
G1 F1200 E105.88928
G0 X264.898 F7200
G1 X264.866 Y149.132 E105.91477 F1200
G1 X264.774 Y149.758 E105.94026 F1200
G1 X264.625 Y150.359 E105.96522 F1200
G1 X264.420 Y150.931 E105.98970 F1200
G1 X264.142 Y151.515 E106.01575 F1200
G1 X263.816 Y152.062 E106.04140 F1200
G1 X263.437 Y152.574 E106.06709 F1200
G1 X263.027 Y153.027 E106.09169 F1200
G1 X262.574 Y153.437 E106.11629 F1200
G1 X262.062 Y153.816 E106.14198 F1200
G1 X261.504 Y154.150 E106.16819 F1200
G1 X260.950 Y154.411 E106.19287 F1200
G1 X260.354 Y154.626 E106.21840 F1200
G1 X259.758 Y154.774 E106.24316 F1200
G1 X259.131 Y154.866 E106.26869 F1200
G1 X258.470 Y154.900 E106.29535 F1200
G1 X201.530 E108.59162 F1200
G1 X200.868 Y154.866 E108.61831 F1200
G1 X200.242 Y154.774 E108.64380 F1200
G1 X199.641 Y154.625 E108.66876 F1200
G1 X199.067 Y154.419 E108.69332 F1200
G1 X198.485 Y154.142 E108.71929 F1200
G1 X197.938 Y153.816 E108.74494 F1200
G1 X197.426 Y153.437 E108.77063 F1200
G1 X196.973 Y153.027 E108.79523 F1200
G1 X196.563 Y152.574 E108.81983 F1200
G1 X196.184 Y152.062 E108.84552 F1200
G1 X195.858 Y151.515 E108.87117 F1200
G1 X195.580 Y150.931 E108.89722 F1200
G1 X195.375 Y150.359 E108.92170 F1200
G1 X195.226 Y149.758 E108.94666 F1200
G1 X195.134 Y149.132 E108.97215 F1200
G1 X195.102 Y148.500 E108.99764 F1200
G1 X195.134 Y147.868 E109.02313 F1200
G1 X195.226 Y147.242 E109.04861 F1200
G1 X195.375 Y146.641 E109.07358 F1200
G1 X195.580 Y146.069 E109.09805 F1200
G1 X195.858 Y145.485 E109.12411 F1200
G1 X196.184 Y144.938 E109.14975 F1200
G1 X196.563 Y144.426 E109.17544 F1200
G1 X196.973 Y143.973 E109.20004 F1200
G1 X197.426 Y143.563 E109.22464 F1200
G1 X197.938 Y143.184 E109.25033 F1200
G1 X198.485 Y142.858 E109.27598 F1200
G1 X199.067 Y142.581 E109.30195 F1200
G1 X199.641 Y142.375 E109.32651 F1200
G1 X200.242 Y142.226 E109.35148 F1200
G1 X200.868 Y142.134 E109.37696 F1200
G1 X201.530 Y142.100 E109.40366 F1200
G1 X258.470 E111.69993 F1200
G1 X259.131 Y142.134 E111.72659 F1200
G1 X259.758 Y142.226 E111.75212 F1200
G1 X260.354 Y142.374 E111.77688 F1200
G1 X260.947 Y142.588 E111.80228 F1200
G1 X261.503 Y142.849 E111.82704 F1200
G1 X262.062 Y143.184 E111.85330 F1200
G1 X262.574 Y143.563 E111.87899 F1200
G1 X263.027 Y143.973 E111.90359 F1200
G1 X263.437 Y144.426 E111.92819 F1200
G1 X263.816 Y144.938 E111.95388 F1200
G1 X264.142 Y145.485 E111.97952 F1200
G1 X264.420 Y146.069 E112.00558 F1200
G1 X264.625 Y146.641 E112.03006 F1200
G1 X264.774 Y147.242 E112.05502 F1200
G1 X264.866 Y147.868 E112.08051 F1200
G1 X264.898 Y148.500 E112.10599 F1200
G0 X265.300 F7200
G1 X265.266 Y149.168 E112.13293 F1200
G1 X265.168 Y149.830 E112.15991 F1200
G1 X265.008 Y150.473 E112.18661 F1200
G1 X264.784 Y151.098 E112.21335 F1200
G1 X264.496 Y151.705 E112.24041 F1200
G1 X264.152 Y152.280 E112.26743 F1200
G1 X263.753 Y152.818 E112.29440 F1200
G1 X263.309 Y153.309 E112.32106 F1200
G1 X262.818 Y153.753 E112.34772 F1200
G1 X262.280 Y154.152 E112.37470 F1200
G1 X261.701 Y154.499 E112.40192 F1200
G1 X261.101 Y154.782 E112.42866 F1200
G1 X260.472 Y155.008 E112.45560 F1200
G1 X259.830 Y155.168 E112.48225 F1200
G1 X259.167 Y155.266 E112.50927 F1200
G1 X258.490 Y155.300 E112.53657 F1200
G1 X201.510 E114.83446 F1200
G1 X200.832 Y155.266 E114.86180 F1200
G1 X200.170 Y155.168 E114.88878 F1200
G1 X199.527 Y155.008 E114.91548 F1200
G1 X198.902 Y154.784 E114.94221 F1200
G1 X198.295 Y154.496 E114.96927 F1200
G1 X197.720 Y154.152 E114.99629 F1200
G1 X197.182 Y153.753 E115.02327 F1200
G1 X196.691 Y153.309 E115.04993 F1200
G1 X196.247 Y152.818 E115.07659 F1200
G1 X195.848 Y152.280 E115.10357 F1200
G1 X195.504 Y151.705 E115.13059 F1200
G1 X195.216 Y151.098 E115.15765 F1200
G1 X194.992 Y150.473 E115.18438 F1200
G1 X194.832 Y149.830 E115.21108 F1200
G1 X194.734 Y149.168 E115.23806 F1200
G1 X194.700 Y148.500 E115.26500 F1200
G1 X194.734 Y147.832 E115.29194 F1200
G1 X194.832 Y147.170 E115.31892 F1200
G1 X194.992 Y146.527 E115.34561 F1200
G1 X195.216 Y145.902 E115.37235 F1200
G1 X195.504 Y145.295 E115.39941 F1200
G1 X195.848 Y144.720 E115.42643 F1200
G1 X196.247 Y144.182 E115.45341 F1200
G1 X196.691 Y143.691 E115.48007 F1200
G1 X197.182 Y143.247 E115.50672 F1200
G1 X197.720 Y142.848 E115.53370 F1200
G1 X198.295 Y142.504 E115.56072 F1200
G1 X198.902 Y142.216 E115.58778 F1200
G1 X199.527 Y141.992 E115.61452 F1200
G1 X200.170 Y141.832 E115.64122 F1200
G1 X200.832 Y141.734 E115.66820 F1200
G1 X201.510 Y141.700 E115.69554 F1200
G1 X258.490 E117.99342 F1200
G1 X259.167 Y141.734 E118.02073 F1200
G1 X259.830 Y141.832 E118.04775 F1200
G1 X260.472 Y141.992 E118.07440 F1200
G1 X261.101 Y142.218 E118.10134 F1200
G1 X261.701 Y142.501 E118.12808 F1200
G1 X262.280 Y142.848 E118.15530 F1200
G1 X262.818 Y143.247 E118.18228 F1200
G1 X263.309 Y143.691 E118.20894 F1200
G1 X263.753 Y144.182 E118.23559 F1200
G1 X264.152 Y144.720 E118.26257 F1200
G1 X264.496 Y145.295 E118.28959 F1200
G1 X264.784 Y145.902 E118.31665 F1200
G1 X265.008 Y146.527 E118.34339 F1200
G1 X265.168 Y147.170 E118.37009 F1200
G1 X265.266 Y147.832 E118.39707 F1200
G1 X265.300 Y148.500 E118.42401 F1200
;MACROLAYER:2
;LAYER:2
M532 L2
; Inset XP 
G0 Z0.340 F1500
G0 X264.496 F7200
G1 X264.466 Y149.096 E118.43266 F2400
G1 X264.380 Y149.686 E118.44131 F2400
G1 X264.242 Y150.245 E118.44966 F2400
G1 X264.056 Y150.764 E118.45766 F2400
G1 X263.784 Y151.335 E118.46683 F2400
G1 X263.485 Y151.836 E118.47530 F2400
G1 X263.121 Y152.329 E118.48418 F2400
G1 X262.745 Y152.745 E118.49231 F2400
G1 X262.329 Y153.121 E118.50044 F2400
G1 X261.845 Y153.479 E118.50918 F2400
G1 X261.306 Y153.801 E118.51829 F2400
G1 X260.796 Y154.041 E118.52646 F2400
G1 X260.236 Y154.244 E118.53510 F2400
G1 X259.686 Y154.380 E118.54331 F2400
G1 X259.095 Y154.466 E118.55198 F2400
G1 X258.450 Y154.500 E118.56135 F2400
G1 X201.550 E119.38742 F2400
G1 X200.904 Y154.466 E119.39680 F2400
G1 X200.314 Y154.380 E119.40545 F2400
G1 X199.759 Y154.243 E119.41374 F2400
G1 X199.229 Y154.053 E119.42192 F2400
G1 X198.665 Y153.784 E119.43098 F2400
G1 X198.164 Y153.485 E119.43944 F2400
G1 X197.671 Y153.121 E119.44833 F2400
G1 X197.255 Y152.745 E119.45646 F2400
G1 X196.879 Y152.329 E119.46459 F2400
G1 X196.515 Y151.836 E119.47347 F2400
G1 X196.216 Y151.335 E119.48194 F2400
G1 X195.944 Y150.764 E119.49111 F2400
G1 X195.758 Y150.245 E119.49911 F2400
G1 X195.620 Y149.686 E119.50746 F2400
G1 X195.534 Y149.096 E119.51611 F2400
G1 X195.504 Y148.500 E119.52476 F2400
G1 X195.534 Y147.904 E119.53342 F2400
G1 X195.620 Y147.314 E119.54207 F2400
G1 X195.758 Y146.755 E119.55042 F2400
G1 X195.944 Y146.236 E119.55842 F2400
G1 X196.216 Y145.665 E119.56759 F2400
G1 X196.515 Y145.164 E119.57606 F2400
G1 X196.879 Y144.671 E119.58494 F2400
G1 X197.255 Y144.255 E119.59307 F2400
G1 X197.671 Y143.879 E119.60120 F2400
G1 X198.166 Y143.513 E119.61013 F2400
G1 X198.665 Y143.216 E119.61855 F2400
G1 X199.229 Y142.947 E119.62761 F2400
G1 X199.759 Y142.757 E119.63578 F2400
G1 X200.314 Y142.620 E119.64407 F2400
G1 X200.904 Y142.534 E119.65273 F2400
G1 X201.550 Y142.500 E119.66210 F2400
G1 X258.450 E120.48818 F2400
G1 X259.095 Y142.534 E120.49755 F2400
G1 X259.686 Y142.620 E120.50621 F2400
G1 X260.236 Y142.756 E120.51443 F2400
G1 X260.793 Y142.958 E120.52303 F2400
G1 X261.305 Y143.199 E120.53123 F2400
G1 X261.844 Y143.521 E120.54033 F2400
G1 X262.329 Y143.879 E120.54907 F2400
G1 X262.745 Y144.255 E120.55720 F2400
G1 X263.121 Y144.671 E120.56533 F2400
G1 X263.485 Y145.164 E120.57422 F2400
G1 X263.784 Y145.665 E120.58268 F2400
G1 X264.056 Y146.236 E120.59186 F2400
G1 X264.242 Y146.755 E120.59985 F2400
G1 X264.380 Y147.314 E120.60820 F2400
G1 X264.466 Y147.904 E120.61686 F2400
G1 X264.496 Y148.500 E120.62551 F2400
; Inset 0 
G0 X264.898 F7200
G1 X264.866 Y149.132 E120.63468 F1800
G1 X264.774 Y149.758 E120.64386 F1800
G1 X264.625 Y150.359 E120.65285 F1800
G1 X264.420 Y150.931 E120.66166 F1800
G1 X264.142 Y151.515 E120.67104 F1800
G1 X263.816 Y152.062 E120.68027 F1800
G1 X263.437 Y152.574 E120.68952 F1800
G1 X263.027 Y153.027 E120.69837 F1800
G1 X262.574 Y153.437 E120.70723 F1800
G1 X262.062 Y153.816 E120.71648 F1800
G1 X261.504 Y154.150 E120.72591 F1800
G1 X260.950 Y154.411 E120.73480 F1800
G1 X260.354 Y154.626 E120.74399 F1800
G1 X259.758 Y154.774 E120.75290 F1800
G1 X259.131 Y154.866 E120.76209 F1800
G1 X258.470 Y154.900 E120.77169 F1800
G1 X201.530 E121.59835 F1800
G1 X200.868 Y154.866 E121.60796 F1800
G1 X200.242 Y154.774 E121.61713 F1800
G1 X199.641 Y154.625 E121.62612 F1800
G1 X199.067 Y154.419 E121.63496 F1800
G1 X198.485 Y154.142 E121.64431 F1800
G1 X197.938 Y153.816 E121.65355 F1800
G1 X197.426 Y153.437 E121.66279 F1800
G1 X196.973 Y153.027 E121.67165 F1800
G1 X196.563 Y152.574 E121.68051 F1800
G1 X196.184 Y152.062 E121.68975 F1800
G1 X195.858 Y151.515 E121.69899 F1800
G1 X195.580 Y150.931 E121.70837 F1800
G1 X195.375 Y150.359 E121.71718 F1800
G1 X195.226 Y149.758 E121.72616 F1800
G1 X195.134 Y149.132 E121.73534 F1800
G1 X195.102 Y148.500 E121.74452 F1800
G1 X195.134 Y147.868 E121.75369 F1800
G1 X195.226 Y147.242 E121.76287 F1800
G1 X195.375 Y146.641 E121.77185 F1800
G1 X195.580 Y146.069 E121.78067 F1800
G1 X195.858 Y145.485 E121.79004 F1800
G1 X196.184 Y144.938 E121.79928 F1800
G1 X196.563 Y144.426 E121.80853 F1800
G1 X196.973 Y143.973 E121.81738 F1800
G1 X197.426 Y143.563 E121.82624 F1800
G1 X197.938 Y143.184 E121.83549 F1800
G1 X198.485 Y142.858 E121.84472 F1800
G1 X199.067 Y142.581 E121.85407 F1800
G1 X199.641 Y142.375 E121.86291 F1800
G1 X200.242 Y142.226 E121.87190 F1800
G1 X200.868 Y142.134 E121.88107 F1800
G1 X201.530 Y142.100 E121.89068 F1800
G1 X258.470 E122.71734 F1800
G1 X259.131 Y142.134 E122.72694 F1800
G1 X259.758 Y142.226 E122.73613 F1800
G1 X260.354 Y142.374 E122.74504 F1800
G1 X260.947 Y142.588 E122.75419 F1800
G1 X261.503 Y142.849 E122.76310 F1800
G1 X262.062 Y143.184 E122.77255 F1800
G1 X262.574 Y143.563 E122.78180 F1800
G1 X263.027 Y143.973 E122.79066 F1800
G1 X263.437 Y144.426 E122.79951 F1800
G1 X263.816 Y144.938 E122.80876 F1800
G1 X264.142 Y145.485 E122.81799 F1800
G1 X264.420 Y146.069 E122.82737 F1800
G1 X264.625 Y146.641 E122.83619 F1800
G1 X264.774 Y147.242 E122.84517 F1800
G1 X264.866 Y147.868 E122.85435 F1800
G1 X264.898 Y148.500 E122.86352 F1800
G0 X265.300 F7200
G1 X265.266 Y149.168 E122.87322 F1800
G1 X265.168 Y149.830 E122.88293 F1800
G1 X265.008 Y150.473 E122.89254 F1800
G1 X264.784 Y151.098 E122.90217 F1800
G1 X264.496 Y151.705 E122.91191 F1800
G1 X264.152 Y152.280 E122.92164 F1800
G1 X263.753 Y152.818 E122.93135 F1800
G1 X263.309 Y153.309 E122.94095 F1800
G1 X262.818 Y153.753 E122.95054 F1800
G1 X262.280 Y154.152 E122.96026 F1800
G1 X261.701 Y154.499 E122.97006 F1800
G1 X261.101 Y154.782 E122.97968 F1800
G1 X260.472 Y155.008 E122.98938 F1800
G1 X259.830 Y155.168 E122.99898 F1800
G1 X259.167 Y155.266 E123.00870 F1800
G1 X258.490 Y155.300 E123.01853 F1800
G1 X201.510 E123.84577 F1800
G1 X200.832 Y155.266 E123.85561 F1800
G1 X200.170 Y155.168 E123.86533 F1800
G1 X199.527 Y155.008 E123.87494 F1800
G1 X198.902 Y154.784 E123.88456 F1800
G1 X198.295 Y154.496 E123.89430 F1800
G1 X197.720 Y154.152 E123.90403 F1800
G1 X197.182 Y153.753 E123.91374 F1800
G1 X196.691 Y153.309 E123.92334 F1800
G1 X196.247 Y152.818 E123.93294 F1800
G1 X195.848 Y152.280 E123.94265 F1800
G1 X195.504 Y151.705 E123.95238 F1800
G1 X195.216 Y151.098 E123.96212 F1800
G1 X194.992 Y150.473 E123.97174 F1800
G1 X194.832 Y149.830 E123.98135 F1800
G1 X194.734 Y149.168 E123.99107 F1800
G1 X194.700 Y148.500 E124.00077 F1800
G1 X194.734 Y147.832 E124.01046 F1800
G1 X194.832 Y147.170 E124.02018 F1800
G1 X194.992 Y146.527 E124.02979 F1800
G1 X195.216 Y145.902 E124.03941 F1800
G1 X195.504 Y145.295 E124.04915 F1800
G1 X195.848 Y144.720 E124.05888 F1800
G1 X196.247 Y144.182 E124.06859 F1800
G1 X196.691 Y143.691 E124.07819 F1800
G1 X197.182 Y143.247 E124.08779 F1800
G1 X197.720 Y142.848 E124.09750 F1800
G1 X198.295 Y142.504 E124.10723 F1800
G1 X198.902 Y142.216 E124.11697 F1800
G1 X199.527 Y141.992 E124.12659 F1800
G1 X200.170 Y141.832 E124.13620 F1800
G1 X200.832 Y141.734 E124.14592 F1800
G1 X201.510 Y141.700 E124.15576 F1800
G1 X258.490 E124.98300 F1800
G1 X259.167 Y141.734 E124.99283 F1800
G1 X259.830 Y141.832 E125.00255 F1800
G1 X260.472 Y141.992 E125.01215 F1800
G1 X261.101 Y142.218 E125.02185 F1800
G1 X261.701 Y142.501 E125.03147 F1800
G1 X262.280 Y142.848 E125.04127 F1800
G1 X262.818 Y143.247 E125.05099 F1800
G1 X263.309 Y143.691 E125.06058 F1800
G1 X263.753 Y144.182 E125.07018 F1800
G1 X264.152 Y144.720 E125.07989 F1800
G1 X264.496 Y145.295 E125.08962 F1800
G1 X264.784 Y145.902 E125.09936 F1800
G1 X265.008 Y146.527 E125.10899 F1800
G1 X265.168 Y147.170 E125.11860 F1800
G1 X265.266 Y147.832 E125.12831 F1800
G1 X265.300 Y148.500 E125.13801 F1800
;MACROLAYER:2
;LAYER:3
M532 L3
; Inset XP 
G0 Z0.430 F1500
G0 X264.496 F7200
G1 X264.466 Y149.096 E125.14666 F2400
G1 X264.380 Y149.686 E125.15531 F2400
G1 X264.242 Y150.245 E125.16366 F2400
G1 X264.056 Y150.764 E125.17166 F2400
G1 X263.784 Y151.335 E125.18084 F2400
G1 X263.485 Y151.836 E125.18930 F2400
G1 X263.121 Y152.329 E125.19819 F2400
G1 X262.745 Y152.745 E125.20632 F2400
G1 X262.329 Y153.121 E125.21445 F2400
G1 X261.845 Y153.479 E125.22319 F2400
G1 X261.306 Y153.801 E125.23229 F2400
G1 X260.796 Y154.041 E125.24046 F2400
G1 X260.236 Y154.244 E125.24910 F2400
G1 X259.686 Y154.380 E125.25732 F2400
G1 X259.095 Y154.466 E125.26598 F2400
G1 X258.450 Y154.500 E125.27535 F2400
G1 X201.550 E126.10143 F2400
G1 X200.904 Y154.466 E126.11080 F2400
G1 X200.314 Y154.380 E126.11946 F2400
G1 X199.759 Y154.243 E126.12775 F2400
G1 X199.229 Y154.053 E126.13592 F2400
G1 X198.665 Y153.784 E126.14498 F2400
G1 X198.164 Y153.485 E126.15344 F2400
G1 X197.671 Y153.121 E126.16233 F2400
G1 X197.255 Y152.745 E126.17046 F2400
G1 X196.879 Y152.329 E126.17859 F2400
G1 X196.515 Y151.836 E126.18747 F2400
G1 X196.216 Y151.335 E126.19594 F2400
G1 X195.944 Y150.764 E126.20511 F2400
G1 X195.758 Y150.245 E126.21311 F2400
G1 X195.620 Y149.686 E126.22146 F2400
G1 X195.534 Y149.096 E126.23011 F2400
G1 X195.504 Y148.500 E126.23877 F2400
G1 X195.534 Y147.904 E126.24742 F2400
G1 X195.620 Y147.314 E126.25607 F2400
G1 X195.758 Y146.755 E126.26442 F2400
G1 X195.944 Y146.236 E126.27242 F2400
G1 X196.216 Y145.665 E126.28159 F2400
G1 X196.515 Y145.164 E126.29006 F2400
G1 X196.879 Y144.671 E126.29894 F2400
G1 X197.255 Y144.255 E126.30707 F2400
G1 X197.671 Y143.879 E126.31520 F2400
G1 X198.166 Y143.513 E126.32413 F2400
G1 X198.665 Y143.216 E126.33255 F2400
G1 X199.229 Y142.947 E126.34161 F2400
G1 X199.759 Y142.757 E126.34979 F2400
G1 X200.314 Y142.620 E126.35808 F2400
G1 X200.904 Y142.534 E126.36673 F2400
G1 X201.550 Y142.500 E126.37611 F2400
G1 X258.450 E127.20218 F2400
G1 X259.095 Y142.534 E127.21155 F2400
G1 X259.686 Y142.620 E127.22022 F2400
G1 X260.236 Y142.756 E127.22843 F2400
G1 X260.793 Y142.958 E127.23703 F2400
G1 X261.305 Y143.199 E127.24523 F2400
G1 X261.844 Y143.521 E127.25433 F2400
G1 X262.329 Y143.879 E127.26307 F2400
G1 X262.745 Y144.255 E127.27120 F2400
G1 X263.121 Y144.671 E127.27933 F2400
G1 X263.485 Y145.164 E127.28822 F2400
G1 X263.784 Y145.665 E127.29668 F2400
G1 X264.056 Y146.236 E127.30586 F2400
G1 X264.242 Y146.755 E127.31386 F2400
G1 X264.380 Y147.314 E127.32220 F2400
G1 X264.466 Y147.904 E127.33086 F2400
G1 X264.496 Y148.500 E127.33951 F2400
; Solid infill 
G0 X264.348 Y148.602 F7200
G1 X258.598 Y154.351 E127.57560 F1800
G0 X258.024 Y154.359 F7200
G1 X264.331 Y148.053 E127.83455 F1800
G0 X264.270 Y147.548 F7200
G1 X257.458 Y154.359 E128.11422 F1800
G0 X256.893 F7200
G1 X264.175 Y147.077 E128.41324 F1800
G0 X264.050 Y146.636 F7200
G1 X256.327 Y154.359 E128.73034 F1800
G0 X255.761 F7200
G1 X263.894 Y146.227 E129.06428 F1800
G0 X263.711 Y145.844 F7200
G1 X255.196 Y154.359 E129.41394 F1800
G0 X254.630 F7200
G1 X263.509 Y145.480 E129.77851 F1800
G0 X263.289 Y145.135 F7200
G1 X254.064 Y154.359 E130.15729 F1800
G0 X253.499 F7200
G1 X263.049 Y144.809 E130.54942 F1800
G0 X262.784 Y144.508 F7200
G1 X252.933 Y154.359 E130.95392 F1800
G0 X252.367 F7200
G1 X262.502 Y144.225 E131.37007 F1800
G0 X262.201 Y143.960 F7200
G1 X251.802 Y154.359 E131.79707 F1800
G0 X251.236 F7200
G1 X261.876 Y143.720 E132.23395 F1800
G0 X261.532 Y143.498 F7200
G1 X250.670 Y154.359 E132.67995 F1800
G0 X250.105 F7200
G1 X261.173 Y143.291 E133.13442 F1800
G0 X260.788 Y143.111 F7200
G1 X249.539 Y154.359 E133.59630 F1800
G0 X248.973 F7200
G1 X260.376 Y142.957 E134.06450 F1800
G0 X259.939 Y142.828 F7200
G1 X248.408 Y154.359 E134.53799 F1800
G0 X247.842 F7200
G1 X259.470 Y142.731 E135.01546 F1800
G0 X258.967 Y142.668 F7200
G1 X247.276 Y154.359 E135.49552 F1800
G0 X246.710 F7200
G1 X258.431 Y142.639 E135.97679 F1800
G0 X257.865 F7200
G1 X246.145 Y154.359 E136.45804 F1800
G0 X245.579 F7200
G1 X257.299 Y142.639 E136.93928 F1800
G0 X256.734 F7200
G1 X245.013 Y154.359 E137.42055 F1800
G0 X244.448 F7200
G1 X256.168 Y142.639 E137.90180 F1800
G0 X255.602 F7200
G1 X243.882 Y154.359 E138.38304 F1800
G0 X243.316 F7200
G1 X255.037 Y142.639 E138.86432 F1800
G0 X254.471 F7200
G1 X242.751 Y154.359 E139.34556 F1800
G0 X242.185 F7200
G1 X253.905 Y142.639 E139.82680 F1800
G0 X253.340 F7200
G1 X241.619 Y154.359 E140.30808 F1800
G0 X241.054 F7200
G1 X252.774 Y142.639 E140.78932 F1800
G0 X252.208 F7200
G1 X240.488 Y154.359 E141.27057 F1800
G0 X239.922 F7200
G1 X251.643 Y142.639 E141.75184 F1800
G0 X251.077 F7200
G1 X239.357 Y154.359 E142.23308 F1800
G0 X238.791 F7200
G1 X250.511 Y142.639 E142.71433 F1800
G0 X249.945 F7200
G1 X238.225 Y154.359 E143.19557 F1800
G0 X237.660 F7200
G1 X249.380 Y142.639 E143.67682 F1800
G0 X248.814 F7200
G1 X237.094 Y154.359 E144.15806 F1800
G0 X236.528 F7200
G1 X248.248 Y142.639 E144.63930 F1800
G0 X247.683 F7200
G1 X235.962 Y154.359 E145.12058 F1800
G0 X235.397 F7200
G1 X247.117 Y142.639 E145.60182 F1800
G0 X246.551 F7200
G1 X234.831 Y154.359 E146.08307 F1800
G0 X234.265 F7200
G1 X245.986 Y142.639 E146.56434 F1800
G0 X245.420 F7200
G1 X233.700 Y154.359 E147.04558 F1800
G0 X233.134 F7200
G1 X244.854 Y142.639 E147.52683 F1800
G0 X244.289 F7200
G1 X232.568 Y154.359 E148.00810 F1800
G0 X232.003 F7200
G1 X243.723 Y142.639 E148.48935 F1800
G0 X243.157 F7200
G1 X231.437 Y154.359 E148.97059 F1800
G0 X230.871 F7200
G1 X242.592 Y142.639 E149.45186 F1800
G0 X242.026 F7200
G1 X230.306 Y154.359 E149.93311 F1800
G0 X229.740 F7200
G1 X241.460 Y142.639 E150.41435 F1800
G0 X240.895 F7200
G1 X229.174 Y154.359 E150.89563 F1800
G0 X228.609 F7200
G1 X240.329 Y142.639 E151.37687 F1800
G0 X239.763 F7200
G1 X228.043 Y154.359 E151.85811 F1800
G0 X227.477 F7200
G1 X239.197 Y142.639 E152.33936 F1800
G0 X238.632 F7200
G1 X226.911 Y154.359 E152.82063 F1800
G0 X226.346 F7200
G1 X238.066 Y142.639 E153.30188 F1800
G0 X237.500 F7200
G1 X225.780 Y154.359 E153.78312 F1800
G0 X225.214 F7200
G1 X236.935 Y142.639 E154.26439 F1800
G0 X236.369 F7200
G1 X224.649 Y154.359 E154.74564 F1800
G0 X224.083 F7200
G1 X235.803 Y142.639 E155.22688 F1800
G0 X235.238 F7200
G1 X223.517 Y154.359 E155.70816 F1800
G0 X222.952 F7200
G1 X234.672 Y142.639 E156.18940 F1800
G0 X234.106 F7200
G1 X222.386 Y154.359 E156.67064 F1800
G0 X221.820 F7200
G1 X233.541 Y142.639 E157.15192 F1800
G0 X232.975 F7200
G1 X221.255 Y154.359 E157.63316 F1800
G0 X220.689 F7200
G1 X232.409 Y142.639 E158.11441 F1800
G0 X231.844 F7200
G1 X220.123 Y154.359 E158.59568 F1800
G0 X219.558 F7200
G1 X231.278 Y142.639 E159.07692 F1800
G0 X230.712 F7200
G1 X218.992 Y154.359 E159.55817 F1800
G0 X218.426 F7200
G1 X230.146 Y142.639 E160.03941 F1800
G0 X229.580 Y142.640 F7200
G1 X217.861 Y154.359 E160.52063 F1800
G0 X217.295 F7200
G1 X229.014 Y142.640 E161.00184 F1800
G0 X228.449 F7200
G1 X216.729 Y154.359 E161.48306 F1800
G0 X216.163 F7200
G1 X227.883 Y142.640 E161.96427 F1800
G0 X227.317 F7200
G1 X215.598 Y154.359 E162.44549 F1800
G0 X215.032 F7200
G1 X226.752 Y142.640 E162.92670 F1800
G0 X226.186 F7200
G1 X214.466 Y154.359 E163.40792 F1800
G0 X213.901 F7200
G1 X225.620 Y142.640 E163.88913 F1800
G0 X225.055 F7200
G1 X213.335 Y154.359 E164.37035 F1800
G0 X212.769 F7200
G1 X224.489 Y142.640 E164.85156 F1800
G0 X223.923 F7200
G1 X212.204 Y154.359 E165.33278 F1800
G0 X211.638 F7200
G1 X223.358 Y142.640 E165.81400 F1800
G0 X222.792 F7200
G1 X211.072 Y154.359 E166.29521 F1800
G0 X210.507 F7200
G1 X222.226 Y142.640 E166.77643 F1800
G0 X221.661 F7200
G1 X209.941 Y154.359 E167.25764 F1800
G0 X209.375 F7200
G1 X221.095 Y142.640 E167.73886 F1800
G0 X220.529 F7200
G1 X208.810 Y154.359 E168.22007 F1800
G0 X208.244 F7200
G1 X219.963 Y142.640 E168.70129 F1800
G0 X219.398 F7200
G1 X207.678 Y154.359 E169.18250 F1800
G0 X207.112 F7200
G1 X218.832 Y142.640 E169.66372 F1800
G0 X218.266 F7200
G1 X206.547 Y154.359 E170.14493 F1800
G0 X205.981 F7200
G1 X217.701 Y142.640 E170.62615 F1800
G0 X217.135 F7200
G1 X205.415 Y154.359 E171.10736 F1800
G0 X204.850 F7200
G1 X216.569 Y142.640 E171.58858 F1800
G0 X216.004 F7200
G1 X204.284 Y154.359 E172.06979 F1800
G0 X203.718 F7200
G1 X215.438 Y142.640 E172.55101 F1800
G0 X214.872 F7200
G1 X203.153 Y154.359 E173.03222 F1800
G0 X202.587 F7200
G1 X214.307 Y142.640 E173.51344 F1800
G0 X213.741 F7200
G1 X202.021 Y154.359 E173.99465 F1800
G0 X201.461 Y154.354 F7200
G1 X213.175 Y142.640 E174.47567 F1800
G0 X212.610 F7200
G1 X200.925 Y154.325 E174.95549 F1800
G0 X200.430 Y154.254 F7200
G1 X212.044 Y142.640 E175.43238 F1800
G0 X211.478 F7200
G1 X199.969 Y154.149 E175.90497 F1800
G0 X199.537 Y154.015 F7200
G1 X210.912 Y142.640 E176.37204 F1800
G0 X210.347 F7200
G1 X199.135 Y153.852 E176.83244 F1800
G0 X198.752 Y153.669 F7200
G1 X209.781 Y142.640 E177.28532 F1800
G0 X209.215 F7200
G1 X198.395 Y153.460 E177.72960 F1800
G0 X198.057 Y153.232 F7200
G1 X208.650 Y142.640 E178.16456 F1800
G0 X208.084 F7200
G1 X197.734 Y152.990 E178.58956 F1800
G0 X197.436 Y152.722 F7200
G1 X207.518 Y142.640 E179.00356 F1800
G0 X206.953 F7200
G1 X197.160 Y152.433 E179.40568 F1800
G0 X196.901 Y152.126 F7200
G1 X206.387 Y142.640 E179.79520 F1800
G0 X205.821 F7200
G1 X196.661 Y151.800 E180.17133 F1800
G0 X196.447 Y151.448 F7200
G1 X205.256 Y142.640 E180.53303 F1800
G0 X204.690 F7200
G1 X196.251 Y151.079 E180.87955 F1800
G0 X196.068 Y150.696 F7200
G1 X204.124 Y142.640 E181.21033 F1800
G0 X203.559 F7200
G1 X195.918 Y150.280 E181.52406 F1800
G0 X195.800 Y149.833 F7200
G1 X202.993 Y142.640 E181.81942 F1800
G0 X202.427 F7200
G1 X195.713 Y149.354 E182.09512 F1800
G0 X195.662 Y148.840 F7200
G1 X201.862 Y142.640 E182.34970 F1800
G0 X201.281 Y142.655 F7200
G1 X195.655 Y148.280 E182.58069 F1800
G0 X195.711 Y147.659 F7200
G1 X200.659 Y142.711 E182.78385 F1800
G0 X199.950 Y142.854 F7200
G1 X195.854 Y146.950 E182.95203 F1800
G0 X196.186 Y146.052 F7200
G1 X198.697 Y143.541 E183.05514 F1800
G1 X199.051 Y143.187 E183.05514 F1800
G1 F1800 E174.05514
G0 Z0.930 F1500
G0 X259.209 Y154.306 F7200
G0 Z0.430 F1500
G1 F1200 E183.05514
G1 X264.306 Y149.209 E183.26443 F1800
G0 X264.180 Y149.900 F7200
G1 X259.899 Y154.181 E183.44021 F1800
G0 X260.733 Y153.913 F7200
G1 X263.913 Y150.733 E183.57079 F1800
G0 X263.120 Y152.092 F7200
G1 X262.442 Y152.770 E183.59863 F1800
G1 X262.088 Y153.124 E183.59863 F1800
; Inset 0 
G1 F1800 E174.59863
G0 Z0.930 F1500
G0 X264.098 Y148.500 F7200
G0 Z0.430 F1500
G1 F1200 E183.59863
G0 X264.898 F7200
G1 X264.866 Y149.132 E183.60781 F1800
G1 X264.774 Y149.758 E183.61698 F1800
G1 X264.625 Y150.359 E183.62597 F1800
G1 X264.420 Y150.931 E183.63478 F1800
G1 X264.142 Y151.515 E183.64416 F1800
G1 X263.816 Y152.062 E183.65340 F1800
G1 X263.437 Y152.574 E183.66264 F1800
G1 X263.027 Y153.027 E183.67150 F1800
G1 X262.574 Y153.437 E183.68036 F1800
G1 X262.062 Y153.816 E183.68960 F1800
G1 X261.504 Y154.150 E183.69904 F1800
G1 X260.950 Y154.411 E183.70793 F1800
G1 X260.354 Y154.626 E183.71712 F1800
G1 X259.758 Y154.774 E183.72603 F1800
G1 X259.131 Y154.866 E183.73522 F1800
G1 X258.470 Y154.900 E183.74482 F1800
G1 X201.530 E184.57147 F1800
G1 X200.868 Y154.866 E184.58109 F1800
G1 X200.242 Y154.774 E184.59026 F1800
G1 X199.641 Y154.625 E184.59925 F1800
G1 X199.067 Y154.419 E184.60809 F1800
G1 X198.485 Y154.142 E184.61744 F1800
G1 X197.938 Y153.816 E184.62667 F1800
G1 X197.426 Y153.437 E184.63592 F1800
G1 X196.973 Y153.027 E184.64478 F1800
G1 X196.563 Y152.574 E184.65363 F1800
G1 X196.184 Y152.062 E184.66288 F1800
G1 X195.858 Y151.515 E184.67211 F1800
G1 X195.580 Y150.931 E184.68149 F1800
G1 X195.375 Y150.359 E184.69030 F1800
G1 X195.226 Y149.758 E184.69929 F1800
G1 X195.134 Y149.132 E184.70847 F1800
G1 X195.102 Y148.500 E184.71764 F1800
G1 X195.134 Y147.868 E184.72682 F1800
G1 X195.226 Y147.242 E184.73599 F1800
G1 X195.375 Y146.641 E184.74498 F1800
G1 X195.580 Y146.069 E184.75379 F1800
G1 X195.858 Y145.485 E184.76317 F1800
G1 X196.184 Y144.938 E184.77240 F1800
G1 X196.563 Y144.426 E184.78165 F1800
G1 X196.973 Y143.973 E184.79051 F1800
G1 X197.426 Y143.563 E184.79936 F1800
G1 X197.938 Y143.184 E184.80861 F1800
G1 X198.485 Y142.858 E184.81785 F1800
G1 X199.067 Y142.581 E184.82719 F1800
G1 X199.641 Y142.375 E184.83604 F1800
G1 X200.242 Y142.226 E184.84502 F1800
G1 X200.868 Y142.134 E184.85420 F1800
G1 X201.530 Y142.100 E184.86381 F1800
G1 X258.470 E185.69047 F1800
G1 X259.131 Y142.134 E185.70006 F1800
G1 X259.758 Y142.226 E185.70925 F1800
G1 X260.354 Y142.374 E185.71817 F1800
G1 X260.947 Y142.588 E185.72731 F1800
G1 X261.503 Y142.849 E185.73623 F1800
G1 X262.062 Y143.184 E185.74568 F1800
G1 X262.574 Y143.563 E185.75493 F1800
G1 X263.027 Y143.973 E185.76378 F1800
G1 X263.437 Y144.426 E185.77264 F1800
G1 X263.816 Y144.938 E185.78189 F1800
G1 X264.142 Y145.485 E185.79112 F1800
G1 X264.420 Y146.069 E185.80050 F1800
G1 X264.625 Y146.641 E185.80931 F1800
G1 X264.774 Y147.242 E185.81830 F1800
G1 X264.866 Y147.868 E185.82747 F1800
G1 X264.898 Y148.500 E185.83665 F1800
G0 X265.300 F7200
G1 X265.266 Y149.168 E185.84635 F1800
G1 X265.168 Y149.830 E185.85606 F1800
G1 X265.008 Y150.473 E185.86567 F1800
G1 X264.784 Y151.098 E185.87530 F1800
G1 X264.496 Y151.705 E185.88504 F1800
G1 X264.152 Y152.280 E185.89477 F1800
G1 X263.753 Y152.818 E185.90448 F1800
G1 X263.309 Y153.309 E185.91407 F1800
G1 X262.818 Y153.753 E185.92367 F1800
G1 X262.280 Y154.152 E185.93338 F1800
G1 X261.701 Y154.499 E185.94318 F1800
G1 X261.101 Y154.782 E185.95281 F1800
G1 X260.472 Y155.008 E185.96251 F1800
G1 X259.830 Y155.168 E185.97210 F1800
G1 X259.167 Y155.266 E185.98183 F1800
G1 X258.490 Y155.300 E185.99166 F1800
G1 X201.510 E186.81890 F1800
G1 X200.832 Y155.266 E186.82874 F1800
G1 X200.170 Y155.168 E186.83845 F1800
G1 X199.527 Y155.008 E186.84806 F1800
G1 X198.902 Y154.784 E186.85769 F1800
G1 X198.295 Y154.496 E186.86743 F1800
G1 X197.720 Y154.152 E186.87716 F1800
G1 X197.182 Y153.753 E186.88687 F1800
G1 X196.691 Y153.309 E186.89647 F1800
G1 X196.247 Y152.818 E186.90606 F1800
G1 X195.848 Y152.280 E186.91578 F1800
G1 X195.504 Y151.705 E186.92550 F1800
G1 X195.216 Y151.098 E186.93524 F1800
G1 X194.992 Y150.473 E186.94487 F1800
G1 X194.832 Y149.830 E186.95448 F1800
G1 X194.734 Y149.168 E186.96419 F1800
G1 X194.700 Y148.500 E186.97389 F1800
G1 X194.734 Y147.832 E186.98359 F1800
G1 X194.832 Y147.170 E186.99330 F1800
G1 X194.992 Y146.527 E187.00291 F1800
G1 X195.216 Y145.902 E187.01254 F1800
G1 X195.504 Y145.295 E187.02228 F1800
G1 X195.848 Y144.720 E187.03201 F1800
G1 X196.247 Y144.182 E187.04172 F1800
G1 X196.691 Y143.691 E187.05132 F1800
G1 X197.182 Y143.247 E187.06091 F1800
G1 X197.720 Y142.848 E187.07063 F1800
G1 X198.295 Y142.504 E187.08035 F1800
G1 X198.902 Y142.216 E187.09009 F1800
G1 X199.527 Y141.992 E187.09972 F1800
G1 X200.170 Y141.832 E187.10933 F1800
G1 X200.832 Y141.734 E187.11904 F1800
G1 X201.510 Y141.700 E187.12889 F1800
G1 X258.490 E187.95612 F1800
G1 X259.167 Y141.734 E187.96595 F1800
G1 X259.830 Y141.832 E187.97568 F1800
G1 X260.472 Y141.992 E187.98528 F1800
G1 X261.101 Y142.218 E187.99498 F1800
G1 X261.701 Y142.501 E188.00460 F1800
G1 X262.280 Y142.848 E188.01440 F1800
G1 X262.818 Y143.247 E188.02411 F1800
G1 X263.309 Y143.691 E188.03371 F1800
G1 X263.753 Y144.182 E188.04331 F1800
G1 X264.152 Y144.720 E188.05302 F1800
G1 X264.496 Y145.295 E188.06275 F1800
G1 X264.784 Y145.902 E188.07249 F1800
G1 X265.008 Y146.527 E188.08211 F1800
G1 X265.168 Y147.170 E188.09172 F1800
G1 X265.266 Y147.832 E188.10144 F1800
G1 X265.300 Y148.500 E188.11113 F1800
;MACROLAYER:2
;LAYER:4
M532 L4
; Inset XP 
M400
M106 P1 S51
G0 Z0.520 F1500
G0 X264.496 F7200
G1 X264.466 Y149.096 E188.11979 F2400
G1 X264.380 Y149.686 E188.12844 F2400
G1 X264.242 Y150.245 E188.13679 F2400
G1 X264.056 Y150.764 E188.14479 F2400
G1 X263.784 Y151.335 E188.15396 F2400
G1 X263.485 Y151.836 E188.16243 F2400
G1 X263.121 Y152.329 E188.17131 F2400
G1 X262.745 Y152.745 E188.17944 F2400
G1 X262.329 Y153.121 E188.18757 F2400
G1 X261.845 Y153.479 E188.19631 F2400
G1 X261.306 Y153.801 E188.20541 F2400
G1 X260.796 Y154.041 E188.21359 F2400
G1 X260.236 Y154.244 E188.22223 F2400
G1 X259.686 Y154.380 E188.23044 F2400
G1 X259.095 Y154.466 E188.23911 F2400
G1 X258.450 Y154.500 E188.24847 F2400
G1 X201.550 E189.07455 F2400
G1 X200.904 Y154.466 E189.08393 F2400
G1 X200.314 Y154.380 E189.09258 F2400
G1 X199.759 Y154.243 E189.10087 F2400
G1 X199.229 Y154.053 E189.10905 F2400
G1 X198.665 Y153.784 E189.11811 F2400
G1 X198.164 Y153.485 E189.12657 F2400
G1 X197.671 Y153.121 E189.13546 F2400
G1 X197.255 Y152.745 E189.14359 F2400
G1 X196.879 Y152.329 E189.15172 F2400
G1 X196.515 Y151.836 E189.16060 F2400
G1 X196.216 Y151.335 E189.16906 F2400
G1 X195.944 Y150.764 E189.17824 F2400
G1 X195.758 Y150.245 E189.18624 F2400
G1 X195.620 Y149.686 E189.19459 F2400
G1 X195.534 Y149.096 E189.20324 F2400
G1 X195.504 Y148.500 E189.21189 F2400
G1 X195.534 Y147.904 E189.22055 F2400
G1 X195.620 Y147.314 E189.22920 F2400
G1 X195.758 Y146.755 E189.23755 F2400
G1 X195.944 Y146.236 E189.24555 F2400
G1 X196.216 Y145.665 E189.25472 F2400
G1 X196.515 Y145.164 E189.26318 F2400
G1 X196.879 Y144.671 E189.27207 F2400
G1 X197.255 Y144.255 E189.28020 F2400
G1 X197.671 Y143.879 E189.28833 F2400
G1 X198.166 Y143.513 E189.29726 F2400
G1 X198.665 Y143.216 E189.30568 F2400
G1 X199.229 Y142.947 E189.31474 F2400
G1 X199.759 Y142.757 E189.32291 F2400
G1 X200.314 Y142.620 E189.33120 F2400
G1 X200.904 Y142.534 E189.33985 F2400
G1 X201.550 Y142.500 E189.34923 F2400
G1 X258.450 E190.17531 F2400
G1 X259.095 Y142.534 E190.18467 F2400
G1 X259.686 Y142.620 E190.19334 F2400
G1 X260.236 Y142.756 E190.20156 F2400
G1 X260.793 Y142.958 E190.21015 F2400
G1 X261.305 Y143.199 E190.21836 F2400
G1 X261.844 Y143.521 E190.22746 F2400
G1 X262.329 Y143.879 E190.23620 F2400
G1 X262.745 Y144.255 E190.24433 F2400
G1 X263.121 Y144.671 E190.25246 F2400
G1 X263.485 Y145.164 E190.26134 F2400
G1 X263.784 Y145.665 E190.26981 F2400
G1 X264.056 Y146.236 E190.27898 F2400
G1 X264.242 Y146.755 E190.28698 F2400
G1 X264.380 Y147.314 E190.29533 F2400
G1 X264.466 Y147.904 E190.30398 F2400
G1 X264.496 Y148.500 E190.31264 F2400
; Inset 0 
G0 X264.898 F7200
G1 X264.866 Y149.132 E190.32181 F1800
G1 X264.774 Y149.758 E190.33099 F1800
G1 X264.625 Y150.359 E190.33997 F1800
G1 X264.420 Y150.931 E190.34879 F1800
G1 X264.142 Y151.515 E190.35817 F1800
G1 X263.816 Y152.062 E190.36740 F1800
G1 X263.437 Y152.574 E190.37665 F1800
G1 X263.027 Y153.027 E190.38550 F1800
G1 X262.574 Y153.437 E190.39436 F1800
G1 X262.062 Y153.816 E190.40361 F1800
G1 X261.504 Y154.150 E190.41304 F1800
G1 X260.950 Y154.411 E190.42193 F1800
G1 X260.354 Y154.626 E190.43112 F1800
G1 X259.758 Y154.774 E190.44003 F1800
G1 X259.131 Y154.866 E190.44922 F1800
G1 X258.470 Y154.900 E190.45882 F1800
G1 X201.530 E191.28548 F1800
G1 X200.868 Y154.866 E191.29509 F1800
G1 X200.242 Y154.774 E191.30426 F1800
G1 X199.641 Y154.625 E191.31325 F1800
G1 X199.067 Y154.419 E191.32209 F1800
G1 X198.485 Y154.142 E191.33144 F1800
G1 X197.938 Y153.816 E191.34067 F1800
G1 X197.426 Y153.437 E191.34992 F1800
G1 X196.973 Y153.027 E191.35878 F1800
G1 X196.563 Y152.574 E191.36763 F1800
G1 X196.184 Y152.062 E191.37688 F1800
G1 X195.858 Y151.515 E191.38612 F1800
G1 X195.580 Y150.931 E191.39549 F1800
G1 X195.375 Y150.359 E191.40431 F1800
G1 X195.226 Y149.758 E191.41329 F1800
G1 X195.134 Y149.132 E191.42247 F1800
G1 X195.102 Y148.500 E191.43164 F1800
G1 X195.134 Y147.868 E191.44082 F1800
G1 X195.226 Y147.242 E191.45000 F1800
G1 X195.375 Y146.641 E191.45898 F1800
G1 X195.580 Y146.069 E191.46779 F1800
G1 X195.858 Y145.485 E191.47717 F1800
G1 X196.184 Y144.938 E191.48641 F1800
G1 X196.563 Y144.426 E191.49565 F1800
G1 X196.973 Y143.973 E191.50451 F1800
G1 X197.426 Y143.563 E191.51337 F1800
G1 X197.938 Y143.184 E191.52261 F1800
G1 X198.485 Y142.858 E191.53185 F1800
G1 X199.067 Y142.581 E191.54120 F1800
G1 X199.641 Y142.375 E191.55004 F1800
G1 X200.242 Y142.226 E191.55903 F1800
G1 X200.868 Y142.134 E191.56820 F1800
G1 X201.530 Y142.100 E191.57781 F1800
G1 X258.470 E192.40447 F1800
G1 X259.131 Y142.134 E192.41407 F1800
G1 X259.758 Y142.226 E192.42326 F1800
G1 X260.354 Y142.374 E192.43217 F1800
G1 X260.947 Y142.588 E192.44132 F1800
G1 X261.503 Y142.849 E192.45023 F1800
G1 X262.062 Y143.184 E192.45968 F1800
G1 X262.574 Y143.563 E192.46893 F1800
G1 X263.027 Y143.973 E192.47779 F1800
G1 X263.437 Y144.426 E192.48664 F1800
G1 X263.816 Y144.938 E192.49589 F1800
G1 X264.142 Y145.485 E192.50512 F1800
G1 X264.420 Y146.069 E192.51450 F1800
G1 X264.625 Y146.641 E192.52331 F1800
G1 X264.774 Y147.242 E192.53230 F1800
G1 X264.866 Y147.868 E192.54148 F1800
G1 X264.898 Y148.500 E192.55065 F1800
G0 X265.300 F7200
G1 X265.266 Y149.168 E192.56035 F1800
G1 X265.168 Y149.830 E192.57006 F1800
G1 X265.008 Y150.473 E192.57967 F1800
G1 X264.784 Y151.098 E192.58930 F1800
G1 X264.496 Y151.705 E192.59904 F1800
G1 X264.152 Y152.280 E192.60877 F1800
G1 X263.753 Y152.818 E192.61848 F1800
G1 X263.309 Y153.309 E192.62808 F1800
G1 X262.818 Y153.753 E192.63767 F1800
G1 X262.280 Y154.152 E192.64739 F1800
G1 X261.701 Y154.499 E192.65719 F1800
G1 X261.101 Y154.782 E192.66681 F1800
G1 X260.472 Y155.008 E192.67651 F1800
G1 X259.830 Y155.168 E192.68611 F1800
G1 X259.167 Y155.266 E192.69583 F1800
G1 X258.490 Y155.300 E192.70566 F1800
G1 X201.510 E193.53290 F1800
G1 X200.832 Y155.266 E193.54274 F1800
G1 X200.170 Y155.168 E193.55246 F1800
G1 X199.527 Y155.008 E193.56207 F1800
G1 X198.902 Y154.784 E193.57169 F1800
G1 X198.295 Y154.496 E193.58143 F1800
G1 X197.720 Y154.152 E193.59116 F1800
G1 X197.182 Y153.753 E193.60087 F1800
G1 X196.691 Y153.309 E193.61047 F1800
G1 X196.247 Y152.818 E193.62007 F1800
G1 X195.848 Y152.280 E193.62978 F1800
G1 X195.504 Y151.705 E193.63951 F1800
G1 X195.216 Y151.098 E193.64925 F1800
G1 X194.992 Y150.473 E193.65887 F1800
G1 X194.832 Y149.830 E193.66848 F1800
G1 X194.734 Y149.168 E193.67820 F1800
G1 X194.700 Y148.500 E193.68789 F1800
G1 X194.734 Y147.832 E193.69759 F1800
G1 X194.832 Y147.170 E193.70730 F1800
G1 X194.992 Y146.527 E193.71692 F1800
G1 X195.216 Y145.902 E193.72654 F1800
G1 X195.504 Y145.295 E193.73628 F1800
G1 X195.848 Y144.720 E193.74601 F1800
G1 X196.247 Y144.182 E193.75572 F1800
G1 X196.691 Y143.691 E193.76532 F1800
G1 X197.182 Y143.247 E193.77492 F1800
G1 X197.720 Y142.848 E193.78463 F1800
G1 X198.295 Y142.504 E193.79436 F1800
G1 X198.902 Y142.216 E193.80410 F1800
G1 X199.527 Y141.992 E193.81372 F1800
G1 X200.170 Y141.832 E193.82333 F1800
G1 X200.832 Y141.734 E193.83305 F1800
G1 X201.510 Y141.700 E193.84289 F1800
G1 X258.490 E194.67013 F1800
G1 X259.167 Y141.734 E194.67996 F1800
G1 X259.830 Y141.832 E194.68968 F1800
G1 X260.472 Y141.992 E194.69928 F1800
G1 X261.101 Y142.218 E194.70898 F1800
G1 X261.701 Y142.501 E194.71860 F1800
G1 X262.280 Y142.848 E194.72840 F1800
G1 X262.818 Y143.247 E194.73812 F1800
G1 X263.309 Y143.691 E194.74771 F1800
G1 X263.753 Y144.182 E194.75731 F1800
G1 X264.152 Y144.720 E194.76702 F1800
G1 X264.496 Y145.295 E194.77675 F1800
G1 X264.784 Y145.902 E194.78649 F1800
G1 X265.008 Y146.527 E194.79611 F1800
G1 X265.168 Y147.170 E194.80573 F1800
G1 X265.266 Y147.832 E194.81544 F1800
G1 X265.300 Y148.500 E194.82514 F1800
;MACROLAYER:2
;LAYER:5
M532 L5
; Inset XP 
G0 Z0.610 F1500
G0 X264.496 F7200
G1 X264.466 Y149.096 E194.83379 F2400
G1 X264.380 Y149.686 E194.84244 F2400
G1 X264.242 Y150.245 E194.85079 F2400
G1 X264.056 Y150.764 E194.85879 F2400
G1 X263.784 Y151.335 E194.86796 F2400
G1 X263.485 Y151.836 E194.87643 F2400
G1 X263.121 Y152.329 E194.88531 F2400
G1 X262.745 Y152.745 E194.89344 F2400
G1 X262.329 Y153.121 E194.90157 F2400
G1 X261.845 Y153.479 E194.91031 F2400
G1 X261.306 Y153.801 E194.91942 F2400
G1 X260.796 Y154.041 E194.92759 F2400
G1 X260.236 Y154.244 E194.93623 F2400
G1 X259.686 Y154.380 E194.94445 F2400
G1 X259.095 Y154.466 E194.95311 F2400
G1 X258.450 Y154.500 E194.96248 F2400
G1 X201.550 E195.78855 F2400
G1 X200.904 Y154.466 E195.79793 F2400
G1 X200.314 Y154.380 E195.80659 F2400
G1 X199.759 Y154.243 E195.81488 F2400
G1 X199.229 Y154.053 E195.82305 F2400
G1 X198.665 Y153.784 E195.83211 F2400
G1 X198.164 Y153.485 E195.84057 F2400
G1 X197.671 Y153.121 E195.84946 F2400
G1 X197.255 Y152.745 E195.85759 F2400
G1 X196.879 Y152.329 E195.86572 F2400
G1 X196.515 Y151.836 E195.87460 F2400
G1 X196.216 Y151.335 E195.88307 F2400
G1 X195.944 Y150.764 E195.89224 F2400
G1 X195.758 Y150.245 E195.90024 F2400
G1 X195.620 Y149.686 E195.90859 F2400
G1 X195.534 Y149.096 E195.91724 F2400
G1 X195.504 Y148.500 E195.92589 F2400
G1 X195.534 Y147.904 E195.93455 F2400
G1 X195.620 Y147.314 E195.94320 F2400
G1 X195.758 Y146.755 E195.95155 F2400
G1 X195.944 Y146.236 E195.95955 F2400
G1 X196.216 Y145.665 E195.96872 F2400
G1 X196.515 Y145.164 E195.97719 F2400
G1 X196.879 Y144.671 E195.98607 F2400
G1 X197.255 Y144.255 E195.99420 F2400
G1 X197.671 Y143.879 E196.00233 F2400
G1 X198.166 Y143.513 E196.01126 F2400
G1 X198.665 Y143.216 E196.01968 F2400
G1 X199.229 Y142.947 E196.02874 F2400
G1 X199.759 Y142.757 E196.03691 F2400
G1 X200.314 Y142.620 E196.04520 F2400
G1 X200.904 Y142.534 E196.05386 F2400
G1 X201.550 Y142.500 E196.06324 F2400
G1 X258.450 E196.88931 F2400
G1 X259.095 Y142.534 E196.89868 F2400
G1 X259.686 Y142.620 E196.90734 F2400
G1 X260.236 Y142.756 E196.91556 F2400
G1 X260.793 Y142.958 E196.92416 F2400
G1 X261.305 Y143.199 E196.93236 F2400
G1 X261.844 Y143.521 E196.94146 F2400
G1 X262.329 Y143.879 E196.95020 F2400
G1 X262.745 Y144.255 E196.95833 F2400
G1 X263.121 Y144.671 E196.96646 F2400
G1 X263.485 Y145.164 E196.97535 F2400
G1 X263.784 Y145.665 E196.98381 F2400
G1 X264.056 Y146.236 E196.99299 F2400
G1 X264.242 Y146.755 E197.00099 F2400
G1 X264.380 Y147.314 E197.00933 F2400
G1 X264.466 Y147.904 E197.01799 F2400
G1 X264.496 Y148.500 E197.02664 F2400
; Solid infill 
G0 X264.347 Y148.382 F7200
G1 X258.615 Y142.649 E197.26201 F1800
G0 X258.039 Y142.639 F7200
G1 X264.332 Y148.932 E197.52040 F1800
G0 X264.272 Y149.438 F7200
G1 X257.473 Y142.639 E197.79958 F1800
G0 X256.908 F7200
G1 X264.178 Y149.910 E198.09813 F1800
G0 X264.054 Y150.351 F7200
G1 X256.342 Y142.639 E198.41480 F1800
G0 X255.776 F7200
G1 X263.900 Y150.762 E198.74836 F1800
G0 X263.717 Y151.146 F7200
G1 X255.211 Y142.639 E199.09767 F1800
G0 X254.645 F7200
G1 X263.515 Y151.509 E199.46190 F1800
G0 X263.295 Y151.855 F7200
G1 X254.079 Y142.639 E199.84032 F1800
G0 X253.514 F7200
G1 X263.055 Y152.180 E200.23211 F1800
G0 X262.791 Y152.483 F7200
G1 X252.948 Y142.639 E200.63629 F1800
G0 X252.382 F7200
G1 X262.510 Y152.767 E201.05217 F1800
G0 X262.211 Y153.034 F7200
G1 X251.816 Y142.639 E201.47901 F1800
G0 X251.251 F7200
G1 X261.885 Y153.273 E201.91565 F1800
G0 X261.541 Y153.495 F7200
G1 X250.685 Y142.639 E202.36141 F1800
G0 X250.119 F7200
G1 X261.183 Y153.703 E202.81571 F1800
G0 X260.798 Y153.884 F7200
G1 X249.554 Y142.639 E203.27744 F1800
G0 X248.988 F7200
G1 X260.387 Y154.038 E203.74550 F1800
G0 X259.952 Y154.169 F7200
G1 X248.422 Y142.639 E204.21894 F1800
G0 X247.857 F7200
G1 X259.484 Y154.266 E204.69638 F1800
G0 X258.982 Y154.331 F7200
G1 X247.291 Y142.639 E205.17646 F1800
G0 X246.725 F7200
G1 X258.445 Y154.359 E205.65771 F1800
G0 X257.880 F7200
G1 X246.160 Y142.639 E206.13895 F1800
G0 X245.594 F7200
G1 X257.314 Y154.359 E206.62019 F1800
G0 X256.749 F7200
G1 X245.028 Y142.639 E207.10147 F1800
G0 X244.463 F7200
G1 X256.183 Y154.359 E207.58271 F1800
G0 X255.617 F7200
G1 X243.897 Y142.639 E208.06396 F1800
G0 X243.331 F7200
G1 X255.052 Y154.359 E208.54523 F1800
G0 X254.486 F7200
G1 X242.766 Y142.639 E209.02647 F1800
G0 X242.200 F7200
G1 X253.920 Y154.359 E209.50772 F1800
G0 X253.354 F7200
G1 X241.634 Y142.639 E209.98896 F1800
G0 X241.068 F7200
G1 X252.789 Y154.359 E210.47024 F1800
G0 X252.223 F7200
G1 X240.503 Y142.639 E210.95148 F1800
G0 X239.937 F7200
G1 X251.657 Y154.359 E211.43272 F1800
G0 X251.092 F7200
G1 X239.371 Y142.639 E211.91400 F1800
G0 X238.806 F7200
G1 X250.526 Y154.359 E212.39524 F1800
G0 X249.960 F7200
G1 X238.240 Y142.639 E212.87649 F1800
G0 X237.674 F7200
G1 X249.395 Y154.359 E213.35776 F1800
G0 X248.829 F7200
G1 X237.109 Y142.639 E213.83900 F1800
G0 X236.543 F7200
G1 X248.263 Y154.359 E214.32025 F1800
G0 X247.698 F7200
G1 X235.977 Y142.639 E214.80152 F1800
G0 X235.412 F7200
G1 X247.132 Y154.359 E215.28277 F1800
G0 X246.566 F7200
G1 X234.846 Y142.639 E215.76401 F1800
G0 X234.280 F7200
G1 X246.001 Y154.359 E216.24528 F1800
G0 X245.435 F7200
G1 X233.715 Y142.639 E216.72653 F1800
G0 X233.149 F7200
G1 X244.869 Y154.359 E217.20777 F1800
G0 X244.303 F7200
G1 X232.583 Y142.639 E217.68902 F1800
G0 X232.017 F7200
G1 X243.738 Y154.359 E218.17029 F1800
G0 X243.172 F7200
G1 X231.452 Y142.639 E218.65153 F1800
G0 X230.886 F7200
G1 X242.606 Y154.359 E219.13278 F1800
G0 X242.041 F7200
G1 X230.320 Y142.639 E219.61405 F1800
G0 X229.755 Y142.640 F7200
G1 X241.475 Y154.359 E220.09527 F1800
G0 X240.909 F7200
G1 X229.190 Y142.640 E220.57648 F1800
G0 X228.624 F7200
G1 X240.344 Y154.359 E221.05770 F1800
G0 X239.778 F7200
G1 X228.058 Y142.640 E221.53891 F1800
G0 X227.493 F7200
G1 X239.212 Y154.359 E222.02013 F1800
G0 X238.647 F7200
G1 X226.927 Y142.640 E222.50134 F1800
G0 X226.361 F7200
G1 X238.081 Y154.359 E222.98256 F1800
G0 X237.515 F7200
G1 X225.796 Y142.640 E223.46377 F1800
G0 X225.230 F7200
G1 X236.950 Y154.359 E223.94499 F1800
G0 X236.384 F7200
G1 X224.664 Y142.640 E224.42620 F1800
G0 X224.099 F7200
G1 X235.818 Y154.359 E224.90742 F1800
G0 X235.253 F7200
G1 X223.533 Y142.640 E225.38863 F1800
G0 X222.967 F7200
G1 X234.687 Y154.359 E225.86985 F1800
G0 X234.121 F7200
G1 X222.402 Y142.640 E226.35107 F1800
G0 X221.836 F7200
G1 X233.555 Y154.359 E226.83228 F1800
G0 X232.990 F7200
G1 X221.270 Y142.640 E227.31350 F1800
G0 X220.704 F7200
G1 X232.424 Y154.359 E227.79471 F1800
G0 X231.858 F7200
G1 X220.139 Y142.640 E228.27593 F1800
G0 X219.573 F7200
G1 X231.293 Y154.359 E228.75714 F1800
G0 X230.727 F7200
G1 X219.007 Y142.640 E229.23836 F1800
G0 X218.442 F7200
G1 X230.161 Y154.359 E229.71957 F1800
G0 X229.596 F7200
G1 X217.876 Y142.640 E230.20079 F1800
G0 X217.310 F7200
G1 X229.030 Y154.359 E230.68200 F1800
G0 X228.464 F7200
G1 X216.745 Y142.640 E231.16322 F1800
G0 X216.179 F7200
G1 X227.899 Y154.359 E231.64443 F1800
G0 X227.333 F7200
G1 X215.613 Y142.640 E232.12565 F1800
G0 X215.048 F7200
G1 X226.767 Y154.359 E232.60686 F1800
G0 X226.202 F7200
G1 X214.482 Y142.640 E233.08808 F1800
G0 X213.916 F7200
G1 X225.636 Y154.359 E233.56929 F1800
G0 X225.070 F7200
G1 X213.351 Y142.640 E234.05051 F1800
G0 X212.785 F7200
G1 X224.504 Y154.359 E234.53172 F1800
G0 X223.939 F7200
G1 X212.219 Y142.640 E235.01294 F1800
G0 X211.654 F7200
G1 X223.373 Y154.359 E235.49416 F1800
G0 X222.807 F7200
G1 X211.088 Y142.640 E235.97537 F1800
G0 X210.522 F7200
G1 X222.242 Y154.359 E236.45659 F1800
G0 X221.676 F7200
G1 X209.956 Y142.640 E236.93780 F1800
G0 X209.391 F7200
G1 X221.110 Y154.359 E237.41902 F1800
G0 X220.545 F7200
G1 X208.825 Y142.640 E237.90023 F1800
G0 X208.259 F7200
G1 X219.979 Y154.359 E238.38145 F1800
G0 X219.413 F7200
G1 X207.694 Y142.640 E238.86266 F1800
G0 X207.128 F7200
G1 X218.848 Y154.359 E239.34388 F1800
G0 X218.282 F7200
G1 X206.562 Y142.640 E239.82509 F1800
G0 X205.997 F7200
G1 X217.716 Y154.359 E240.30631 F1800
G0 X217.151 F7200
G1 X205.431 Y142.640 E240.78752 F1800
G0 X204.865 F7200
G1 X216.585 Y154.359 E241.26874 F1800
G0 X216.019 F7200
G1 X204.300 Y142.640 E241.74995 F1800
G0 X203.734 F7200
G1 X215.454 Y154.359 E242.23117 F1800
G0 X214.888 F7200
G1 X203.168 Y142.640 E242.71238 F1800
G0 X202.603 F7200
G1 X214.322 Y154.359 E243.19360 F1800
G0 X213.756 F7200
G1 X202.037 Y142.640 E243.67481 F1800
G0 X201.476 Y142.645 F7200
G1 X213.191 Y154.359 E244.15583 F1800
G0 X212.625 F7200
G1 X200.937 Y142.672 E244.63573 F1800
G0 X200.443 Y142.743 F7200
G1 X212.059 Y154.359 E245.11271 F1800
G0 X211.494 F7200
G1 X199.981 Y142.846 E245.58545 F1800
G0 X199.549 Y142.980 F7200
G1 X210.928 Y154.359 E246.05270 F1800
G0 X210.362 F7200
G1 X199.146 Y143.143 E246.51324 F1800
G0 X198.762 Y143.325 F7200
G1 X209.797 Y154.359 E246.96635 F1800
G0 X209.231 F7200
G1 X198.404 Y143.533 E247.41089 F1800
G0 X198.066 Y143.760 F7200
G1 X208.665 Y154.359 E247.84611 F1800
G0 X208.100 F7200
G1 X197.741 Y144.001 E248.27146 F1800
G0 X197.444 Y144.269 F7200
G1 X207.534 Y154.359 E248.68578 F1800
G0 X206.968 F7200
G1 X197.166 Y144.558 E249.08825 F1800
G0 X196.908 Y144.865 F7200
G1 X206.403 Y154.359 E249.47811 F1800
G0 X205.837 F7200
G1 X196.668 Y145.190 E249.85460 F1800
G0 X196.452 Y145.540 F7200
G1 X205.271 Y154.359 E250.21671 F1800
G0 X204.705 F7200
G1 X196.255 Y145.909 E250.56369 F1800
G0 X196.072 Y146.292 F7200
G1 X204.140 Y154.359 E250.89496 F1800
G0 X203.574 F7200
G1 X195.923 Y146.708 E251.20913 F1800
G0 X195.804 Y147.155 F7200
G1 X203.008 Y154.359 E251.50492 F1800
G0 X202.443 F7200
G1 X195.715 Y147.631 E251.78117 F1800
G0 X195.662 Y148.145 F7200
G1 X201.877 Y154.359 E252.03634 F1800
G0 X201.297 Y154.345 F7200
G1 X195.655 Y148.703 E252.26799 F1800
G0 X195.708 Y149.322 F7200
G1 X200.676 Y154.290 E252.47197 F1800
G0 X199.971 Y154.150 F7200
G1 X195.848 Y150.028 E252.64125 F1800
G0 X196.174 Y150.919 F7200
G1 X198.728 Y153.473 E252.74613 F1800
G1 X199.082 Y153.827 E252.74613 F1800
G1 F1800 E243.74613
G0 Z1.110 F1500
G0 X259.226 Y142.695 F7200
G0 Z0.610 F1500
G1 F1200 E252.74613
G1 X264.303 Y147.772 E252.95458 F1800
G0 X264.176 Y147.079 F7200
G1 X259.920 Y142.823 E253.12932 F1800
G0 X260.761 Y143.099 F7200
G1 X263.899 Y146.236 E253.25815 F1800
G0 X263.080 Y144.852 F7200
G1 X262.506 Y144.277 E253.28176 F1800
G1 X262.152 Y143.923 E253.28176 F1800
; Inset 0 
G1 F1800 E244.28176
G0 Z1.110 F1500
G0 X264.098 Y148.500 F7200
G0 Z0.610 F1500
G1 F1200 E253.28176
G0 X264.898 F7200
G1 X264.866 Y149.132 E253.29093 F1800
G1 X264.774 Y149.758 E253.30011 F1800
G1 X264.625 Y150.359 E253.30909 F1800
G1 X264.420 Y150.931 E253.31791 F1800
G1 X264.142 Y151.515 E253.32728 F1800
G1 X263.816 Y152.062 E253.33652 F1800
G1 X263.437 Y152.574 E253.34577 F1800
G1 X263.027 Y153.027 E253.35462 F1800
G1 X262.574 Y153.437 E253.36348 F1800
G1 X262.062 Y153.816 E253.37273 F1800
G1 X261.504 Y154.150 E253.38216 F1800
G1 X260.950 Y154.411 E253.39105 F1800
G1 X260.354 Y154.626 E253.40024 F1800
G1 X259.758 Y154.774 E253.40915 F1800
G1 X259.131 Y154.866 E253.41834 F1800
G1 X258.470 Y154.900 E253.42794 F1800
G1 X201.530 E254.25460 F1800
G1 X200.868 Y154.866 E254.26421 F1800
G1 X200.242 Y154.774 E254.27338 F1800
G1 X199.641 Y154.625 E254.28237 F1800
G1 X199.067 Y154.419 E254.29121 F1800
G1 X198.485 Y154.142 E254.30056 F1800
G1 X197.938 Y153.816 E254.30979 F1800
G1 X197.426 Y153.437 E254.31904 F1800
G1 X196.973 Y153.027 E254.32790 F1800
G1 X196.563 Y152.574 E254.33675 F1800
G1 X196.184 Y152.062 E254.34600 F1800
G1 X195.858 Y151.515 E254.35523 F1800
G1 X195.580 Y150.931 E254.36461 F1800
G1 X195.375 Y150.359 E254.37343 F1800
G1 X195.226 Y149.758 E254.38241 F1800
G1 X195.134 Y149.132 E254.39159 F1800
G1 X195.102 Y148.500 E254.40076 F1800
G1 X195.134 Y147.868 E254.40994 F1800
G1 X195.226 Y147.242 E254.41911 F1800
G1 X195.375 Y146.641 E254.42810 F1800
G1 X195.580 Y146.069 E254.43691 F1800
G1 X195.858 Y145.485 E254.44629 F1800
G1 X196.184 Y144.938 E254.45553 F1800
G1 X196.563 Y144.426 E254.46477 F1800
G1 X196.973 Y143.973 E254.47363 F1800
G1 X197.426 Y143.563 E254.48249 F1800
G1 X197.938 Y143.184 E254.49173 F1800
G1 X198.485 Y142.858 E254.50097 F1800
G1 X199.067 Y142.581 E254.51032 F1800
G1 X199.641 Y142.375 E254.51916 F1800
G1 X200.242 Y142.226 E254.52814 F1800
G1 X200.868 Y142.134 E254.53732 F1800
G1 X201.530 Y142.100 E254.54693 F1800
G1 X258.470 E255.37359 F1800
G1 X259.131 Y142.134 E255.38319 F1800
G1 X259.758 Y142.226 E255.39238 F1800
G1 X260.354 Y142.374 E255.40129 F1800
G1 X260.947 Y142.588 E255.41044 F1800
G1 X261.503 Y142.849 E255.41935 F1800
G1 X262.062 Y143.184 E255.42880 F1800
G1 X262.574 Y143.563 E255.43805 F1800
G1 X263.027 Y143.973 E255.44690 F1800
G1 X263.437 Y144.426 E255.45576 F1800
G1 X263.816 Y144.938 E255.46501 F1800
G1 X264.142 Y145.485 E255.47424 F1800
G1 X264.420 Y146.069 E255.48362 F1800
G1 X264.625 Y146.641 E255.49243 F1800
G1 X264.774 Y147.242 E255.50142 F1800
G1 X264.866 Y147.868 E255.51060 F1800
G1 X264.898 Y148.500 E255.51977 F1800
G0 X265.300 F7200
G1 X265.266 Y149.168 E255.52947 F1800
G1 X265.168 Y149.830 E255.53918 F1800
G1 X265.008 Y150.473 E255.54879 F1800
G1 X264.784 Y151.098 E255.55842 F1800
G1 X264.496 Y151.705 E255.56816 F1800
G1 X264.152 Y152.280 E255.57789 F1800
G1 X263.753 Y152.818 E255.58760 F1800
G1 X263.309 Y153.309 E255.59720 F1800
G1 X262.818 Y153.753 E255.60679 F1800
G1 X262.280 Y154.152 E255.61650 F1800
G1 X261.701 Y154.499 E255.62630 F1800
G1 X261.101 Y154.782 E255.63593 F1800
G1 X260.472 Y155.008 E255.64563 F1800
G1 X259.830 Y155.168 E255.65522 F1800
G1 X259.167 Y155.266 E255.66495 F1800
G1 X258.490 Y155.300 E255.67478 F1800
G1 X201.510 E256.50202 F1800
G1 X200.832 Y155.266 E256.51186 F1800
G1 X200.170 Y155.168 E256.52157 F1800
G1 X199.527 Y155.008 E256.53119 F1800
G1 X198.902 Y154.784 E256.54081 F1800
G1 X198.295 Y154.496 E256.55055 F1800
G1 X197.720 Y154.152 E256.56028 F1800
G1 X197.182 Y153.753 E256.56999 F1800
G1 X196.691 Y153.309 E256.57959 F1800
G1 X196.247 Y152.818 E256.58919 F1800
G1 X195.848 Y152.280 E256.59890 F1800
G1 X195.504 Y151.705 E256.60862 F1800
G1 X195.216 Y151.098 E256.61837 F1800
G1 X194.992 Y150.473 E256.62799 F1800
G1 X194.832 Y149.830 E256.63760 F1800
G1 X194.734 Y149.168 E256.64732 F1800
G1 X194.700 Y148.500 E256.65701 F1800
G1 X194.734 Y147.832 E256.66671 F1800
G1 X194.832 Y147.170 E256.67642 F1800
G1 X194.992 Y146.527 E256.68603 F1800
G1 X195.216 Y145.902 E256.69566 F1800
G1 X195.504 Y145.295 E256.70540 F1800
G1 X195.848 Y144.720 E256.71513 F1800
G1 X196.247 Y144.182 E256.72484 F1800
G1 X196.691 Y143.691 E256.73444 F1800
G1 X197.182 Y143.247 E256.74403 F1800
G1 X197.720 Y142.848 E256.75375 F1800
G1 X198.295 Y142.504 E256.76347 F1800
G1 X198.902 Y142.216 E256.77322 F1800
G1 X199.527 Y141.992 E256.78284 F1800
G1 X200.170 Y141.832 E256.79245 F1800
G1 X200.832 Y141.734 E256.80216 F1800
G1 X201.510 Y141.700 E256.81201 F1800
G1 X258.490 E257.63925 F1800
G1 X259.167 Y141.734 E257.64908 F1800
G1 X259.830 Y141.832 E257.65880 F1800
G1 X260.472 Y141.992 E257.66840 F1800
G1 X261.101 Y142.218 E257.67810 F1800
G1 X261.701 Y142.501 E257.68772 F1800
G1 X262.280 Y142.848 E257.69752 F1800
G1 X262.818 Y143.247 E257.70723 F1800
G1 X263.309 Y143.691 E257.71683 F1800
G1 X263.753 Y144.182 E257.72643 F1800
G1 X264.152 Y144.720 E257.73614 F1800
G1 X264.496 Y145.295 E257.74587 F1800
G1 X264.784 Y145.902 E257.75561 F1800
G1 X265.008 Y146.527 E257.76523 F1800
G1 X265.168 Y147.170 E257.77485 F1800
G1 X265.266 Y147.832 E257.78456 F1800
G1 X265.300 Y148.500 E257.79426 F1800
;MACROLAYER:3
;LAYER:6
M532 L6
; Inset XP 
G0 Z0.700 F1500
G0 X264.496 F7200
G1 X264.466 Y149.096 E257.80291 F2400
G1 X264.380 Y149.686 E257.81156 F2400
G1 X264.242 Y150.245 E257.81991 F2400
G1 X264.056 Y150.764 E257.82791 F2400
G1 X263.784 Y151.335 E257.83708 F2400
G1 X263.485 Y151.836 E257.84555 F2400
G1 X263.121 Y152.329 E257.85443 F2400
G1 X262.745 Y152.745 E257.86256 F2400
G1 X262.329 Y153.121 E257.87069 F2400
G1 X261.845 Y153.479 E257.87943 F2400
G1 X261.306 Y153.801 E257.88854 F2400
G1 X260.796 Y154.041 E257.89671 F2400
G1 X260.236 Y154.244 E257.90535 F2400
G1 X259.686 Y154.380 E257.91357 F2400
G1 X259.095 Y154.466 E257.92223 F2400
G1 X258.450 Y154.500 E257.93160 F2400
G1 X201.550 E258.75767 F2400
G1 X200.904 Y154.466 E258.76705 F2400
G1 X200.314 Y154.380 E258.77570 F2400
G1 X199.759 Y154.243 E258.78399 F2400
G1 X199.229 Y154.053 E258.79217 F2400
G1 X198.665 Y153.784 E258.80123 F2400
G1 X198.164 Y153.485 E258.80969 F2400
G1 X197.671 Y153.121 E258.81858 F2400
G1 X197.255 Y152.745 E258.82671 F2400
G1 X196.879 Y152.329 E258.83484 F2400
G1 X196.515 Y151.836 E258.84372 F2400
G1 X196.216 Y151.335 E258.85219 F2400
G1 X195.944 Y150.764 E258.86136 F2400
G1 X195.758 Y150.245 E258.86936 F2400
G1 X195.620 Y149.686 E258.87771 F2400
G1 X195.534 Y149.096 E258.88636 F2400
G1 X195.504 Y148.500 E258.89501 F2400
G1 X195.534 Y147.904 E258.90367 F2400
G1 X195.620 Y147.314 E258.91232 F2400
G1 X195.758 Y146.755 E258.92067 F2400
G1 X195.944 Y146.236 E258.92867 F2400
G1 X196.216 Y145.665 E258.93784 F2400
G1 X196.515 Y145.164 E258.94631 F2400
G1 X196.879 Y144.671 E258.95519 F2400
G1 X197.255 Y144.255 E258.96332 F2400
G1 X197.671 Y143.879 E258.97145 F2400
G1 X198.166 Y143.513 E258.98038 F2400
G1 X198.665 Y143.216 E258.98880 F2400
G1 X199.229 Y142.947 E258.99786 F2400
G1 X199.759 Y142.757 E259.00603 F2400
G1 X200.314 Y142.620 E259.01432 F2400
G1 X200.904 Y142.534 E259.02298 F2400
G1 X201.550 Y142.500 E259.03235 F2400
G1 X258.450 E259.85843 F2400
G1 X259.095 Y142.534 E259.86780 F2400
G1 X259.686 Y142.620 E259.87646 F2400
G1 X260.236 Y142.756 E259.88468 F2400
G1 X260.793 Y142.958 E259.89328 F2400
G1 X261.305 Y143.199 E259.90148 F2400
G1 X261.844 Y143.521 E259.91058 F2400
G1 X262.329 Y143.879 E259.91932 F2400
G1 X262.745 Y144.255 E259.92745 F2400
G1 X263.121 Y144.671 E259.93558 F2400
G1 X263.485 Y145.164 E259.94447 F2400
G1 X263.784 Y145.665 E259.95293 F2400
G1 X264.056 Y146.236 E259.96211 F2400
G1 X264.242 Y146.755 E259.97010 F2400
G1 X264.380 Y147.314 E259.97845 F2400
G1 X264.466 Y147.904 E259.98711 F2400
G1 X264.496 Y148.500 E259.99576 F2400
; Inset 0 
G0 X264.898 F7200
G1 X264.866 Y149.132 E260.00493 F1800
G1 X264.774 Y149.758 E260.01411 F1800
G1 X264.625 Y150.359 E260.02310 F1800
G1 X264.420 Y150.931 E260.03191 F1800
G1 X264.142 Y151.515 E260.04129 F1800
G1 X263.816 Y152.062 E260.05052 F1800
G1 X263.437 Y152.574 E260.05977 F1800
G1 X263.027 Y153.027 E260.06862 F1800
G1 X262.574 Y153.437 E260.07748 F1800
G1 X262.062 Y153.816 E260.08673 F1800
G1 X261.504 Y154.150 E260.09616 F1800
G1 X260.950 Y154.411 E260.10505 F1800
G1 X260.354 Y154.626 E260.11424 F1800
G1 X259.758 Y154.774 E260.12315 F1800
G1 X259.131 Y154.866 E260.13234 F1800
G1 X258.470 Y154.900 E260.14194 F1800
G1 X201.530 E260.96860 F1800
G1 X200.868 Y154.866 E260.97821 F1800
G1 X200.242 Y154.774 E260.98738 F1800
G1 X199.641 Y154.625 E260.99637 F1800
G1 X199.067 Y154.419 E261.00521 F1800
G1 X198.485 Y154.142 E261.01456 F1800
G1 X197.938 Y153.816 E261.02380 F1800
G1 X197.426 Y153.437 E261.03304 F1800
G1 X196.973 Y153.027 E261.04190 F1800
G1 X196.563 Y152.574 E261.05076 F1800
G1 X196.184 Y152.062 E261.06000 F1800
G1 X195.858 Y151.515 E261.06924 F1800
G1 X195.580 Y150.931 E261.07862 F1800
G1 X195.375 Y150.359 E261.08743 F1800
G1 X195.226 Y149.758 E261.09641 F1800
G1 X195.134 Y149.132 E261.10559 F1800
G1 X195.102 Y148.500 E261.11477 F1800
G1 X195.134 Y147.868 E261.12394 F1800
G1 X195.226 Y147.242 E261.13312 F1800
G1 X195.375 Y146.641 E261.14210 F1800
G1 X195.580 Y146.069 E261.15092 F1800
G1 X195.858 Y145.485 E261.16029 F1800
G1 X196.184 Y144.938 E261.16953 F1800
G1 X196.563 Y144.426 E261.17878 F1800
G1 X196.973 Y143.973 E261.18763 F1800
G1 X197.426 Y143.563 E261.19649 F1800
G1 X197.938 Y143.184 E261.20574 F1800
G1 X198.485 Y142.858 E261.21497 F1800
G1 X199.067 Y142.581 E261.22432 F1800
G1 X199.641 Y142.375 E261.23316 F1800
G1 X200.242 Y142.226 E261.24215 F1800
G1 X200.868 Y142.134 E261.25132 F1800
G1 X201.530 Y142.100 E261.26093 F1800
G1 X258.470 E262.08759 F1800
G1 X259.131 Y142.134 E262.09719 F1800
G1 X259.758 Y142.226 E262.10638 F1800
G1 X260.354 Y142.374 E262.11529 F1800
G1 X260.947 Y142.588 E262.12444 F1800
G1 X261.503 Y142.849 E262.13335 F1800
G1 X262.062 Y143.184 E262.14280 F1800
G1 X262.574 Y143.563 E262.15205 F1800
G1 X263.027 Y143.973 E262.16091 F1800
G1 X263.437 Y144.426 E262.16976 F1800
G1 X263.816 Y144.938 E262.17901 F1800
G1 X264.142 Y145.485 E262.18824 F1800
G1 X264.420 Y146.069 E262.19762 F1800
G1 X264.625 Y146.641 E262.20644 F1800
G1 X264.774 Y147.242 E262.21542 F1800
G1 X264.866 Y147.868 E262.22460 F1800
G1 X264.898 Y148.500 E262.23377 F1800
G0 X265.300 F7200
G1 X265.266 Y149.168 E262.24347 F1800
G1 X265.168 Y149.830 E262.25318 F1800
G1 X265.008 Y150.473 E262.26280 F1800
G1 X264.784 Y151.098 E262.27242 F1800
G1 X264.496 Y151.705 E262.28216 F1800
G1 X264.152 Y152.280 E262.29189 F1800
G1 X263.753 Y152.818 E262.30160 F1800
G1 X263.309 Y153.309 E262.31120 F1800
G1 X262.818 Y153.753 E262.32079 F1800
G1 X262.280 Y154.152 E262.33051 F1800
G1 X261.701 Y154.499 E262.34031 F1800
G1 X261.101 Y154.782 E262.34993 F1800
G1 X260.472 Y155.008 E262.35963 F1800
G1 X259.830 Y155.168 E262.36923 F1800
G1 X259.167 Y155.266 E262.37895 F1800
G1 X258.490 Y155.300 E262.38878 F1800
G1 X201.510 E263.21602 F1800
G1 X200.832 Y155.266 E263.22586 F1800
G1 X200.170 Y155.168 E263.23558 F1800
G1 X199.527 Y155.008 E263.24519 F1800
G1 X198.902 Y154.784 E263.25481 F1800
G1 X198.295 Y154.496 E263.26455 F1800
G1 X197.720 Y154.152 E263.27428 F1800
G1 X197.182 Y153.753 E263.28399 F1800
G1 X196.691 Y153.309 E263.29359 F1800
G1 X196.247 Y152.818 E263.30319 F1800
G1 X195.848 Y152.280 E263.31290 F1800
G1 X195.504 Y151.705 E263.32263 F1800
G1 X195.216 Y151.098 E263.33237 F1800
G1 X194.992 Y150.473 E263.34199 F1800
G1 X194.832 Y149.830 E263.35161 F1800
G1 X194.734 Y149.168 E263.36132 F1800
G1 X194.700 Y148.500 E263.37102 F1800
G1 X194.734 Y147.832 E263.38071 F1800
G1 X194.832 Y147.170 E263.39043 F1800
G1 X194.992 Y146.527 E263.40004 F1800
G1 X195.216 Y145.902 E263.40966 F1800
G1 X195.504 Y145.295 E263.41940 F1800
G1 X195.848 Y144.720 E263.42913 F1800
G1 X196.247 Y144.182 E263.43884 F1800
G1 X196.691 Y143.691 E263.44844 F1800
G1 X197.182 Y143.247 E263.45804 F1800
G1 X197.720 Y142.848 E263.46775 F1800
G1 X198.295 Y142.504 E263.47748 F1800
G1 X198.902 Y142.216 E263.48722 F1800
G1 X199.527 Y141.992 E263.49684 F1800
G1 X200.170 Y141.832 E263.50645 F1800
G1 X200.832 Y141.734 E263.51617 F1800
G1 X201.510 Y141.700 E263.52601 F1800
G1 X258.490 E264.35325 F1800
G1 X259.167 Y141.734 E264.36308 F1800
G1 X259.830 Y141.832 E264.37280 F1800
G1 X260.472 Y141.992 E264.38240 F1800
G1 X261.101 Y142.218 E264.39210 F1800
G1 X261.701 Y142.501 E264.40172 F1800
G1 X262.280 Y142.848 E264.41152 F1800
G1 X262.818 Y143.247 E264.42124 F1800
G1 X263.309 Y143.691 E264.43083 F1800
G1 X263.753 Y144.182 E264.44043 F1800
G1 X264.152 Y144.720 E264.45014 F1800
G1 X264.496 Y145.295 E264.45987 F1800
G1 X264.784 Y145.902 E264.46961 F1800
G1 X265.008 Y146.527 E264.47924 F1800
G1 X265.168 Y147.170 E264.48885 F1800
G1 X265.266 Y147.832 E264.49856 F1800
G1 X265.300 Y148.500 E264.50826 F1800
;MACROLAYER:3
;LAYER:7
M532 L7
; Inset XP 
G0 Z0.790 F1500
G0 X264.496 F7200
G1 X264.466 Y149.096 E264.51691 F2400
G1 X264.380 Y149.686 E264.52556 F2400
G1 X264.242 Y150.245 E264.53391 F2400
G1 X264.056 Y150.764 E264.54191 F2400
G1 X263.784 Y151.335 E264.55109 F2400
G1 X263.485 Y151.836 E264.55955 F2400
G1 X263.121 Y152.329 E264.56844 F2400
G1 X262.745 Y152.745 E264.57657 F2400
G1 X262.329 Y153.121 E264.58470 F2400
G1 X261.845 Y153.479 E264.59344 F2400
G1 X261.306 Y153.801 E264.60254 F2400
G1 X260.796 Y154.041 E264.61071 F2400
G1 X260.236 Y154.244 E264.61935 F2400
G1 X259.686 Y154.380 E264.62757 F2400
G1 X259.095 Y154.466 E264.63623 F2400
G1 X258.450 Y154.500 E264.64560 F2400
G1 X201.550 E265.47168 F2400
G1 X200.904 Y154.466 E265.48105 F2400
G1 X200.314 Y154.380 E265.48971 F2400
G1 X199.759 Y154.243 E265.49800 F2400
G1 X199.229 Y154.053 E265.50617 F2400
G1 X198.665 Y153.784 E265.51523 F2400
G1 X198.164 Y153.485 E265.52369 F2400
G1 X197.671 Y153.121 E265.53258 F2400
G1 X197.255 Y152.745 E265.54071 F2400
G1 X196.879 Y152.329 E265.54884 F2400
G1 X196.515 Y151.836 E265.55772 F2400
G1 X196.216 Y151.335 E265.56619 F2400
G1 X195.944 Y150.764 E265.57536 F2400
G1 X195.758 Y150.245 E265.58336 F2400
G1 X195.620 Y149.686 E265.59171 F2400
G1 X195.534 Y149.096 E265.60036 F2400
G1 X195.504 Y148.500 E265.60902 F2400
G1 X195.534 Y147.904 E265.61767 F2400
G1 X195.620 Y147.314 E265.62632 F2400
G1 X195.758 Y146.755 E265.63467 F2400
G1 X195.944 Y146.236 E265.64267 F2400
G1 X196.216 Y145.665 E265.65184 F2400
G1 X196.515 Y145.164 E265.66031 F2400
G1 X196.879 Y144.671 E265.66919 F2400
G1 X197.255 Y144.255 E265.67732 F2400
G1 X197.671 Y143.879 E265.68545 F2400
G1 X198.166 Y143.513 E265.69438 F2400
G1 X198.665 Y143.216 E265.70280 F2400
G1 X199.229 Y142.947 E265.71186 F2400
G1 X199.759 Y142.757 E265.72004 F2400
G1 X200.314 Y142.620 E265.72833 F2400
G1 X200.904 Y142.534 E265.73698 F2400
G1 X201.550 Y142.500 E265.74636 F2400
G1 X258.450 E266.57243 F2400
G1 X259.095 Y142.534 E266.58180 F2400
G1 X259.686 Y142.620 E266.59047 F2400
G1 X260.236 Y142.756 E266.59868 F2400
G1 X260.793 Y142.958 E266.60728 F2400
G1 X261.305 Y143.199 E266.61548 F2400
G1 X261.844 Y143.521 E266.62458 F2400
G1 X262.329 Y143.879 E266.63332 F2400
G1 X262.745 Y144.255 E266.64145 F2400
G1 X263.121 Y144.671 E266.64958 F2400
G1 X263.485 Y145.164 E266.65847 F2400
G1 X263.784 Y145.665 E266.66693 F2400
G1 X264.056 Y146.236 E266.67611 F2400
G1 X264.242 Y146.755 E266.68411 F2400
G1 X264.380 Y147.314 E266.69245 F2400
G1 X264.466 Y147.904 E266.70111 F2400
G1 X264.496 Y148.500 E266.70976 F2400
; Solid infill 
G0 X264.348 Y148.602 F7200
G1 X258.598 Y154.351 E266.94585 F1800
G0 X258.024 Y154.359 F7200
G1 X264.331 Y148.053 E267.20480 F1800
G0 X264.270 Y147.548 F7200
G1 X257.458 Y154.359 E267.48447 F1800
G0 X256.893 F7200
G1 X264.175 Y147.077 E267.78349 F1800
G0 X264.050 Y146.636 F7200
G1 X256.327 Y154.359 E268.10059 F1800
G0 X255.761 F7200
G1 X263.894 Y146.227 E268.43453 F1800
G0 X263.711 Y145.844 F7200
G1 X255.196 Y154.359 E268.78419 F1800
G0 X254.630 F7200
G1 X263.509 Y145.480 E269.14876 F1800
G0 X263.289 Y145.135 F7200
G1 X254.064 Y154.359 E269.52754 F1800
G0 X253.499 F7200
G1 X263.049 Y144.809 E269.91967 F1800
G0 X262.784 Y144.508 F7200
G1 X252.933 Y154.359 E270.32417 F1800
G0 X252.367 F7200
G1 X262.502 Y144.225 E270.74032 F1800
G0 X262.201 Y143.960 F7200
G1 X251.802 Y154.359 E271.16732 F1800
G0 X251.236 F7200
G1 X261.876 Y143.720 E271.60420 F1800
G0 X261.532 Y143.498 F7200
G1 X250.670 Y154.359 E272.05020 F1800
G0 X250.105 F7200
G1 X261.173 Y143.291 E272.50467 F1800
G0 X260.788 Y143.111 F7200
G1 X249.539 Y154.359 E272.96655 F1800
G0 X248.973 F7200
G1 X260.376 Y142.957 E273.43475 F1800
G0 X259.939 Y142.828 F7200
G1 X248.408 Y154.359 E273.90824 F1800
G0 X247.842 F7200
G1 X259.470 Y142.731 E274.38571 F1800
G0 X258.967 Y142.668 F7200
G1 X247.276 Y154.359 E274.86577 F1800
G0 X246.710 F7200
G1 X258.431 Y142.639 E275.34704 F1800
G0 X257.865 F7200
G1 X246.145 Y154.359 E275.82829 F1800
G0 X245.579 F7200
G1 X257.299 Y142.639 E276.30953 F1800
G0 X256.734 F7200
G1 X245.013 Y154.359 E276.79080 F1800
G0 X244.448 F7200
G1 X256.168 Y142.639 E277.27205 F1800
G0 X255.602 F7200
G1 X243.882 Y154.359 E277.75329 F1800
G0 X243.316 F7200
G1 X255.037 Y142.639 E278.23457 F1800
G0 X254.471 F7200
G1 X242.751 Y154.359 E278.71581 F1800
G0 X242.185 F7200
G1 X253.905 Y142.639 E279.19705 F1800
G0 X253.340 F7200
G1 X241.619 Y154.359 E279.67833 F1800
G0 X241.054 F7200
G1 X252.774 Y142.639 E280.15957 F1800
G0 X252.208 F7200
G1 X240.488 Y154.359 E280.64082 F1800
G0 X239.922 F7200
G1 X251.643 Y142.639 E281.12209 F1800
G0 X251.077 F7200
G1 X239.357 Y154.359 E281.60333 F1800
G0 X238.791 F7200
G1 X250.511 Y142.639 E282.08458 F1800
G0 X249.945 F7200
G1 X238.225 Y154.359 E282.56582 F1800
G0 X237.660 F7200
G1 X249.380 Y142.639 E283.04707 F1800
G0 X248.814 F7200
G1 X237.094 Y154.359 E283.52831 F1800
G0 X236.528 F7200
G1 X248.248 Y142.639 E284.00955 F1800
G0 X247.683 F7200
G1 X235.962 Y154.359 E284.49083 F1800
G0 X235.397 F7200
G1 X247.117 Y142.639 E284.97207 F1800
G0 X246.551 F7200
G1 X234.831 Y154.359 E285.45332 F1800
G0 X234.265 F7200
G1 X245.986 Y142.639 E285.93459 F1800
G0 X245.420 F7200
G1 X233.700 Y154.359 E286.41583 F1800
G0 X233.134 F7200
G1 X244.854 Y142.639 E286.89708 F1800
G0 X244.289 F7200
G1 X232.568 Y154.359 E287.37835 F1800
G0 X232.003 F7200
G1 X243.723 Y142.639 E287.85960 F1800
G0 X243.157 F7200
G1 X231.437 Y154.359 E288.34084 F1800
G0 X230.871 F7200
G1 X242.592 Y142.639 E288.82211 F1800
G0 X242.026 F7200
G1 X230.306 Y154.359 E289.30336 F1800
G0 X229.740 F7200
G1 X241.460 Y142.639 E289.78460 F1800
G0 X240.895 F7200
G1 X229.174 Y154.359 E290.26588 F1800
G0 X228.609 F7200
G1 X240.329 Y142.639 E290.74712 F1800
G0 X239.763 F7200
G1 X228.043 Y154.359 E291.22836 F1800
G0 X227.477 F7200
G1 X239.197 Y142.639 E291.70961 F1800
G0 X238.632 F7200
G1 X226.911 Y154.359 E292.19088 F1800
G0 X226.346 F7200
G1 X238.066 Y142.639 E292.67213 F1800
G0 X237.500 F7200
G1 X225.780 Y154.359 E293.15337 F1800
G0 X225.214 F7200
G1 X236.935 Y142.639 E293.63464 F1800
G0 X236.369 F7200
G1 X224.649 Y154.359 E294.11589 F1800
G0 X224.083 F7200
G1 X235.803 Y142.639 E294.59713 F1800
G0 X235.238 F7200
G1 X223.517 Y154.359 E295.07841 F1800
G0 X222.952 F7200
G1 X234.672 Y142.639 E295.55965 F1800
G0 X234.106 F7200
G1 X222.386 Y154.359 E296.04089 F1800
G0 X221.820 F7200
G1 X233.541 Y142.639 E296.52217 F1800
G0 X232.975 F7200
G1 X221.255 Y154.359 E297.00341 F1800
G0 X220.689 F7200
G1 X232.409 Y142.639 E297.48466 F1800
G0 X231.844 F7200
G1 X220.123 Y154.359 E297.96593 F1800
G0 X219.558 F7200
G1 X231.278 Y142.639 E298.44717 F1800
G0 X230.712 F7200
G1 X218.992 Y154.359 E298.92842 F1800
G0 X218.426 F7200
G1 X230.146 Y142.639 E299.40966 F1800
G0 X229.580 Y142.640 F7200
G1 X217.861 Y154.359 E299.89088 F1800
G0 X217.295 F7200
G1 X229.014 Y142.640 E300.37209 F1800
G0 X228.449 F7200
G1 X216.729 Y154.359 E300.85331 F1800
G0 X216.163 F7200
G1 X227.883 Y142.640 E301.33452 F1800
G0 X227.317 F7200
G1 X215.598 Y154.359 E301.81574 F1800
G0 X215.032 F7200
G1 X226.752 Y142.640 E302.29695 F1800
G0 X226.186 F7200
G1 X214.466 Y154.359 E302.77817 F1800
G0 X213.901 F7200
G1 X225.620 Y142.640 E303.25938 F1800
G0 X225.055 F7200
G1 X213.335 Y154.359 E303.74060 F1800
G0 X212.769 F7200
G1 X224.489 Y142.640 E304.22181 F1800
G0 X223.923 F7200
G1 X212.204 Y154.359 E304.70303 F1800
G0 X211.638 F7200
G1 X223.358 Y142.640 E305.18425 F1800
G0 X222.792 F7200
G1 X211.072 Y154.359 E305.66546 F1800
G0 X210.507 F7200
G1 X222.226 Y142.640 E306.14668 F1800
G0 X221.661 F7200
G1 X209.941 Y154.359 E306.62789 F1800
G0 X209.375 F7200
G1 X221.095 Y142.640 E307.10911 F1800
G0 X220.529 F7200
G1 X208.810 Y154.359 E307.59032 F1800
G0 X208.244 F7200
G1 X219.963 Y142.640 E308.07154 F1800
G0 X219.398 F7200
G1 X207.678 Y154.359 E308.55275 F1800
G0 X207.112 F7200
G1 X218.832 Y142.640 E309.03397 F1800
G0 X218.266 F7200
G1 X206.547 Y154.359 E309.51518 F1800
G0 X205.981 F7200
G1 X217.701 Y142.640 E309.99640 F1800
G0 X217.135 F7200
G1 X205.415 Y154.359 E310.47761 F1800
G0 X204.850 F7200
G1 X216.569 Y142.640 E310.95883 F1800
G0 X216.004 F7200
G1 X204.284 Y154.359 E311.44004 F1800
G0 X203.718 F7200
G1 X215.438 Y142.640 E311.92126 F1800
G0 X214.872 F7200
G1 X203.153 Y154.359 E312.40247 F1800
G0 X202.587 F7200
G1 X214.307 Y142.640 E312.88369 F1800
G0 X213.741 F7200
G1 X202.021 Y154.359 E313.36490 F1800
G0 X201.461 Y154.354 F7200
G1 X213.175 Y142.640 E313.84592 F1800
G0 X212.610 F7200
G1 X200.925 Y154.325 E314.32574 F1800
G0 X200.430 Y154.254 F7200
G1 X212.044 Y142.640 E314.80263 F1800
G0 X211.478 F7200
G1 X199.969 Y154.149 E315.27522 F1800
G0 X199.537 Y154.015 F7200
G1 X210.912 Y142.640 E315.74229 F1800
G0 X210.347 F7200
G1 X199.135 Y153.852 E316.20269 F1800
G0 X198.752 Y153.669 F7200
G1 X209.781 Y142.640 E316.65557 F1800
G0 X209.215 F7200
G1 X198.395 Y153.460 E317.09985 F1800
G0 X198.057 Y153.232 F7200
G1 X208.650 Y142.640 E317.53481 F1800
G0 X208.084 F7200
G1 X197.734 Y152.990 E317.95981 F1800
G0 X197.436 Y152.722 F7200
G1 X207.518 Y142.640 E318.37381 F1800
G0 X206.953 F7200
G1 X197.160 Y152.433 E318.77593 F1800
G0 X196.901 Y152.126 F7200
G1 X206.387 Y142.640 E319.16545 F1800
G0 X205.821 F7200
G1 X196.661 Y151.800 E319.54158 F1800
G0 X196.447 Y151.448 F7200
G1 X205.256 Y142.640 E319.90328 F1800
G0 X204.690 F7200
G1 X196.251 Y151.079 E320.24980 F1800
G0 X196.068 Y150.696 F7200
G1 X204.124 Y142.640 E320.58058 F1800
G0 X203.559 F7200
G1 X195.918 Y150.280 E320.89431 F1800
G0 X195.800 Y149.833 F7200
G1 X202.993 Y142.640 E321.18967 F1800
G0 X202.427 F7200
G1 X195.713 Y149.354 E321.46537 F1800
G0 X195.662 Y148.840 F7200
G1 X201.862 Y142.640 E321.71995 F1800
G0 X201.281 Y142.655 F7200
G1 X195.655 Y148.280 E321.95094 F1800
G0 X195.711 Y147.659 F7200
G1 X200.659 Y142.711 E322.15410 F1800
G0 X199.950 Y142.854 F7200
G1 X195.854 Y146.950 E322.32228 F1800
G0 X196.186 Y146.052 F7200
G1 X198.697 Y143.541 E322.42539 F1800
G1 X199.051 Y143.187 E322.42539 F1800
G1 F1800 E313.42539
G0 Z1.290 F1500
G0 X259.209 Y154.306 F7200
G0 Z0.790 F1500
G1 F1200 E322.42539
G1 X264.306 Y149.209 E322.63468 F1800
G0 X264.180 Y149.900 F7200
G1 X259.899 Y154.181 E322.81046 F1800
G0 X260.733 Y153.913 F7200
G1 X263.913 Y150.733 E322.94104 F1800
G0 X263.120 Y152.092 F7200
G1 X262.442 Y152.770 E322.96888 F1800
G1 X262.088 Y153.124 E322.96888 F1800
; Inset 0 
G1 F1800 E313.96888
G0 Z1.290 F1500
G0 X264.098 Y148.500 F7200
G0 Z0.790 F1500
G1 F1200 E322.96888
G0 X264.898 F7200
G1 X264.866 Y149.132 E322.97806 F1800
G1 X264.774 Y149.758 E322.98724 F1800
G1 X264.625 Y150.359 E322.99622 F1800
G1 X264.420 Y150.931 E323.00503 F1800
G1 X264.142 Y151.515 E323.01441 F1800
G1 X263.816 Y152.062 E323.02365 F1800
G1 X263.437 Y152.574 E323.03289 F1800
G1 X263.027 Y153.027 E323.04175 F1800
G1 X262.574 Y153.437 E323.05061 F1800
G1 X262.062 Y153.816 E323.05985 F1800
G1 X261.504 Y154.150 E323.06929 F1800
G1 X260.950 Y154.411 E323.07818 F1800
G1 X260.354 Y154.626 E323.08737 F1800
G1 X259.758 Y154.774 E323.09628 F1800
G1 X259.131 Y154.866 E323.10547 F1800
G1 X258.470 Y154.900 E323.11507 F1800
G1 X201.530 E323.94172 F1800
G1 X200.868 Y154.866 E323.95134 F1800
G1 X200.242 Y154.774 E323.96051 F1800
G1 X199.641 Y154.625 E323.96950 F1800
G1 X199.067 Y154.419 E323.97834 F1800
G1 X198.485 Y154.142 E323.98769 F1800
G1 X197.938 Y153.816 E323.99692 F1800
G1 X197.426 Y153.437 E324.00617 F1800
G1 X196.973 Y153.027 E324.01503 F1800
G1 X196.563 Y152.574 E324.02388 F1800
G1 X196.184 Y152.062 E324.03313 F1800
G1 X195.858 Y151.515 E324.04236 F1800
G1 X195.580 Y150.931 E324.05174 F1800
G1 X195.375 Y150.359 E324.06055 F1800
G1 X195.226 Y149.758 E324.06954 F1800
G1 X195.134 Y149.132 E324.07872 F1800
G1 X195.102 Y148.500 E324.08789 F1800
G1 X195.134 Y147.868 E324.09707 F1800
G1 X195.226 Y147.242 E324.10624 F1800
G1 X195.375 Y146.641 E324.11523 F1800
G1 X195.580 Y146.069 E324.12404 F1800
G1 X195.858 Y145.485 E324.13342 F1800
G1 X196.184 Y144.938 E324.14265 F1800
G1 X196.563 Y144.426 E324.15190 F1800
G1 X196.973 Y143.973 E324.16076 F1800
G1 X197.426 Y143.563 E324.16961 F1800
G1 X197.938 Y143.184 E324.17886 F1800
G1 X198.485 Y142.858 E324.18810 F1800
G1 X199.067 Y142.581 E324.19745 F1800
G1 X199.641 Y142.375 E324.20629 F1800
G1 X200.242 Y142.226 E324.21527 F1800
G1 X200.868 Y142.134 E324.22445 F1800
G1 X201.530 Y142.100 E324.23406 F1800
G1 X258.470 E325.06072 F1800
G1 X259.131 Y142.134 E325.07031 F1800
G1 X259.758 Y142.226 E325.07950 F1800
G1 X260.354 Y142.374 E325.08842 F1800
G1 X260.947 Y142.588 E325.09756 F1800
G1 X261.503 Y142.849 E325.10648 F1800
G1 X262.062 Y143.184 E325.11593 F1800
G1 X262.574 Y143.563 E325.12518 F1800
G1 X263.027 Y143.973 E325.13403 F1800
G1 X263.437 Y144.426 E325.14289 F1800
G1 X263.816 Y144.938 E325.15214 F1800
G1 X264.142 Y145.485 E325.16137 F1800
G1 X264.420 Y146.069 E325.17075 F1800
G1 X264.625 Y146.641 E325.17956 F1800
G1 X264.774 Y147.242 E325.18855 F1800
G1 X264.866 Y147.868 E325.19772 F1800
G1 X264.898 Y148.500 E325.20690 F1800
G0 X265.300 F7200
G1 X265.266 Y149.168 E325.21660 F1800
G1 X265.168 Y149.830 E325.22631 F1800
G1 X265.008 Y150.473 E325.23592 F1800
G1 X264.784 Y151.098 E325.24555 F1800
G1 X264.496 Y151.705 E325.25529 F1800
G1 X264.152 Y152.280 E325.26502 F1800
G1 X263.753 Y152.818 E325.27473 F1800
G1 X263.309 Y153.309 E325.28432 F1800
G1 X262.818 Y153.753 E325.29392 F1800
G1 X262.280 Y154.152 E325.30363 F1800
G1 X261.701 Y154.499 E325.31343 F1800
G1 X261.101 Y154.782 E325.32306 F1800
G1 X260.472 Y155.008 E325.33276 F1800
G1 X259.830 Y155.168 E325.34235 F1800
G1 X259.167 Y155.266 E325.35208 F1800
G1 X258.490 Y155.300 E325.36191 F1800
G1 X201.510 E326.18915 F1800
G1 X200.832 Y155.266 E326.19899 F1800
G1 X200.170 Y155.168 E326.20870 F1800
G1 X199.527 Y155.008 E326.21831 F1800
G1 X198.902 Y154.784 E326.22794 F1800
G1 X198.295 Y154.496 E326.23768 F1800
G1 X197.720 Y154.152 E326.24741 F1800
G1 X197.182 Y153.753 E326.25712 F1800
G1 X196.691 Y153.309 E326.26672 F1800
G1 X196.247 Y152.818 E326.27631 F1800
G1 X195.848 Y152.280 E326.28603 F1800
G1 X195.504 Y151.705 E326.29575 F1800
G1 X195.216 Y151.098 E326.30549 F1800
G1 X194.992 Y150.473 E326.31512 F1800
G1 X194.832 Y149.830 E326.32473 F1800
G1 X194.734 Y149.168 E326.33444 F1800
G1 X194.700 Y148.500 E326.34414 F1800
G1 X194.734 Y147.832 E326.35384 F1800
G1 X194.832 Y147.170 E326.36355 F1800
G1 X194.992 Y146.527 E326.37316 F1800
G1 X195.216 Y145.902 E326.38279 F1800
G1 X195.504 Y145.295 E326.39253 F1800
G1 X195.848 Y144.720 E326.40226 F1800
G1 X196.247 Y144.182 E326.41197 F1800
G1 X196.691 Y143.691 E326.42157 F1800
G1 X197.182 Y143.247 E326.43116 F1800
G1 X197.720 Y142.848 E326.44088 F1800
G1 X198.295 Y142.504 E326.45060 F1800
G1 X198.902 Y142.216 E326.46034 F1800
G1 X199.527 Y141.992 E326.46997 F1800
G1 X200.170 Y141.832 E326.47958 F1800
G1 X200.832 Y141.734 E326.48929 F1800
G1 X201.510 Y141.700 E326.49914 F1800
G1 X258.490 E327.32638 F1800
G1 X259.167 Y141.734 E327.33620 F1800
G1 X259.830 Y141.832 E327.34593 F1800
G1 X260.472 Y141.992 E327.35553 F1800
G1 X261.101 Y142.218 E327.36523 F1800
G1 X261.701 Y142.501 E327.37485 F1800
G1 X262.280 Y142.848 E327.38465 F1800
G1 X262.818 Y143.247 E327.39436 F1800
G1 X263.309 Y143.691 E327.40396 F1800
G1 X263.753 Y144.182 E327.41356 F1800
G1 X264.152 Y144.720 E327.42327 F1800
G1 X264.496 Y145.295 E327.43300 F1800
G1 X264.784 Y145.902 E327.44274 F1800
G1 X265.008 Y146.527 E327.45236 F1800
G1 X265.168 Y147.170 E327.46197 F1800
G1 X265.266 Y147.832 E327.47169 F1800
G1 X265.300 Y148.500 E327.48138 F1800
;MACROLAYER:3
;LAYER:8
M532 L8
; Inset XP 
G0 Z0.880 F1500
G0 X264.496 F7200
G1 X264.466 Y149.096 E327.49004 F2400
G1 X264.380 Y149.686 E327.49869 F2400
G1 X264.242 Y150.245 E327.50704 F2400
G1 X264.056 Y150.764 E327.51504 F2400
G1 X263.784 Y151.335 E327.52421 F2400
G1 X263.485 Y151.836 E327.53268 F2400
G1 X263.121 Y152.329 E327.54156 F2400
G1 X262.745 Y152.745 E327.54969 F2400
G1 X262.329 Y153.121 E327.55782 F2400
G1 X261.845 Y153.479 E327.56656 F2400
G1 X261.306 Y153.801 E327.57566 F2400
G1 X260.796 Y154.041 E327.58384 F2400
G1 X260.236 Y154.244 E327.59248 F2400
G1 X259.686 Y154.380 E327.60069 F2400
G1 X259.095 Y154.466 E327.60936 F2400
G1 X258.450 Y154.500 E327.61872 F2400
G1 X201.550 E328.44480 F2400
G1 X200.904 Y154.466 E328.45418 F2400
G1 X200.314 Y154.380 E328.46283 F2400
G1 X199.759 Y154.243 E328.47112 F2400
G1 X199.229 Y154.053 E328.47930 F2400
G1 X198.665 Y153.784 E328.48836 F2400
G1 X198.164 Y153.485 E328.49682 F2400
G1 X197.671 Y153.121 E328.50571 F2400
G1 X197.255 Y152.745 E328.51384 F2400
G1 X196.879 Y152.329 E328.52197 F2400
G1 X196.515 Y151.836 E328.53085 F2400
G1 X196.216 Y151.335 E328.53931 F2400
G1 X195.944 Y150.764 E328.54849 F2400
G1 X195.758 Y150.245 E328.55649 F2400
G1 X195.620 Y149.686 E328.56484 F2400
G1 X195.534 Y149.096 E328.57349 F2400
G1 X195.504 Y148.500 E328.58214 F2400
G1 X195.534 Y147.904 E328.59080 F2400
G1 X195.620 Y147.314 E328.59945 F2400
G1 X195.758 Y146.755 E328.60780 F2400
G1 X195.944 Y146.236 E328.61580 F2400
G1 X196.216 Y145.665 E328.62497 F2400
G1 X196.515 Y145.164 E328.63343 F2400
G1 X196.879 Y144.671 E328.64232 F2400
G1 X197.255 Y144.255 E328.65045 F2400
G1 X197.671 Y143.879 E328.65858 F2400
G1 X198.166 Y143.513 E328.66751 F2400
G1 X198.665 Y143.216 E328.67593 F2400
G1 X199.229 Y142.947 E328.68499 F2400
G1 X199.759 Y142.757 E328.69316 F2400
G1 X200.314 Y142.620 E328.70145 F2400
G1 X200.904 Y142.534 E328.71010 F2400
G1 X201.550 Y142.500 E328.71948 F2400
G1 X258.450 E329.54556 F2400
G1 X259.095 Y142.534 E329.55492 F2400
G1 X259.686 Y142.620 E329.56359 F2400
G1 X260.236 Y142.756 E329.57181 F2400
G1 X260.793 Y142.958 E329.58040 F2400
G1 X261.305 Y143.199 E329.58861 F2400
G1 X261.844 Y143.521 E329.59771 F2400
G1 X262.329 Y143.879 E329.60645 F2400
G1 X262.745 Y144.255 E329.61458 F2400
G1 X263.121 Y144.671 E329.62271 F2400
G1 X263.485 Y145.164 E329.63159 F2400
G1 X263.784 Y145.665 E329.64006 F2400
G1 X264.056 Y146.236 E329.64923 F2400
G1 X264.242 Y146.755 E329.65723 F2400
G1 X264.380 Y147.314 E329.66558 F2400
G1 X264.466 Y147.904 E329.67423 F2400
G1 X264.496 Y148.500 E329.68289 F2400
; Inset 0 
G0 X264.898 F7200
G1 X264.866 Y149.132 E329.69206 F1800
G1 X264.774 Y149.758 E329.70124 F1800
G1 X264.625 Y150.359 E329.71022 F1800
G1 X264.420 Y150.931 E329.71904 F1800
G1 X264.142 Y151.515 E329.72842 F1800
G1 X263.816 Y152.062 E329.73765 F1800
G1 X263.437 Y152.574 E329.74690 F1800
G1 X263.027 Y153.027 E329.75575 F1800
G1 X262.574 Y153.437 E329.76461 F1800
G1 X262.062 Y153.816 E329.77386 F1800
G1 X261.504 Y154.150 E329.78329 F1800
G1 X260.950 Y154.411 E329.79218 F1800
G1 X260.354 Y154.626 E329.80137 F1800
G1 X259.758 Y154.774 E329.81028 F1800
G1 X259.131 Y154.866 E329.81947 F1800
G1 X258.470 Y154.900 E329.82907 F1800
G1 X201.530 E330.65573 F1800
G1 X200.868 Y154.866 E330.66534 F1800
G1 X200.242 Y154.774 E330.67451 F1800
G1 X199.641 Y154.625 E330.68350 F1800
G1 X199.067 Y154.419 E330.69234 F1800
G1 X198.485 Y154.142 E330.70169 F1800
G1 X197.938 Y153.816 E330.71092 F1800
G1 X197.426 Y153.437 E330.72017 F1800
G1 X196.973 Y153.027 E330.72903 F1800
G1 X196.563 Y152.574 E330.73788 F1800
G1 X196.184 Y152.062 E330.74713 F1800
G1 X195.858 Y151.515 E330.75637 F1800
G1 X195.580 Y150.931 E330.76574 F1800
G1 X195.375 Y150.359 E330.77456 F1800
G1 X195.226 Y149.758 E330.78354 F1800
G1 X195.134 Y149.132 E330.79272 F1800
G1 X195.102 Y148.500 E330.80189 F1800
G1 X195.134 Y147.868 E330.81107 F1800
G1 X195.226 Y147.242 E330.82025 F1800
G1 X195.375 Y146.641 E330.82923 F1800
G1 X195.580 Y146.069 E330.83804 F1800
G1 X195.858 Y145.485 E330.84742 F1800
G1 X196.184 Y144.938 E330.85666 F1800
G1 X196.563 Y144.426 E330.86590 F1800
G1 X196.973 Y143.973 E330.87476 F1800
G1 X197.426 Y143.563 E330.88362 F1800
G1 X197.938 Y143.184 E330.89286 F1800
G1 X198.485 Y142.858 E330.90210 F1800
G1 X199.067 Y142.581 E330.91145 F1800
G1 X199.641 Y142.375 E330.92029 F1800
G1 X200.242 Y142.226 E330.92928 F1800
G1 X200.868 Y142.134 E330.93845 F1800
G1 X201.530 Y142.100 E330.94806 F1800
G1 X258.470 E331.77472 F1800
G1 X259.131 Y142.134 E331.78432 F1800
G1 X259.758 Y142.226 E331.79351 F1800
G1 X260.354 Y142.374 E331.80242 F1800
G1 X260.947 Y142.588 E331.81157 F1800
G1 X261.503 Y142.849 E331.82048 F1800
G1 X262.062 Y143.184 E331.82993 F1800
G1 X262.574 Y143.563 E331.83918 F1800
G1 X263.027 Y143.973 E331.84804 F1800
G1 X263.437 Y144.426 E331.85689 F1800
G1 X263.816 Y144.938 E331.86614 F1800
G1 X264.142 Y145.485 E331.87537 F1800
G1 X264.420 Y146.069 E331.88475 F1800
G1 X264.625 Y146.641 E331.89356 F1800
G1 X264.774 Y147.242 E331.90255 F1800
G1 X264.866 Y147.868 E331.91173 F1800
G1 X264.898 Y148.500 E331.92090 F1800
G0 X265.300 F7200
G1 X265.266 Y149.168 E331.93060 F1800
G1 X265.168 Y149.830 E331.94031 F1800
G1 X265.008 Y150.473 E331.94992 F1800
G1 X264.784 Y151.098 E331.95955 F1800
G1 X264.496 Y151.705 E331.96929 F1800
G1 X264.152 Y152.280 E331.97902 F1800
G1 X263.753 Y152.818 E331.98873 F1800
G1 X263.309 Y153.309 E331.99833 F1800
G1 X262.818 Y153.753 E332.00792 F1800
G1 X262.280 Y154.152 E332.01764 F1800
G1 X261.701 Y154.499 E332.02744 F1800
G1 X261.101 Y154.782 E332.03706 F1800
G1 X260.472 Y155.008 E332.04676 F1800
G1 X259.830 Y155.168 E332.05636 F1800
G1 X259.167 Y155.266 E332.06608 F1800
G1 X258.490 Y155.300 E332.07591 F1800
G1 X201.510 E332.90315 F1800
G1 X200.832 Y155.266 E332.91299 F1800
G1 X200.170 Y155.168 E332.92271 F1800
G1 X199.527 Y155.008 E332.93232 F1800
G1 X198.902 Y154.784 E332.94194 F1800
G1 X198.295 Y154.496 E332.95168 F1800
G1 X197.720 Y154.152 E332.96141 F1800
G1 X197.182 Y153.753 E332.97112 F1800
G1 X196.691 Y153.309 E332.98072 F1800
G1 X196.247 Y152.818 E332.99032 F1800
G1 X195.848 Y152.280 E333.00003 F1800
G1 X195.504 Y151.705 E333.00976 F1800
G1 X195.216 Y151.098 E333.01950 F1800
G1 X194.992 Y150.473 E333.02912 F1800
G1 X194.832 Y149.830 E333.03873 F1800
G1 X194.734 Y149.168 E333.04845 F1800
G1 X194.700 Y148.500 E333.05814 F1800
G1 X194.734 Y147.832 E333.06784 F1800
G1 X194.832 Y147.170 E333.07755 F1800
G1 X194.992 Y146.527 E333.08717 F1800
G1 X195.216 Y145.902 E333.09679 F1800
G1 X195.504 Y145.295 E333.10653 F1800
G1 X195.848 Y144.720 E333.11626 F1800
G1 X196.247 Y144.182 E333.12597 F1800
G1 X196.691 Y143.691 E333.13557 F1800
G1 X197.182 Y143.247 E333.14517 F1800
G1 X197.720 Y142.848 E333.15488 F1800
G1 X198.295 Y142.504 E333.16461 F1800
G1 X198.902 Y142.216 E333.17435 F1800
G1 X199.527 Y141.992 E333.18397 F1800
G1 X200.170 Y141.832 E333.19358 F1800
G1 X200.832 Y141.734 E333.20330 F1800
G1 X201.510 Y141.700 E333.21314 F1800
G1 X258.490 E334.04038 F1800
G1 X259.167 Y141.734 E334.05021 F1800
G1 X259.830 Y141.832 E334.05993 F1800
G1 X260.472 Y141.992 E334.06953 F1800
G1 X261.101 Y142.218 E334.07923 F1800
G1 X261.701 Y142.501 E334.08885 F1800
G1 X262.280 Y142.848 E334.09865 F1800
G1 X262.818 Y143.247 E334.10837 F1800
G1 X263.309 Y143.691 E334.11796 F1800
G1 X263.753 Y144.182 E334.12756 F1800
G1 X264.152 Y144.720 E334.13727 F1800
G1 X264.496 Y145.295 E334.14700 F1800
G1 X264.784 Y145.902 E334.15674 F1800
G1 X265.008 Y146.527 E334.16637 F1800
G1 X265.168 Y147.170 E334.17598 F1800
G1 X265.266 Y147.832 E334.18569 F1800
G1 X265.300 Y148.500 E334.19539 F1800
;MACROLAYER:3
;LAYER:9
M532 L9
; Inset XP 
G0 Z0.970 F1500
G0 X264.496 F7200
G1 X264.466 Y149.096 E334.20404 F2400
G1 X264.380 Y149.686 E334.21269 F2400
G1 X264.242 Y150.245 E334.22104 F2400
G1 X264.056 Y150.764 E334.22904 F2400
G1 X263.784 Y151.335 E334.23821 F2400
G1 X263.485 Y151.836 E334.24668 F2400
G1 X263.121 Y152.329 E334.25556 F2400
G1 X262.745 Y152.745 E334.26369 F2400
G1 X262.329 Y153.121 E334.27182 F2400
G1 X261.845 Y153.479 E334.28056 F2400
G1 X261.306 Y153.801 E334.28967 F2400
G1 X260.796 Y154.041 E334.29784 F2400
G1 X260.236 Y154.244 E334.30648 F2400
G1 X259.686 Y154.380 E334.31470 F2400
G1 X259.095 Y154.466 E334.32336 F2400
G1 X258.450 Y154.500 E334.33273 F2400
G1 X201.550 E335.15880 F2400
G1 X200.904 Y154.466 E335.16818 F2400
G1 X200.314 Y154.380 E335.17684 F2400
G1 X199.759 Y154.243 E335.18513 F2400
G1 X199.229 Y154.053 E335.19330 F2400
G1 X198.665 Y153.784 E335.20236 F2400
G1 X198.164 Y153.485 E335.21082 F2400
G1 X197.671 Y153.121 E335.21971 F2400
G1 X197.255 Y152.745 E335.22784 F2400
G1 X196.879 Y152.329 E335.23597 F2400
G1 X196.515 Y151.836 E335.24485 F2400
G1 X196.216 Y151.335 E335.25332 F2400
G1 X195.944 Y150.764 E335.26249 F2400
G1 X195.758 Y150.245 E335.27049 F2400
G1 X195.620 Y149.686 E335.27884 F2400
G1 X195.534 Y149.096 E335.28749 F2400
G1 X195.504 Y148.500 E335.29615 F2400
G1 X195.534 Y147.904 E335.30480 F2400
G1 X195.620 Y147.314 E335.31345 F2400
G1 X195.758 Y146.755 E335.32180 F2400
G1 X195.944 Y146.236 E335.32980 F2400
G1 X196.216 Y145.665 E335.33897 F2400
G1 X196.515 Y145.164 E335.34744 F2400
G1 X196.879 Y144.671 E335.35632 F2400
G1 X197.255 Y144.255 E335.36445 F2400
