;--- Start G-code Begin ---
U is the distance of the coordinates and V is 0.055 times smaller than U.
M104 S275 T1
M140 S60
G21
G90
M82
G28
M530 S1
G1 Z10 F900
; Start change extruder
M400
M109 S275 T1
T1 R ; switch extruder
; End change extruder
G92 E0 ; reset extrusion
G92 V0 ; reset extrusion
G92 U0 ; reset extrusion
M190 S60
M400
M106 P1 S127
G1 F300
;--- Start G-code End -
;generated by points_to_G1

G1 Z0.20

G92 U0 V0

G1 X0.000 Y0.000 Z0.200 U0.000 V0.000
G1 F300
G1 X52.000 Y0.000 Z0.200 U52.000 V2.860
G1 F100
G1 X55.000 Y0.000 Z0.200 U55.000 V3.025
G1 X55.000 Y1.000 Z0.200 U56.000 V3.080
G1 F300
G1 X3.000 Y1.000 Z0.200 U108.000 V5.940
G1 F100
G1 X0.000 Y1.000 Z0.200 U111.000 V6.105
G1 X0.000 Y2.000 Z0.200 U112.000 V6.160
G1 F300
G1 X52.000 Y2.000 Z0.200 U164.000 V9.020
G1 F100
G1 X55.000 Y2.000 Z0.200 U167.000 V9.185
G1 X55.000 Y3.000 Z0.200 U168.000 V9.240
G1 F300
G1 X3.000 Y3.000 Z0.200 U220.000 V12.100
G1 F100
G1 X0.000 Y3.000 Z0.200 U223.000 V12.265
G1 X0.000 Y4.000 Z0.200 U224.000 V12.320
G1 F300
G1 X52.000 Y4.000 Z0.200 U276.000 V15.180
G1 F100
G1 X55.000 Y4.000 Z0.200 U279.000 V15.345
G1 X55.000 Y5.000 Z0.200 U280.000 V15.400
G1 F300
G1 X3.000 Y5.000 Z0.200 U332.000 V18.260
G1 F100
G1 X0.000 Y5.000 Z0.200 U335.000 V18.425
G1 X0.000 Y6.000 Z0.200 U336.000 V18.480
G1 F300
G1 X5.500 Y6.000 Z0.200 U341.500 V18.782
G1 F100
G1 X8.500 Y6.000 Z0.200 U344.500 V18.948
G1 X9.123 Y5.984 Z0.200 U345.124 V18.982
G1 X9.679 Y5.944 Z0.200 U345.681 V19.012
G1 X10.176 Y5.889 Z0.200 U346.181 V19.040
G1 X10.621 Y5.826 Z0.200 U346.630 V19.065
G1 X11.022 Y5.763 Z0.200 U347.036 V19.087
G1 X11.387 Y5.706 Z0.200 U347.406 V19.107
G1 X11.725 Y5.659 Z0.200 U347.747 V19.126
G1 X12.043 Y5.626 Z0.200 U348.066 V19.144
G1 X12.349 Y5.609 Z0.200 U348.373 V19.161
G1 X12.651 Y5.609 Z0.200 U348.675 V19.177
G1 X12.957 Y5.626 Z0.200 U348.981 V19.194
G1 X13.275 Y5.659 Z0.200 U349.301 V19.212
G1 X13.613 Y5.706 Z0.200 U349.642 V19.230
G1 X13.978 Y5.763 Z0.200 U350.012 V19.251
G1 X14.379 Y5.826 Z0.200 U350.418 V19.273
G1 X14.824 Y5.889 Z0.200 U350.867 V19.298
G1 X15.321 Y5.944 Z0.200 U351.367 V19.325
G1 X15.877 Y5.984 Z0.200 U351.924 V19.356
G1 X16.500 Y6.000 Z0.200 U352.548 V19.390
G1 F300
G1 X32.500 Y6.000 Z0.200 U368.548 V20.270
G1 F100
G1 X35.500 Y6.000 Z0.200 U371.548 V20.435
G1 X36.707 Y5.984 Z0.200 U372.755 V20.502
G1 X37.757 Y5.944 Z0.200 U373.806 V20.559
G1 X38.669 Y5.889 Z0.200 U374.719 V20.610
G1 X39.461 Y5.826 Z0.200 U375.514 V20.653
G1 X40.152 Y5.763 Z0.200 U376.208 V20.691
G1 X40.760 Y5.706 Z0.200 U376.818 V20.725
G1 X41.303 Y5.659 Z0.200 U377.363 V20.755
G1 X41.800 Y5.626 Z0.200 U377.862 V20.782
G1 X42.270 Y5.609 Z0.200 U378.332 V20.808
G1 X42.730 Y5.609 Z0.200 U378.792 V20.834
G1 X43.200 Y5.626 Z0.200 U379.262 V20.859
G1 X43.697 Y5.659 Z0.200 U379.760 V20.887
G1 X44.240 Y5.706 Z0.200 U380.305 V20.917
G1 X44.848 Y5.763 Z0.200 U380.916 V20.950
G1 X45.539 Y5.826 Z0.200 U381.610 V20.989
G1 X46.331 Y5.889 Z0.200 U382.404 V21.032
G1 X47.243 Y5.944 Z0.200 U383.318 V21.082
G1 X48.293 Y5.984 Z0.200 U384.369 V21.140
G1 X49.500 Y6.000 Z0.200 U385.576 V21.207
G1 F300
G1 X52.000 Y6.000 Z0.200 U388.076 V21.344
G1 F100
G1 X55.000 Y6.000 Z0.200 U391.076 V21.509
G1 X55.000 Y7.000 Z0.200 U392.076 V21.564
G1 F300
G1 X52.500 Y7.000 Z0.200 U394.576 V21.702
G1 F100
G1 X49.500 Y7.000 Z0.200 U397.576 V21.867
G1 X48.293 Y6.980 Z0.200 U398.783 V21.933
G1 X47.243 Y6.930 Z0.200 U399.834 V21.991
G1 X46.331 Y6.861 Z0.200 U400.749 V22.041
G1 X45.539 Y6.783 Z0.200 U401.545 V22.085
G1 X44.848 Y6.704 Z0.200 U402.240 V22.123
G1 X44.240 Y6.633 Z0.200 U402.852 V22.157
G1 X43.697 Y6.574 Z0.200 U403.398 V22.187
G1 X43.200 Y6.533 Z0.200 U403.897 V22.214
G1 X42.730 Y6.511 Z0.200 U404.367 V22.240
G1 X42.270 Y6.511 Z0.200 U404.828 V22.266
G1 X41.800 Y6.533 Z0.200 U405.298 V22.291
G1 X41.303 Y6.574 Z0.200 U405.797 V22.319
G1 X40.760 Y6.633 Z0.200 U406.343 V22.349
G1 X40.152 Y6.704 Z0.200 U406.955 V22.383
G1 X39.461 Y6.783 Z0.200 U407.650 V22.421
G1 X38.669 Y6.861 Z0.200 U408.446 V22.465
G1 X37.757 Y6.930 Z0.200 U409.361 V22.515
G1 X36.707 Y6.980 Z0.200 U410.412 V22.573
G1 X35.500 Y7.000 Z0.200 U411.619 V22.639
G1 F300
G1 X19.500 Y7.000 Z0.200 U427.619 V23.519
G1 F100
G1 X16.500 Y7.000 Z0.200 U430.619 V23.684
G1 X15.877 Y6.980 Z0.200 U431.243 V23.718
G1 X15.321 Y6.930 Z0.200 U431.801 V23.749
G1 X14.824 Y6.861 Z0.200 U432.303 V23.777
G1 X14.379 Y6.783 Z0.200 U432.754 V23.801
G1 X13.978 Y6.704 Z0.200 U433.163 V23.824
G1 X13.613 Y6.633 Z0.200 U433.536 V23.844
G1 X13.275 Y6.574 Z0.200 U433.878 V23.863
G1 X12.957 Y6.533 Z0.200 U434.199 V23.881
G1 X12.651 Y6.511 Z0.200 U434.506 V23.898
G1 X12.349 Y6.511 Z0.200 U434.808 V23.914
G1 X12.043 Y6.533 Z0.200 U435.114 V23.931
G1 X11.725 Y6.574 Z0.200 U435.435 V23.949
G1 X11.387 Y6.633 Z0.200 U435.778 V23.968
G1 X11.022 Y6.704 Z0.200 U436.150 V23.988
G1 X10.621 Y6.783 Z0.200 U436.559 V24.011
G1 X10.176 Y6.861 Z0.200 U437.011 V24.036
G1 X9.679 Y6.930 Z0.200 U437.512 V24.063
G1 X9.123 Y6.980 Z0.200 U438.070 V24.094
G1 X8.500 Y7.000 Z0.200 U438.694 V24.128
G1 F300
G1 X3.000 Y7.000 Z0.200 U444.194 V24.431
G1 F100
G1 X0.000 Y7.000 Z0.200 U447.194 V24.596
G1 X0.000 Y8.000 Z0.200 U448.194 V24.651
G1 F300
G1 X5.500 Y8.000 Z0.200 U453.694 V24.953
G1 F100
G1 X8.500 Y8.000 Z0.200 U456.694 V25.118
G1 X9.123 Y7.976 Z0.200 U457.318 V25.152
G1 X9.679 Y7.913 Z0.200 U457.877 V25.183
G1 X10.176 Y7.826 Z0.200 U458.381 V25.211
G1 X10.621 Y7.728 Z0.200 U458.837 V25.236
G1 X11.022 Y7.630 Z0.200 U459.250 V25.259
G1 X11.387 Y7.541 Z0.200 U459.626 V25.279
G1 X11.725 Y7.468 Z0.200 U459.972 V25.298
G1 X12.043 Y7.416 Z0.200 U460.294 V25.316
G1 X12.349 Y7.389 Z0.200 U460.601 V25.333
G1 X12.651 Y7.389 Z0.200 U460.903 V25.350
G1 X12.957 Y7.416 Z0.200 U461.210 V25.367
G1 X13.275 Y7.468 Z0.200 U461.532 V25.384
G1 X13.613 Y7.541 Z0.200 U461.878 V25.403
G1 X13.978 Y7.630 Z0.200 U462.254 V25.424
G1 X14.379 Y7.728 Z0.200 U462.667 V25.447
G1 X14.824 Y7.826 Z0.200 U463.122 V25.472
G1 X15.321 Y7.913 Z0.200 U463.626 V25.499
G1 X15.877 Y7.976 Z0.200 U464.186 V25.530
G1 X16.500 Y8.000 Z0.200 U464.810 V25.565
G1 F300
G1 X32.500 Y8.000 Z0.200 U480.810 V26.445
G1 F100
G1 X35.500 Y8.000 Z0.200 U483.810 V26.610
G1 X36.707 Y7.976 Z0.200 U485.017 V26.676
G1 X37.757 Y7.913 Z0.200 U486.069 V26.734
G1 X38.669 Y7.826 Z0.200 U486.985 V26.784
G1 X39.461 Y7.728 Z0.200 U487.783 V26.828
G1 X40.152 Y7.630 Z0.200 U488.481 V26.866
G1 X40.760 Y7.541 Z0.200 U489.095 V26.900
G1 X41.303 Y7.468 Z0.200 U489.643 V26.930
G1 X41.800 Y7.416 Z0.200 U490.143 V26.958
G1 X42.270 Y7.389 Z0.200 U490.614 V26.984
G1 X42.730 Y7.389 Z0.200 U491.074 V27.009
G1 X43.200 Y7.416 Z0.200 U491.544 V27.035
G1 X43.697 Y7.468 Z0.200 U492.044 V27.062
G1 X44.240 Y7.541 Z0.200 U492.592 V27.093
G1 X44.848 Y7.630 Z0.200 U493.207 V27.126
G1 X45.539 Y7.728 Z0.200 U493.905 V27.165
G1 X46.331 Y7.826 Z0.200 U494.703 V27.209
G1 X47.243 Y7.913 Z0.200 U495.619 V27.259
G1 X48.293 Y7.976 Z0.200 U496.671 V27.317
G1 X49.500 Y8.000 Z0.200 U497.878 V27.383
G1 F300
G1 X52.000 Y8.000 Z0.200 U500.378 V27.521
G1 F100
G1 X55.000 Y8.000 Z0.200 U503.378 V27.686
G1 X55.000 Y9.000 Z0.200 U504.378 V27.741
G1 F300
G1 X52.500 Y9.000 Z0.200 U506.878 V27.878
G1 F100
G1 X49.500 Y9.000 Z0.200 U509.878 V28.043
G1 X48.293 Y8.969 Z0.200 U511.085 V28.110
G1 X47.243 Y8.891 Z0.200 U512.138 V28.168
G1 X46.331 Y8.783 Z0.200 U513.057 V28.218
G1 X45.539 Y8.661 Z0.200 U513.858 V28.262
G1 X44.848 Y8.538 Z0.200 U514.560 V28.301
G1 X44.240 Y8.426 Z0.200 U515.178 V28.335
G1 X43.697 Y8.335 Z0.200 U515.729 V28.365
G1 X43.200 Y8.270 Z0.200 U516.230 V28.393
G1 X42.730 Y8.236 Z0.200 U516.701 V28.419
G1 X42.270 Y8.236 Z0.200 U517.161 V28.444
G1 X41.800 Y8.270 Z0.200 U517.632 V28.470
G1 X41.303 Y8.335 Z0.200 U518.133 V28.497
G1 X40.760 Y8.426 Z0.200 U518.684 V28.528
G1 X40.152 Y8.538 Z0.200 U519.302 V28.562
G1 X39.461 Y8.661 Z0.200 U520.004 V28.600
G1 X38.669 Y8.783 Z0.200 U520.805 V28.644
G1 X37.757 Y8.891 Z0.200 U521.724 V28.695
G1 X36.707 Y8.969 Z0.200 U522.777 V28.753
G1 X35.500 Y9.000 Z0.200 U523.984 V28.819
G1 F300
G1 X19.500 Y9.000 Z0.200 U539.984 V29.699
G1 F100
G1 X16.500 Y9.000 Z0.200 U542.984 V29.864
G1 X15.877 Y8.969 Z0.200 U543.608 V29.898
G1 X15.321 Y8.891 Z0.200 U544.170 V29.929
G1 X14.824 Y8.783 Z0.200 U544.678 V29.957
G1 X14.379 Y8.661 Z0.200 U545.139 V29.983
G1 X13.978 Y8.538 Z0.200 U545.559 V30.006
G1 X13.613 Y8.426 Z0.200 U545.941 V30.027
G1 X13.275 Y8.335 Z0.200 U546.291 V30.046
G1 X12.957 Y8.270 Z0.200 U546.615 V30.064
G1 X12.651 Y8.236 Z0.200 U546.923 V30.081
G1 X12.349 Y8.236 Z0.200 U547.225 V30.097
G1 X12.043 Y8.270 Z0.200 U547.533 V30.114
G1 X11.725 Y8.335 Z0.200 U547.857 V30.132
G1 X11.387 Y8.426 Z0.200 U548.207 V30.151
G1 X11.022 Y8.538 Z0.200 U548.590 V30.172
G1 X10.621 Y8.661 Z0.200 U549.009 V30.195
G1 X10.176 Y8.783 Z0.200 U549.470 V30.221
G1 X9.679 Y8.891 Z0.200 U549.979 V30.249
G1 X9.123 Y8.969 Z0.200 U550.540 V30.280
G1 X8.500 Y9.000 Z0.200 U551.164 V30.314
G1 F300
G1 X3.000 Y9.000 Z0.200 U556.664 V30.617
G1 F100
G1 X0.000 Y9.000 Z0.200 U559.664 V30.782
G1 X0.000 Y10.000 Z0.200 U560.664 V30.837
G1 F300
G1 X5.500 Y10.000 Z0.200 U566.164 V31.139
G1 F100
G1 X8.500 Y10.000 Z0.200 U569.164 V31.304
G1 X9.123 Y9.962 Z0.200 U569.789 V31.338
G1 X9.679 Y9.864 Z0.200 U570.353 V31.369
G1 X10.176 Y9.728 Z0.200 U570.868 V31.398
G1 X10.621 Y9.576 Z0.200 U571.338 V31.424
G1 X11.022 Y9.422 Z0.200 U571.768 V31.447
G1 X11.387 Y9.283 Z0.200 U572.159 V31.469
G1 X11.725 Y9.168 Z0.200 U572.516 V31.488
G1 X12.043 Y9.087 Z0.200 U572.844 V31.506
G1 X12.349 Y9.045 Z0.200 U573.152 V31.523
G1 X12.651 Y9.045 Z0.200 U573.454 V31.540
G1 X12.957 Y9.087 Z0.200 U573.763 V31.557
G1 X13.275 Y9.168 Z0.200 U574.091 V31.575
G1 X13.613 Y9.283 Z0.200 U574.448 V31.595
G1 X13.978 Y9.422 Z0.200 U574.839 V31.616
G1 X14.379 Y9.576 Z0.200 U575.269 V31.640
G1 X14.824 Y9.728 Z0.200 U575.739 V31.666
G1 X15.321 Y9.864 Z0.200 U576.254 V31.694
G1 X15.877 Y9.962 Z0.200 U576.818 V31.725
G1 X16.500 Y10.000 Z0.200 U577.443 V31.759
G1 F300
G1 X32.500 Y10.000 Z0.200 U593.443 V32.639
G1 F100
G1 X35.500 Y10.000 Z0.200 U596.443 V32.804
G1 X36.707 Y9.962 Z0.200 U597.650 V32.871
G1 X37.757 Y9.864 Z0.200 U598.705 V32.929
G1 X38.669 Y9.728 Z0.200 U599.627 V32.979
G1 X39.461 Y9.576 Z0.200 U600.434 V33.024
G1 X40.152 Y9.422 Z0.200 U601.141 V33.063
G1 X40.760 Y9.283 Z0.200 U601.765 V33.097
G1 X41.303 Y9.168 Z0.200 U602.320 V33.128
G1 X41.800 Y9.087 Z0.200 U602.824 V33.155
G1 X42.270 Y9.045 Z0.200 U603.295 V33.181
G1 X42.730 Y9.045 Z0.200 U603.756 V33.207
G1 X43.200 Y9.087 Z0.200 U604.227 V33.232
G1 X43.697 Y9.168 Z0.200 U604.731 V33.260
G1 X44.240 Y9.283 Z0.200 U605.286 V33.291
G1 X44.848 Y9.422 Z0.200 U605.910 V33.325
G1 X45.539 Y9.576 Z0.200 U606.617 V33.364
G1 X46.331 Y9.728 Z0.200 U607.424 V33.408
G1 X47.243 Y9.864 Z0.200 U608.346 V33.459
G1 X48.293 Y9.962 Z0.200 U609.401 V33.517
G1 X49.500 Y10.000 Z0.200 U610.608 V33.583
G1 F300
G1 X52.000 Y10.000 Z0.200 U613.108 V33.721
G1 F100
G1 X55.000 Y10.000 Z0.200 U616.108 V33.886
G1 X55.000 Y11.000 Z0.200 U617.108 V33.941
G1 F300
G1 X52.500 Y11.000 Z0.200 U619.608 V34.078
G1 F100
G1 X49.500 Y11.000 Z0.200 U622.608 V34.243
G1 X48.293 Y10.952 Z0.200 U623.816 V34.310
G1 X47.243 Y10.830 Z0.200 U624.873 V34.368
G1 X46.331 Y10.661 Z0.200 U625.801 V34.419
G1 X45.539 Y10.470 Z0.200 U626.616 V34.464
G1 X44.848 Y10.278 Z0.200 U627.333 V34.503
G1 X44.240 Y10.104 Z0.200 U627.965 V34.538
G1 X43.697 Y9.960 Z0.200 U628.527 V34.569
G1 X43.200 Y9.859 Z0.200 U629.034 V34.597
G1 X42.730 Y9.807 Z0.200 U629.507 V34.623
G1 X42.270 Y9.807 Z0.200 U629.967 V34.648
G1 X41.800 Y9.859 Z0.200 U630.439 V34.674
G1 X41.303 Y9.960 Z0.200 U630.947 V34.702
G1 X40.760 Y10.104 Z0.200 U631.509 V34.733
G1 X40.152 Y10.278 Z0.200 U632.141 V34.768
G1 X39.461 Y10.470 Z0.200 U632.858 V34.807
G1 X38.669 Y10.661 Z0.200 U633.673 V34.852
G1 X37.757 Y10.830 Z0.200 U634.600 V34.903
G1 X36.707 Y10.952 Z0.200 U635.658 V34.961
G1 X35.500 Y11.000 Z0.200 U636.865 V35.028
G1 F300
G1 X19.500 Y11.000 Z0.200 U652.865 V35.908
G1 F100
G1 X16.500 Y11.000 Z0.200 U655.865 V36.073
G1 X15.877 Y10.952 Z0.200 U656.491 V36.107
G1 X15.321 Y10.830 Z0.200 U657.060 V36.138
G1 X14.824 Y10.661 Z0.200 U657.584 V36.167
G1 X14.379 Y10.470 Z0.200 U658.069 V36.194
G1 X13.978 Y10.278 Z0.200 U658.513 V36.218
G1 X13.613 Y10.104 Z0.200 U658.918 V36.240
G1 X13.275 Y9.960 Z0.200 U659.285 V36.261
G1 X12.957 Y9.859 Z0.200 U659.619 V36.279
G1 X12.651 Y9.807 Z0.200 U659.929 V36.296
G1 X12.349 Y9.807 Z0.200 U660.231 V36.313
G1 X12.043 Y9.859 Z0.200 U660.542 V36.330
G1 X11.725 Y9.960 Z0.200 U660.875 V36.348
G1 X11.387 Y10.104 Z0.200 U661.242 V36.368
G1 X11.022 Y10.278 Z0.200 U661.647 V36.391
G1 X10.621 Y10.470 Z0.200 U662.092 V36.415
G1 X10.176 Y10.661 Z0.200 U662.576 V36.442
G1 X9.679 Y10.830 Z0.200 U663.100 V36.471
G1 X9.123 Y10.952 Z0.200 U663.669 V36.502
G1 X8.500 Y11.000 Z0.200 U664.295 V36.536
G1 F300
G1 X3.000 Y11.000 Z0.200 U669.795 V36.839
G1 F100
G1 X0.000 Y11.000 Z0.200 U672.795 V37.004
G1 X0.000 Y12.000 Z0.200 U673.795 V37.059
G1 F300
G1 X5.500 Y12.000 Z0.200 U679.295 V37.361
G1 F100
G1 X8.500 Y12.000 Z0.200 U682.295 V37.526
G1 X9.123 Y11.940 Z0.200 U682.921 V37.561
G1 X9.679 Y11.787 Z0.200 U683.498 V37.592
G1 X10.176 Y11.576 Z0.200 U684.037 V37.622
G1 X10.621 Y11.337 Z0.200 U684.542 V37.650
G1 X11.022 Y11.098 Z0.200 U685.009 V37.676
G1 X11.387 Y10.880 Z0.200 U685.435 V37.699
G1 X11.725 Y10.701 Z0.200 U685.817 V37.720
G1 X12.043 Y10.574 Z0.200 U686.159 V37.739
G1 X12.349 Y10.508 Z0.200 U686.472 V37.756
G1 X12.651 Y10.508 Z0.200 U686.774 V37.773
G1 X12.957 Y10.574 Z0.200 U687.087 V37.790
G1 X13.275 Y10.701 Z0.200 U687.429 V37.809
G1 X13.613 Y10.880 Z0.200 U687.812 V37.830
G1 X13.978 Y11.098 Z0.200 U688.237 V37.853
G1 X14.379 Y11.337 Z0.200 U688.704 V37.879
G1 X14.824 Y11.576 Z0.200 U689.209 V37.907
G1 X15.321 Y11.787 Z0.200 U689.749 V37.936
G1 X15.877 Y11.940 Z0.200 U690.326 V37.968
G1 X16.500 Y12.000 Z0.200 U690.952 V38.002
G1 F300
G1 X32.500 Y12.000 Z0.200 U706.952 V38.882
G1 F100
G1 X35.500 Y12.000 Z0.200 U709.952 V39.047
G1 X36.707 Y11.940 Z0.200 U711.160 V39.114
G1 X37.757 Y11.787 Z0.200 U712.222 V39.172
G1 X38.669 Y11.576 Z0.200 U713.158 V39.224
G1 X39.461 Y11.337 Z0.200 U713.985 V39.269
G1 X40.152 Y11.098 Z0.200 U714.716 V39.309
G1 X40.760 Y10.880 Z0.200 U715.362 V39.345
G1 X41.303 Y10.701 Z0.200 U715.934 V39.376
G1 X41.800 Y10.574 Z0.200 U716.447 V39.405
G1 X42.270 Y10.508 Z0.200 U716.921 V39.431
G1 X42.730 Y10.508 Z0.200 U717.381 V39.456
G1 X43.200 Y10.574 Z0.200 U717.856 V39.482
G1 X43.697 Y10.701 Z0.200 U718.369 V39.510
G1 X44.240 Y10.880 Z0.200 U718.941 V39.542
G1 X44.848 Y11.098 Z0.200 U719.586 V39.577
G1 X45.539 Y11.337 Z0.200 U720.317 V39.617
G1 X46.331 Y11.576 Z0.200 U721.145 V39.663
G1 X47.243 Y11.787 Z0.200 U722.081 V39.714
G1 X48.293 Y11.940 Z0.200 U723.142 V39.773
G1 X49.500 Y12.000 Z0.200 U724.351 V39.839
G1 F300
G1 X52.000 Y12.000 Z0.200 U726.851 V39.977
G1 F100
G1 X55.000 Y12.000 Z0.200 U729.851 V40.142
G1 X55.000 Y13.000 Z0.200 U730.851 V40.197
G1 F300
G1 X52.500 Y13.000 Z0.200 U733.351 V40.334
G1 F100
G1 X49.500 Y13.000 Z0.200 U736.351 V40.499
G1 X48.293 Y13.060 Z0.200 U737.559 V40.566
G1 X47.243 Y13.213 Z0.200 U738.620 V40.624
G1 X46.331 Y13.424 Z0.200 U739.556 V40.676
G1 X45.539 Y13.663 Z0.200 U740.384 V40.721
G1 X44.848 Y13.902 Z0.200 U741.115 V40.761
G1 X44.240 Y14.120 Z0.200 U741.761 V40.797
G1 X43.697 Y14.299 Z0.200 U742.333 V40.828
G1 X43.200 Y14.426 Z0.200 U742.846 V40.857
G1 X42.730 Y14.492 Z0.200 U743.320 V40.883
G1 X42.270 Y14.492 Z0.200 U743.780 V40.908
G1 X41.800 Y14.426 Z0.200 U744.254 V40.934
G1 X41.303 Y14.299 Z0.200 U744.767 V40.962
G1 X40.760 Y14.120 Z0.200 U745.339 V40.994
G1 X40.152 Y13.902 Z0.200 U745.985 V41.029
G1 X39.461 Y13.663 Z0.200 U746.716 V41.069
G1 X38.669 Y13.424 Z0.200 U747.544 V41.115
G1 X37.757 Y13.213 Z0.200 U748.480 V41.166
G1 X36.707 Y13.060 Z0.200 U749.541 V41.225
G1 X35.500 Y13.000 Z0.200 U750.749 V41.291
G1 F300
G1 X19.500 Y13.000 Z0.200 U766.749 V42.171
G1 F100
G1 X16.500 Y13.000 Z0.200 U769.749 V42.336
G1 X15.877 Y13.060 Z0.200 U770.376 V42.371
