;--- Start G-code Begin ---
U is the distance of the coordinates and V is 0.055 times smaller than U.
M104 S275 T1
M140 S60
G21
G90
M82
G28
M530 S1
G1 Z10 F900
; Start change extruder
M400
M109 S275 T1
T1 R ; switch extruder
; End change extruder
G92 E0 ; reset extrusion
G92 V0 ; reset extrusion
G92 U0 ; reset extrusion
M190 S60
M400
M106 P1 S127
G1 F300
;--- Start G-code End -
;generated by points_to_G1

G1 Z0.20

G92 U0 V0

G1 X0.000 Y0.000 Z0.200 U0.000 V0.000
G1 F300
G1 X52.000 Y0.000 Z0.200 U52.000 V2.860
G1 F100
G1 X55.000 Y0.000 Z0.200 U55.000 V3.025
G1 X55.000 Y1.000 Z0.200 U56.000 V3.080
G1 F300
G1 X3.000 Y1.000 Z0.200 U108.000 V5.940
G1 F100
G1 X0.000 Y1.000 Z0.200 U111.000 V6.105
G1 X0.000 Y2.000 Z0.200 U112.000 V6.160
G1 F300
G1 X52.000 Y2.000 Z0.200 U164.000 V9.020
G1 F100
G1 X55.000 Y2.000 Z0.200 U167.000 V9.185
G1 X55.000 Y3.000 Z0.200 U168.000 V9.240
G1 F300
G1 X3.000 Y3.000 Z0.200 U220.000 V12.100
G1 F100
G1 X0.000 Y3.000 Z0.200 U223.000 V12.265
G1 X0.000 Y4.000 Z0.200 U224.000 V12.320
G1 F300
G1 X52.000 Y4.000 Z0.200 U276.000 V15.180
G1 F100
G1 X55.000 Y4.000 Z0.200 U279.000 V15.345
G1 X55.000 Y5.000 Z0.200 U280.000 V15.400
G1 F300
G1 X3.000 Y5.000 Z0.200 U332.000 V18.260
G1 F100
G1 X0.000 Y5.000 Z0.200 U335.000 V18.425
G1 X0.000 Y6.000 Z0.200 U336.000 V18.480
G1 F300
G1 X52.000 Y6.000 Z0.200 U388.000 V21.340
G1 F100
G1 X55.000 Y6.000 Z0.200 U391.000 V21.505
G1 X55.000 Y7.000 Z0.200 U392.000 V21.560
G1 F300
G1 X3.000 Y7.000 Z0.200 U444.000 V24.420
G1 F100
G1 X0.000 Y7.000 Z0.200 U447.000 V24.585
G1 X0.000 Y8.000 Z0.200 U448.000 V24.640
G1 F300
G1 X52.000 Y8.000 Z0.200 U500.000 V27.500
G1 F100
G1 X55.000 Y8.000 Z0.200 U503.000 V27.665
G1 X55.000 Y9.000 Z0.200 U504.000 V27.720
G1 F300
G1 X3.000 Y9.000 Z0.200 U556.000 V30.580
G1 F100
G1 X0.000 Y9.000 Z0.200 U559.000 V30.745
G1 X0.000 Y10.000 Z0.200 U560.000 V30.800
G1 F300
G1 X52.000 Y10.000 Z0.200 U612.000 V33.660
G1 F100
G1 X55.000 Y10.000 Z0.200 U615.000 V33.825
G1 X55.000 Y11.000 Z0.200 U616.000 V33.880
G1 F300
G1 X3.000 Y11.000 Z0.200 U668.000 V36.740
G1 F100
G1 X0.000 Y11.000 Z0.200 U671.000 V36.905
G1 X0.000 Y12.000 Z0.200 U672.000 V36.960
G1 F300
G1 X52.000 Y12.000 Z0.200 U724.000 V39.820
G1 F100
G1 X55.000 Y12.000 Z0.200 U727.000 V39.985
G1 X55.000 Y13.000 Z0.200 U728.000 V40.040
G1 F300
G1 X3.000 Y13.000 Z0.200 U780.000 V42.900
G1 F100
G1 X0.000 Y13.000 Z0.200 U783.000 V43.065
G1 X0.000 Y14.000 Z0.200 U784.000 V43.120
G1 F300
G1 X52.000 Y14.000 Z0.200 U836.000 V45.980
G1 F100
G1 X55.000 Y14.000 Z0.200 U839.000 V46.145
G1 X55.000 Y15.000 Z0.200 U840.000 V46.200
G1 F300
G1 X3.000 Y15.000 Z0.200 U892.000 V49.060
G1 F100
G1 X0.000 Y15.000 Z0.200 U895.000 V49.225
G1 X0.000 Y16.000 Z0.200 U896.000 V49.280
G1 F300
G1 X52.000 Y16.000 Z0.200 U948.000 V52.140
G1 F100
G1 X55.000 Y16.000 Z0.200 U951.000 V52.305
G1 X55.000 Y17.000 Z0.200 U952.000 V52.360
G1 F300
G1 X3.000 Y17.000 Z0.200 U1004.000 V55.220
G1 F100
G1 X0.000 Y17.000 Z0.200 U1007.000 V55.385
G1 X0.000 Y18.000 Z0.200 U1008.000 V55.440
G1 F300
G1 X52.000 Y18.000 Z0.200 U1060.000 V58.300
G1 F100
G1 X55.000 Y18.000 Z0.200 U1063.000 V58.465
G1 X55.000 Y19.000 Z0.200 U1064.000 V58.520
G1 F300
G1 X3.000 Y19.000 Z0.200 U1116.000 V61.380
G1 F100
G1 X0.000 Y19.000 Z0.200 U1119.000 V61.545
G1 X0.000 Y20.000 Z0.200 U1120.000 V61.600
G1 F300
G1 X52.000 Y20.000 Z0.200 U1172.000 V64.460
G1 F100
G1 X55.000 Y20.000 Z0.200 U1175.000 V64.625
G1 X55.000 Y21.000 Z0.200 U1176.000 V64.680
G1 F300
G1 X37.500 Y21.000 Z0.200 U1193.500 V65.642
G1 F100
G1 X34.500 Y21.000 Z0.200 U1196.500 V65.808
G1 X33.438 Y20.984 Z0.200 U1197.562 V65.866
G1 X32.484 Y20.944 Z0.200 U1198.517 V65.918
G1 X31.626 Y20.889 Z0.200 U1199.377 V65.966
G1 X30.851 Y20.826 Z0.200 U1200.154 V66.008
G1 X30.146 Y20.763 Z0.200 U1200.862 V66.047
G1 X29.498 Y20.706 Z0.200 U1201.512 V66.083
G1 X28.896 Y20.659 Z0.200 U1202.117 V66.116
G1 X28.325 Y20.626 Z0.200 U1202.689 V66.148
G1 X27.773 Y20.609 Z0.200 U1203.241 V66.178
G1 X27.227 Y20.609 Z0.200 U1203.786 V66.208
G1 X26.675 Y20.626 Z0.200 U1204.339 V66.239
G1 X26.104 Y20.659 Z0.200 U1204.910 V66.270
G1 X25.502 Y20.706 Z0.200 U1205.515 V66.303
G1 X24.854 Y20.763 Z0.200 U1206.165 V66.339
G1 X24.149 Y20.826 Z0.200 U1206.873 V66.378
G1 X23.374 Y20.889 Z0.200 U1207.651 V66.421
G1 X22.516 Y20.944 Z0.200 U1208.510 V66.468
G1 X21.562 Y20.984 Z0.200 U1209.465 V66.521
G1 X20.500 Y21.000 Z0.200 U1210.527 V66.579
G1 F300
G1 X3.000 Y21.000 Z0.200 U1228.027 V67.541
G1 F100
G1 X0.000 Y21.000 Z0.200 U1231.027 V67.706
G1 X0.000 Y22.000 Z0.200 U1232.027 V67.761
G1 F300
G1 X17.500 Y22.000 Z0.200 U1249.527 V68.724
G1 F100
G1 X20.500 Y22.000 Z0.200 U1252.527 V68.889
G1 X21.562 Y21.980 Z0.200 U1253.590 V68.947
G1 X22.516 Y21.930 Z0.200 U1254.545 V69.000
G1 X23.374 Y21.861 Z0.200 U1255.405 V69.047
G1 X24.149 Y21.783 Z0.200 U1256.185 V69.090
G1 X24.854 Y21.704 Z0.200 U1256.894 V69.129
G1 X25.502 Y21.633 Z0.200 U1257.545 V69.165
G1 X26.104 Y21.574 Z0.200 U1258.151 V69.198
G1 X26.675 Y21.533 Z0.200 U1258.724 V69.230
G1 X27.227 Y21.511 Z0.200 U1259.276 V69.260
G1 X27.773 Y21.511 Z0.200 U1259.821 V69.290
G1 X28.325 Y21.533 Z0.200 U1260.374 V69.321
G1 X28.896 Y21.574 Z0.200 U1260.946 V69.352
G1 X29.498 Y21.633 Z0.200 U1261.552 V69.385
G1 X30.146 Y21.704 Z0.200 U1262.203 V69.421
G1 X30.851 Y21.783 Z0.200 U1262.913 V69.460
G1 X31.626 Y21.861 Z0.200 U1263.692 V69.503
G1 X32.484 Y21.930 Z0.200 U1264.552 V69.550
G1 X33.438 Y21.980 Z0.200 U1265.507 V69.603
G1 X34.500 Y22.000 Z0.200 U1266.570 V69.661
G1 F300
G1 X52.000 Y22.000 Z0.200 U1284.070 V70.624
G1 F100
G1 X55.000 Y22.000 Z0.200 U1287.070 V70.789
G1 X55.000 Y23.000 Z0.200 U1288.070 V70.844
G1 F300
G1 X37.500 Y23.000 Z0.200 U1305.570 V71.806
G1 F100
G1 X34.500 Y23.000 Z0.200 U1308.570 V71.971
G1 X33.438 Y22.976 Z0.200 U1309.632 V72.030
G1 X32.484 Y22.913 Z0.200 U1310.588 V72.082
G1 X31.626 Y22.826 Z0.200 U1311.450 V72.130
G1 X30.851 Y22.728 Z0.200 U1312.232 V72.173
G1 X30.146 Y22.630 Z0.200 U1312.943 V72.212
G1 X29.498 Y22.541 Z0.200 U1313.597 V72.248
G1 X28.896 Y22.468 Z0.200 U1314.204 V72.281
G1 X28.325 Y22.416 Z0.200 U1314.778 V72.313
G1 X27.773 Y22.389 Z0.200 U1315.330 V72.343
G1 X27.227 Y22.389 Z0.200 U1315.876 V72.373
G1 X26.675 Y22.416 Z0.200 U1316.428 V72.404
G1 X26.104 Y22.468 Z0.200 U1317.002 V72.435
G1 X25.502 Y22.541 Z0.200 U1317.609 V72.468
G1 X24.854 Y22.630 Z0.200 U1318.263 V72.504
G1 X24.149 Y22.728 Z0.200 U1318.974 V72.544
G1 X23.374 Y22.826 Z0.200 U1319.756 V72.587
G1 X22.516 Y22.913 Z0.200 U1320.618 V72.634
G1 X21.562 Y22.976 Z0.200 U1321.574 V72.687
G1 X20.500 Y23.000 Z0.200 U1322.636 V72.745
G1 F300
G1 X3.000 Y23.000 Z0.200 U1340.136 V73.707
G1 F100
G1 X0.000 Y23.000 Z0.200 U1343.136 V73.872
G1 X0.000 Y24.000 Z0.200 U1344.136 V73.927
G1 F300
G1 X17.500 Y24.000 Z0.200 U1361.636 V74.890
G1 F100
G1 X20.500 Y24.000 Z0.200 U1364.636 V75.055
G1 X21.562 Y23.969 Z0.200 U1365.699 V75.113
G1 X22.516 Y23.891 Z0.200 U1366.656 V75.166
G1 X23.374 Y23.783 Z0.200 U1367.521 V75.214
G1 X24.149 Y23.661 Z0.200 U1368.305 V75.257
G1 X24.854 Y23.538 Z0.200 U1369.021 V75.296
G1 X25.502 Y23.426 Z0.200 U1369.678 V75.332
G1 X26.104 Y23.335 Z0.200 U1370.288 V75.366
G1 X26.675 Y23.270 Z0.200 U1370.862 V75.397
G1 X27.227 Y23.236 Z0.200 U1371.415 V75.428
G1 X27.773 Y23.236 Z0.200 U1371.961 V75.458
G1 X28.325 Y23.270 Z0.200 U1372.514 V75.488
G1 X28.896 Y23.335 Z0.200 U1373.088 V75.520
G1 X29.498 Y23.426 Z0.200 U1373.698 V75.553
G1 X30.146 Y23.538 Z0.200 U1374.355 V75.590
G1 X30.851 Y23.661 Z0.200 U1375.071 V75.629
G1 X31.626 Y23.783 Z0.200 U1375.855 V75.672
G1 X32.484 Y23.891 Z0.200 U1376.720 V75.720
G1 X33.438 Y23.969 Z0.200 U1377.677 V75.772
G1 X34.500 Y24.000 Z0.200 U1378.740 V75.831
G1 F300
G1 X52.000 Y24.000 Z0.200 U1396.240 V76.793
G1 F100
G1 X55.000 Y24.000 Z0.200 U1399.240 V76.958
G1 X55.000 Y25.000 Z0.200 U1400.240 V77.013
G1 F300
G1 X37.500 Y25.000 Z0.200 U1417.740 V77.976
G1 F100
G1 X34.500 Y25.000 Z0.200 U1420.740 V78.141
G1 X33.438 Y24.962 Z0.200 U1421.803 V78.199
G1 X32.484 Y24.864 Z0.200 U1422.761 V78.252
G1 X31.626 Y24.728 Z0.200 U1423.630 V78.300
G1 X30.851 Y24.576 Z0.200 U1424.420 V78.343
G1 X30.146 Y24.422 Z0.200 U1425.141 V78.383
G1 X29.498 Y24.283 Z0.200 U1425.804 V78.419
G1 X28.896 Y24.168 Z0.200 U1426.418 V78.453
G1 X28.325 Y24.087 Z0.200 U1426.994 V78.485
G1 X27.773 Y24.045 Z0.200 U1427.548 V78.515
G1 X27.227 Y24.045 Z0.200 U1428.093 V78.545
G1 X26.675 Y24.087 Z0.200 U1428.647 V78.576
G1 X26.104 Y24.168 Z0.200 U1429.223 V78.607
G1 X25.502 Y24.283 Z0.200 U1429.837 V78.641
G1 X24.854 Y24.422 Z0.200 U1430.499 V78.677
G1 X24.149 Y24.576 Z0.200 U1431.221 V78.717
G1 X23.374 Y24.728 Z0.200 U1432.011 V78.761
G1 X22.516 Y24.864 Z0.200 U1432.880 V78.808
G1 X21.562 Y24.962 Z0.200 U1433.838 V78.861
G1 X20.500 Y25.000 Z0.200 U1434.901 V78.920
G1 F300
G1 X3.000 Y25.000 Z0.200 U1452.401 V79.882
G1 F100
G1 X0.000 Y25.000 Z0.200 U1455.401 V80.047
G1 X0.000 Y26.000 Z0.200 U1456.401 V80.102
G1 F300
G1 X17.500 Y26.000 Z0.200 U1473.901 V81.065
G1 F100
G1 X20.500 Y26.000 Z0.200 U1476.901 V81.230
G1 X21.562 Y25.952 Z0.200 U1477.964 V81.288
G1 X22.516 Y25.830 Z0.200 U1478.926 V81.341
G1 X23.374 Y25.661 Z0.200 U1479.800 V81.389
G1 X24.149 Y25.470 Z0.200 U1480.599 V81.433
G1 X24.854 Y25.278 Z0.200 U1481.329 V81.473
G1 X25.502 Y25.104 Z0.200 U1482.000 V81.510
G1 X26.104 Y24.960 Z0.200 U1482.620 V81.544
G1 X26.675 Y24.859 Z0.200 U1483.199 V81.576
G1 X27.227 Y24.807 Z0.200 U1483.754 V81.606
G1 X27.773 Y24.807 Z0.200 U1484.299 V81.636
G1 X28.325 Y24.859 Z0.200 U1484.854 V81.667
G1 X28.896 Y24.960 Z0.200 U1485.434 V81.699
G1 X29.498 Y25.104 Z0.200 U1486.053 V81.733
G1 X30.146 Y25.278 Z0.200 U1486.724 V81.770
G1 X30.851 Y25.470 Z0.200 U1487.454 V81.810
G1 X31.626 Y25.661 Z0.200 U1488.253 V81.854
G1 X32.484 Y25.830 Z0.200 U1489.127 V81.902
G1 X33.438 Y25.952 Z0.200 U1490.089 V81.955
G1 X34.500 Y26.000 Z0.200 U1491.152 V82.013
G1 F300
G1 X52.000 Y26.000 Z0.200 U1508.652 V82.976
G1 F100
G1 X55.000 Y26.000 Z0.200 U1511.652 V83.141
G1 X55.000 Y27.000 Z0.200 U1512.652 V83.196
G1 F300
G1 X37.500 Y27.000 Z0.200 U1530.152 V84.158
G1 F100
G1 X34.500 Y27.000 Z0.200 U1533.152 V84.323
G1 X33.438 Y26.940 Z0.200 U1534.216 V84.382
G1 X32.484 Y26.787 Z0.200 U1535.182 V84.435
G1 X31.626 Y26.576 Z0.200 U1536.065 V84.484
G1 X30.851 Y26.337 Z0.200 U1536.876 V84.528
G1 X30.146 Y26.098 Z0.200 U1537.621 V84.569
G1 X29.498 Y25.880 Z0.200 U1538.304 V84.607
G1 X28.896 Y25.701 Z0.200 U1538.933 V84.641
G1 X28.325 Y25.574 Z0.200 U1539.518 V84.673
G1 X27.773 Y25.508 Z0.200 U1540.074 V84.704
G1 X27.227 Y25.508 Z0.200 U1540.619 V84.734
G1 X26.675 Y25.574 Z0.200 U1541.175 V84.765
G1 X26.104 Y25.701 Z0.200 U1541.760 V84.797
G1 X25.502 Y25.880 Z0.200 U1542.389 V84.831
G1 X24.854 Y26.098 Z0.200 U1543.072 V84.869
G1 X24.149 Y26.337 Z0.200 U1543.817 V84.910
G1 X23.374 Y26.576 Z0.200 U1544.628 V84.955
G1 X22.516 Y26.787 Z0.200 U1545.511 V85.003
G1 X21.562 Y26.940 Z0.200 U1546.477 V85.056
G1 X20.500 Y27.000 Z0.200 U1547.541 V85.115
G1 F300
G1 X3.000 Y27.000 Z0.200 U1565.041 V86.077
G1 F100
G1 X0.000 Y27.000 Z0.200 U1568.041 V86.242
G1 X0.000 Y28.000 Z0.200 U1569.041 V86.297
G1 F300
G1 X17.500 Y28.000 Z0.200 U1586.541 V87.260
G1 F100
G1 X20.500 Y28.000 Z0.200 U1589.541 V87.425
G1 X21.562 Y28.060 Z0.200 U1590.605 V87.483
G1 X22.516 Y28.213 Z0.200 U1591.571 V87.536
G1 X23.374 Y28.424 Z0.200 U1592.455 V87.585
G1 X24.149 Y28.663 Z0.200 U1593.266 V87.630
G1 X24.854 Y28.902 Z0.200 U1594.010 V87.671
G1 X25.502 Y29.120 Z0.200 U1594.693 V87.708
G1 X26.104 Y29.299 Z0.200 U1595.322 V87.743
G1 X26.675 Y29.426 Z0.200 U1595.907 V87.775
G1 X27.227 Y29.492 Z0.200 U1596.463 V87.805
G1 X27.773 Y29.492 Z0.200 U1597.008 V87.835
G1 X28.325 Y29.426 Z0.200 U1597.564 V87.866
G1 X28.896 Y29.299 Z0.200 U1598.149 V87.898
G1 X29.498 Y29.120 Z0.200 U1598.778 V87.933
G1 X30.146 Y28.902 Z0.200 U1599.461 V87.970
G1 X30.851 Y28.663 Z0.200 U1600.206 V88.011
G1 X31.626 Y28.424 Z0.200 U1601.017 V88.056
G1 X32.484 Y28.213 Z0.200 U1601.900 V88.105
G1 X33.438 Y28.060 Z0.200 U1602.866 V88.158
G1 X34.500 Y28.000 Z0.200 U1603.930 V88.216
G1 F300
G1 X52.000 Y28.000 Z0.200 U1621.430 V89.179
G1 F100
G1 X55.000 Y28.000 Z0.200 U1624.430 V89.344
G1 X55.000 Y29.000 Z0.200 U1625.430 V89.399
G1 F300
G1 X37.500 Y29.000 Z0.200 U1642.930 V90.361
G1 F100
G1 X34.500 Y29.000 Z0.200 U1645.930 V90.526
G1 X33.438 Y29.048 Z0.200 U1646.993 V90.585
G1 X32.484 Y29.170 Z0.200 U1647.955 V90.638
G1 X31.626 Y29.339 Z0.200 U1648.829 V90.686
G1 X30.851 Y29.530 Z0.200 U1649.628 V90.730
G1 X30.146 Y29.722 Z0.200 U1650.358 V90.770
G1 X29.498 Y29.896 Z0.200 U1651.029 V90.807
G1 X28.896 Y30.040 Z0.200 U1651.649 V90.841
G1 X28.325 Y30.141 Z0.200 U1652.228 V90.873
G1 X27.773 Y30.193 Z0.200 U1652.783 V90.903
G1 X27.227 Y30.193 Z0.200 U1653.328 V90.933
G1 X26.675 Y30.141 Z0.200 U1653.883 V90.964
G1 X26.104 Y30.040 Z0.200 U1654.463 V90.995
G1 X25.502 Y29.896 Z0.200 U1655.082 V91.030
G1 X24.854 Y29.722 Z0.200 U1655.753 V91.066
G1 X24.149 Y29.530 Z0.200 U1656.483 V91.107
G1 X23.374 Y29.339 Z0.200 U1657.282 V91.150
G1 X22.516 Y29.170 Z0.200 U1658.156 V91.199
G1 X21.562 Y29.048 Z0.200 U1659.118 V91.251
G1 X20.500 Y29.000 Z0.200 U1660.181 V91.310
G1 F300
G1 X3.000 Y29.000 Z0.200 U1677.681 V92.272
G1 F100
G1 X0.000 Y29.000 Z0.200 U1680.681 V92.437
G1 X0.000 Y30.000 Z0.200 U1681.681 V92.492
G1 F300
G1 X17.500 Y30.000 Z0.200 U1699.181 V93.455
G1 F100
G1 X20.500 Y30.000 Z0.200 U1702.181 V93.620
G1 X21.562 Y30.038 Z0.200 U1703.244 V93.678
G1 X22.516 Y30.136 Z0.200 U1704.203 V93.731
G1 X23.374 Y30.272 Z0.200 U1705.071 V93.779
G1 X24.149 Y30.424 Z0.200 U1705.861 V93.822
G1 X24.854 Y30.578 Z0.200 U1706.583 V93.862
G1 X25.502 Y30.717 Z0.200 U1707.245 V93.898
G1 X26.104 Y30.832 Z0.200 U1707.859 V93.932
G1 X26.675 Y30.913 Z0.200 U1708.435 V93.964
G1 X27.227 Y30.955 Z0.200 U1708.989 V93.994
G1 X27.773 Y30.955 Z0.200 U1709.534 V94.024
G1 X28.325 Y30.913 Z0.200 U1710.088 V94.055
G1 X28.896 Y30.832 Z0.200 U1710.665 V94.087
G1 X29.498 Y30.717 Z0.200 U1711.278 V94.120
G1 X30.146 Y30.578 Z0.200 U1711.941 V94.157
G1 X30.851 Y30.424 Z0.200 U1712.662 V94.196
G1 X31.626 Y30.272 Z0.200 U1713.452 V94.240
G1 X32.484 Y30.136 Z0.200 U1714.321 V94.288
G1 X33.438 Y30.038 Z0.200 U1715.279 V94.340
G1 X34.500 Y30.000 Z0.200 U1716.342 V94.399
G1 F300
G1 X52.000 Y30.000 Z0.200 U1733.842 V95.361
G1 F100
G1 X55.000 Y30.000 Z0.200 U1736.842 V95.526
G1 X55.000 Y31.000 Z0.200 U1737.842 V95.581
G1 F300
G1 X37.500 Y31.000 Z0.200 U1755.342 V96.544
G1 F100
G1 X34.500 Y31.000 Z0.200 U1758.342 V96.709
G1 X33.438 Y31.031 Z0.200 U1759.405 V96.767
G1 X32.484 Y31.109 Z0.200 U1760.362 V96.820
G1 X31.626 Y31.217 Z0.200 U1761.227 V96.867
G1 X30.851 Y31.339 Z0.200 U1762.011 V96.911
G1 X30.146 Y31.462 Z0.200 U1762.727 V96.950
G1 X29.498 Y31.574 Z0.200 U1763.384 V96.986
G1 X28.896 Y31.665 Z0.200 U1763.994 V97.020
G1 X28.325 Y31.730 Z0.200 U1764.568 V97.051
G1 X27.773 Y31.764 Z0.200 U1765.121 V97.082
G1 X27.227 Y31.764 Z0.200 U1765.667 V97.112
G1 X26.675 Y31.730 Z0.200 U1766.220 V97.142
G1 X26.104 Y31.665 Z0.200 U1766.794 V97.174
G1 X25.502 Y31.574 Z0.200 U1767.404 V97.207
G1 X24.854 Y31.462 Z0.200 U1768.061 V97.243
G1 X24.149 Y31.339 Z0.200 U1768.777 V97.283
G1 X23.374 Y31.217 Z0.200 U1769.561 V97.326
G1 X22.516 Y31.109 Z0.200 U1770.426 V97.373
G1 X21.562 Y31.031 Z0.200 U1771.383 V97.426
G1 X20.500 Y31.000 Z0.200 U1772.446 V97.485
G1 F300
G1 X3.000 Y31.000 Z0.200 U1789.946 V98.447
G1 F100
G1 X0.000 Y31.000 Z0.200 U1792.946 V98.612
G1 X0.000 Y32.000 Z0.200 U1793.946 V98.667
G1 F300
G1 X17.500 Y32.000 Z0.200 U1811.446 V99.630
G1 F100
G1 X20.500 Y32.000 Z0.200 U1814.446 V99.795
G1 X21.562 Y32.024 Z0.200 U1815.508 V99.853
G1 X22.516 Y32.087 Z0.200 U1816.464 V99.906
G1 X23.374 Y32.174 Z0.200 U1817.326 V99.953
G1 X24.149 Y32.272 Z0.200 U1818.108 V99.996
G1 X24.854 Y32.370 Z0.200 U1818.819 V100.035
G1 X25.502 Y32.459 Z0.200 U1819.473 V100.071
G1 X26.104 Y32.532 Z0.200 U1820.080 V100.104
G1 X26.675 Y32.584 Z0.200 U1820.654 V100.136
G1 X27.227 Y32.611 Z0.200 U1821.206 V100.166
G1 X27.773 Y32.611 Z0.200 U1821.752 V100.196
G1 X28.325 Y32.584 Z0.200 U1822.304 V100.227
